(Generated by PartKam Version 0.05)

G20 G90 G40

(t1)
G0 Z0.125
T0 M6
G17
M3
G0 X0.8544 Y3.9634
G1 Z-0.016 F30
G1 X0.2044 Y3.9634 F60
G3 X0.1419 Y3.9009 I0 J-0.0625
G1 X0.1419 Y3.6884
G3 X0.2044 Y3.6259 I0.0625 J0
G1 X0.3669 Y3.6259
G1 X0.3669 Y3.0384
G3 X0.4294 Y2.9759 I0.0625 J0
G1 X0.6294 Y2.9759
G3 X0.6919 Y3.0384 I0 J0.0625
G1 X0.6919 Y3.6259
G1 X0.8544 Y3.6259
G3 X0.9169 Y3.6884 I0 J0.0625
G1 X0.9169 Y3.9009
G3 X0.8544 Y3.9634 I-0.0625 J0

(ower)
G0 Z0.125
G0 X1.4486 Y3.3641
G1 Z-0.016 F30
G1 X1.4485 Y3.5767 F60
G3 X1.4482 Y3.5832 I-0.0625 J0
G1 X1.4475 Y3.59
G3 X1.4469 Y3.5942 I-0.0622 J-0.0065
G1 X1.4457 Y3.601
G3 X1.4451 Y3.6042 I-0.0616 J-0.0107
G1 X1.4436 Y3.6109
G3 X1.4427 Y3.6142 I-0.061 J-0.0138
G1 X1.4408 Y3.6209
G3 X1.4396 Y3.6246 I-0.0601 J-0.0171
G1 X1.4373 Y3.6312
G3 X1.4364 Y3.6335 I-0.0589 J-0.0208
G1 X1.4339 Y3.6399
G3 X1.4319 Y3.6444 I-0.0581 J-0.0231
G1 X1.4289 Y3.6505
G3 X1.4278 Y3.6527 I-0.0561 J-0.0276
G1 X1.4245 Y3.6588
G3 X1.4225 Y3.6622 I-0.055 J-0.0297
G1 X1.4188 Y3.6681
G3 X1.4173 Y3.6704 I-0.053 J-0.0331
G1 X1.4134 Y3.6761
G3 X1.4107 Y3.6797 I-0.0515 J-0.0353
G1 X1.4064 Y3.6851
G3 X1.4048 Y3.6871 I-0.0489 J-0.039
G1 X1.4002 Y3.6924
G3 X1.3977 Y3.6951 I-0.0472 J-0.041
G1 X1.3929 Y3.7
G3 X1.3907 Y3.7022 I-0.0447 J-0.0437
G1 X1.3856 Y3.7069
G3 X1.3824 Y3.7096 I-0.0425 J-0.0459
G1 X1.377 Y3.714
G3 X1.3745 Y3.7159 I-0.0393 J-0.0486
G1 X1.3689 Y3.72
G3 X1.366 Y3.722 I-0.0368 J-0.0505
G1 X1.3601 Y3.7258
G3 X1.3577 Y3.7272 I-0.0339 J-0.0525
G1 X1.3517 Y3.7307
G3 X1.3481 Y3.7327 I-0.0314 J-0.054
G1 X1.3418 Y3.7358
G3 X1.3393 Y3.737 I-0.0278 J-0.056
G1 X1.3329 Y3.7398
G3 X1.3293 Y3.7412 I-0.0252 J-0.0572
G1 X1.3229 Y3.7436
G3 X1.3194 Y3.7448 I-0.0217 J-0.0586
G1 X1.3127 Y3.7468
G3 X1.3098 Y3.7476 I-0.0181 J-0.0598
G1 X1.303 Y3.7493
G3 X1.2997 Y3.7501 I-0.0152 J-0.0606
G1 X1.2929 Y3.7514
G3 X1.2903 Y3.7518 I-0.0118 J-0.0614
G1 X1.2834 Y3.7528
G3 X1.2786 Y3.7534 I-0.0092 J-0.0618
G1 X1.2717 Y3.7539
G3 X1.2693 Y3.754 I-0.0044 J-0.0623
G1 X1.2624 Y3.7542
G3 X1.2585 Y3.7542 I-0.002 J-0.0625
G1 X1.2515 Y3.754
G3 X1.2482 Y3.7538 I0.002 J-0.0625
G1 X1.2412 Y3.7532
G3 X1.2371 Y3.7527 I0.0053 J-0.0623
G1 X1.2303 Y3.7517
G3 X1.2279 Y3.7513 I0.0094 J-0.0618
G1 X1.2211 Y3.75
G3 X1.2177 Y3.7492 I0.0118 J-0.0614
G1 X1.211 Y3.7475
G3 X1.2072 Y3.7464 I0.0152 J-0.0606
G1 X1.2005 Y3.7443
G3 X1.197 Y3.7431 I0.019 J-0.0595
G1 X1.1906 Y3.7406
G3 X1.1883 Y3.7397 I0.0225 J-0.0583
G1 X1.1819 Y3.7369
G3 X1.1786 Y3.7353 I0.0248 J-0.0574
G1 X1.1724 Y3.7322
G3 X1.1688 Y3.7302 I0.0282 J-0.0558
G1 X1.1628 Y3.7267
G3 X1.1604 Y3.7252 I0.0318 J-0.0538
G1 X1.1546 Y3.7214
G3 X1.1517 Y3.7194 I0.0342 J-0.0523
G1 X1.1461 Y3.7153
G3 X1.1434 Y3.7132 I0.0371 J-0.0503
G1 X1.1381 Y3.7088
G3 X1.1357 Y3.7067 I0.0398 J-0.0482
G1 X1.1306 Y3.702
G3 X1.1281 Y3.6996 I0.0422 J-0.0461
G1 X1.1232 Y3.6946
G3 X1.1206 Y3.6918 I0.0447 J-0.0437
G1 X1.1161 Y3.6866
G3 X1.1138 Y3.6837 I0.0473 J-0.0409
G1 X1.1095 Y3.6782
G3 X1.1081 Y3.6762 I0.0497 J-0.038
G1 X1.1041 Y3.6705
G3 X1.1018 Y3.6671 I0.0511 J-0.036
G1 X1.0983 Y3.6612
G3 X1.0966 Y3.6583 I0.0533 J-0.0326
G1 X1.0933 Y3.6522
G3 X1.0914 Y3.6485 I0.055 J-0.0297
G1 X1.0886 Y3.6422
G3 X1.0875 Y3.6398 I0.0568 J-0.026
G1 X1.0849 Y3.6334
G3 X1.0835 Y3.6297 I0.0579 J-0.0235
G1 X1.0813 Y3.6231
G3 X1.0805 Y3.6203 I0.0592 J-0.0199
G1 X1.0786 Y3.6136
G3 X1.0776 Y3.6098 I0.0601 J-0.0171
G1 X1.0761 Y3.6031
G3 X1.0755 Y3.6 I0.0611 J-0.0133
G1 X1.0744 Y3.5931
G3 X1.0736 Y3.5829 I0.0617 J-0.0102
G1 X1.0736 Y3.3703
G3 X1.0739 Y3.3639 I0.0625 J0
G1 X1.0746 Y3.3571
G3 X1.0752 Y3.3528 I0.0622 J0.0064
G1 X1.0764 Y3.3459
G3 X1.077 Y3.3427 I0.0616 J0.0107
G1 X1.0785 Y3.3361
G3 X1.0793 Y3.333 I0.0609 J0.0139
G1 X1.0812 Y3.3262
G3 X1.0823 Y3.3229 I0.0601 J0.017
G1 X1.0846 Y3.3162
G3 X1.0858 Y3.313 I0.0591 J0.0203
G1 X1.0884 Y3.3066
G3 X1.0902 Y3.3026 I0.0579 J0.0235
G1 X1.0932 Y3.2964
G3 X1.0944 Y3.2941 I0.0561 J0.0276
G1 X1.0977 Y3.288
G3 X1.0996 Y3.2848 I0.0549 J0.0299
G1 X1.1033 Y3.2789
G3 X1.1048 Y3.2767 I0.053 J0.0331
G1 X1.1087 Y3.271
G3 X1.1112 Y3.2676 I0.0515 J0.0353
G1 X1.1155 Y3.2621
G3 X1.1175 Y3.2597 I0.049 J0.0387
G1 X1.1221 Y3.2544
G3 X1.1242 Y3.2522 I0.047 J0.0412
G1 X1.129 Y3.2472
G3 X1.1317 Y3.2446 I0.0449 J0.0434
G1 X1.1368 Y3.2399
G3 X1.1396 Y3.2375 I0.0422 J0.0461
G1 X1.1451 Y3.2331
G3 X1.1473 Y3.2313 I0.0393 J0.0486
G1 X1.1529 Y3.2272
G3 X1.1565 Y3.2248 I0.0371 J0.0503
G1 X1.1623 Y3.2211
G3 X1.164 Y3.22 I0.0335 J0.0527
G1 X1.17 Y3.2165
G3 X1.174 Y3.2143 I0.0318 J0.0538
G1 X1.1802 Y3.2112
G3 X1.1832 Y3.2098 I0.0278 J0.056
G1 X1.1896 Y3.2071
G3 X1.1923 Y3.206 I0.0248 J0.0574
G1 X1.1988 Y3.2035
G3 X1.2032 Y3.202 I0.0221 J0.0585
G1 X1.2098 Y3.2001
G3 X1.2119 Y3.1995 I0.0177 J0.0599
G1 X1.2186 Y3.1978
G3 X1.2224 Y3.1969 I0.0156 J0.0605
G1 X1.2292 Y3.1956
G3 X1.2322 Y3.1951 I0.0118 J0.0614
G1 X1.2391 Y3.1941
G3 X1.2435 Y3.1937 I0.0088 J0.0619
G1 X1.2504 Y3.1932
G3 X1.2528 Y3.1931 I0.0044 J0.0623
G1 X1.2597 Y3.1928
G3 X1.2636 Y3.1928 I0.002 J0.0625
G1 X1.2706 Y3.1931
G3 X1.2739 Y3.1933 I-0.002 J0.0625
G1 X1.2809 Y3.1939
G3 X1.2845 Y3.1943 I-0.0053 J0.0623
G1 X1.2913 Y3.1952
G3 X1.2942 Y3.1957 I-0.0089 J0.0619
G1 X1.301 Y3.197
G3 X1.3043 Y3.1978 I-0.0118 J0.0614
G1 X1.3111 Y3.1995
G3 X1.3151 Y3.2006 I-0.0152 J0.0606
G1 X1.3216 Y3.2027
G3 X1.3248 Y3.2038 I-0.0192 J0.0595
G1 X1.3313 Y3.2063
G3 X1.3342 Y3.2075 I-0.0224 J0.0584
G1 X1.3406 Y3.2103
G3 X1.3435 Y3.2117 I-0.0252 J0.0572
G1 X1.3496 Y3.2148
G3 X1.3529 Y3.2166 I-0.0281 J0.0558
G1 X1.3589 Y3.2201
G3 X1.3617 Y3.2218 I-0.0314 J0.054
G1 X1.3675 Y3.2256
G3 X1.3704 Y3.2276 I-0.0342 J0.0523
G1 X1.376 Y3.2317
G3 X1.3787 Y3.2338 I-0.0371 J0.0503
G1 X1.384 Y3.2382
G3 X1.3866 Y3.2405 I-0.0398 J0.0482
G1 X1.3917 Y3.2453
G3 X1.394 Y3.2474 I-0.0425 J0.0459
G1 X1.3988 Y3.2524
G3 X1.4014 Y3.2552 I-0.0447 J0.0437
G1 X1.406 Y3.2605
G3 X1.4081 Y3.2631 I-0.0473 J0.0409
G1 X1.4124 Y3.2686
G3 X1.414 Y3.2708 I-0.0495 J0.0382
G1 X1.418 Y3.2765
G3 X1.4204 Y3.2801 I-0.0511 J0.036
G1 X1.424 Y3.286
G3 X1.4254 Y3.2885 I-0.0535 J0.0324
G1 X1.4287 Y3.2946
G3 X1.4307 Y3.2985 I-0.0549 J0.0299
G1 X1.4335 Y3.3048
G3 X1.4346 Y3.3072 I-0.0568 J0.026
G1 X1.4372 Y3.3136
G3 X1.4385 Y3.3173 I-0.0579 J0.0235
G1 X1.4408 Y3.3239
G3 X1.4417 Y3.3268 I-0.0592 J0.0199
G1 X1.4436 Y3.3336
G3 X1.4445 Y3.3371 I-0.0601 J0.017
G1 X1.4459 Y3.3438
G3 X1.4465 Y3.3465 I-0.061 J0.0134
G1 X1.4477 Y3.3534
G3 X1.4486 Y3.3641 I-0.0616 J0.0107
G1 X1.4486 Y3.3641
G0 Z0.125
G0 X3.3089 Y3.7201
G1 Z-0.016 F30
G1 X3.3032 Y3.7159 F60
G3 X3.3012 Y3.7144 I0.0366 J-0.0506
G1 X3.2957 Y3.7101
G3 X3.2926 Y3.7074 I0.0387 J-0.049
G1 X3.2875 Y3.7028
G3 X3.2847 Y3.7001 I0.0419 J-0.0464
G1 X3.2798 Y3.6951
G3 X3.2772 Y3.6923 I0.0447 J-0.0437
G1 X3.2727 Y3.6871
G3 X3.2709 Y3.685 I0.0473 J-0.0409
G1 X3.2667 Y3.6795
G3 X3.2642 Y3.6761 I0.049 J-0.0387
G1 X3.2602 Y3.6704
G3 X3.2585 Y3.6677 I0.0515 J-0.0353
G1 X3.2549 Y3.6618
G3 X3.2532 Y3.6589 I0.0533 J-0.0326
G1 X3.2499 Y3.6528
G3 X3.2482 Y3.6495 I0.055 J-0.0297
G1 X3.2453 Y3.6432
G3 X3.2437 Y3.6395 I0.0567 J-0.0264
G1 X3.2412 Y3.6331
G3 X3.2401 Y3.6299 I0.0582 J-0.0227
G1 X3.2379 Y3.6233
G3 X3.2368 Y3.6195 I0.0594 J-0.0195
G1 X3.2351 Y3.6128
G3 X3.2343 Y3.6094 I0.0605 J-0.0157
G1 X3.2329 Y3.6026
G3 X3.2324 Y3.5997 I0.0613 J-0.0123
G1 X3.2314 Y3.5928
G3 X3.2309 Y3.5889 I0.0618 J-0.0093
G1 X3.2303 Y3.582
G3 X3.2301 Y3.5786 I0.0623 J-0.0054
G1 X3.2299 Y3.5717
G3 X3.2299 Y3.5697 I0.0625 J-0.002
G3 X3.2299 Y3.5677 I0.0625 J0
G1 X3.2301 Y3.5609
G3 X3.2303 Y3.5574 I0.0625 J0.002
G1 X3.2309 Y3.5505
G3 X3.2314 Y3.5466 I0.0623 J0.0054
G1 X3.2324 Y3.5398
G3 X3.2329 Y3.5368 I0.0618 J0.0093
G1 X3.2343 Y3.5301
G3 X3.2351 Y3.5267 I0.0613 J0.0123
G1 X3.2368 Y3.52
G3 X3.238 Y3.516 I0.0605 J0.0156
G1 X3.2401 Y3.5094
G3 X3.2412 Y3.5063 I0.0593 J0.0196
G1 X3.2437 Y3.4999
G3 X3.2453 Y3.4962 I0.0582 J0.0227
G1 X3.2482 Y3.49
G3 X3.2499 Y3.4866 I0.0567 J0.0264
G1 X3.2532 Y3.4805
G3 X3.2548 Y3.4778 I0.055 J0.0297
G1 X3.2583 Y3.4719
G3 X3.2602 Y3.4689 I0.0535 J0.0324
G1 X3.2642 Y3.4632
G3 X3.2668 Y3.4596 I0.0515 J0.0353
G1 X3.2711 Y3.4542
G3 X3.2727 Y3.4523 I0.0489 J0.039
G1 X3.2772 Y3.4471
G3 X3.2798 Y3.4443 I0.0473 J0.0409
G1 X3.2847 Y3.4393
G3 X3.2875 Y3.4367 I0.0447 J0.0437
G1 X3.2926 Y3.4321
G3 X3.2957 Y3.4294 I0.0419 J0.0464
G1 X3.3012 Y3.4251
G3 X3.3033 Y3.4235 I0.0387 J0.049
G1 X3.309 Y3.4194
G3 X3.3128 Y3.4168 I0.0366 J0.0506
G1 X3.3186 Y3.4132
G3 X3.3208 Y3.4119 I0.0328 J0.0532
G1 X3.3268 Y3.4085
G3 X3.3305 Y3.4066 I0.0306 J0.0545
G1 X3.3367 Y3.4036
G3 X3.34 Y3.4022 I0.027 J0.0564
G1 X3.3463 Y3.3996
G3 X3.3499 Y3.3983 I0.0237 J0.0578
G1 X3.3564 Y3.396
G3 X3.3596 Y3.395 I0.0202 J0.0591
G1 X3.3663 Y3.3931
G3 X3.3701 Y3.3922 I0.017 J0.0601
G1 X3.3769 Y3.3907
G3 X3.3797 Y3.3902 I0.0132 J0.0611
G1 X3.3865 Y3.389
G3 X3.391 Y3.3885 I0.0104 J0.0616
G1 X3.398 Y3.3878
G3 X3.4009 Y3.3876 I0.0058 J0.0622
G1 X3.4077 Y3.3873
G3 X3.4117 Y3.3872 I0.003 J0.0624
G1 X3.4186 Y3.3873
G3 X3.422 Y3.3875 I-0.001 J0.0625
G1 X3.4289 Y3.388
G3 X3.4328 Y3.3884 I-0.0044 J0.0623
G1 X3.4397 Y3.3893
G3 X3.4431 Y3.3898 I-0.0084 J0.0619
G1 X3.4499 Y3.3911
G3 X3.4534 Y3.3919 I-0.0118 J0.0614
G1 X3.46 Y3.3936
G3 X3.4626 Y3.3943 I-0.0153 J0.0606
G1 X3.4694 Y3.3963
G3 X3.4742 Y3.398 I-0.0179 J0.0599
G1 X3.4806 Y3.4005
G3 X3.4835 Y3.4017 I-0.0227 J0.0582
G1 X3.4898 Y3.4045
G3 X3.4921 Y3.4056 I-0.0256 J0.057
G1 X3.4983 Y3.4087
G3 X3.5027 Y3.4112 I-0.028 J0.0559
G1 X3.5087 Y3.4147
G3 X3.5105 Y3.4159 I-0.0324 J0.0535
G1 X3.5163 Y3.4197
G3 X3.5203 Y3.4225 I-0.0342 J0.0523
G1 X3.5258 Y3.4268
G3 X3.5277 Y3.4283 I-0.0382 J0.0495
G1 X3.533 Y3.4328
G3 X3.5363 Y3.4358 I-0.0401 J0.0479
G1 X3.5413 Y3.4406
G3 X3.5433 Y3.4426 I-0.0435 J0.0449
G1 X3.548 Y3.4476
G3 X3.5512 Y3.4512 I-0.0454 J0.0429
G1 X3.5556 Y3.4566
G3 X3.5572 Y3.4587 I-0.0486 J0.0393
G1 X3.5612 Y3.4642
G3 X3.5634 Y3.4672 I-0.0502 J0.0373
G1 X3.5672 Y3.473
G3 X3.5691 Y3.4762 I-0.0523 J0.0342
G1 X3.5725 Y3.4821
G3 X3.5743 Y3.4854 I-0.0542 J0.0311
G1 X3.5774 Y3.4917
G3 X3.5789 Y3.495 I-0.056 J0.0278
G1 X3.5816 Y3.5014
G3 X3.5831 Y3.5052 I-0.0575 J0.0244
G1 X3.5854 Y3.5117
G3 X3.5861 Y3.5141 I-0.059 J0.0206
G1 X3.5881 Y3.5206
G3 X3.5892 Y3.5244 I-0.0598 J0.0183
G1 X3.5908 Y3.5313
G3 X3.5916 Y3.5349 I-0.0608 J0.0145
G1 X3.5927 Y3.5417
G3 X3.5933 Y3.5451 I-0.0616 J0.0108
G1 X3.5941 Y3.5519
G3 X3.5944 Y3.5559 I-0.0621 J0.0074
G1 X3.5948 Y3.5628
G3 X3.5949 Y3.5662 I-0.0624 J0.0034
G1 X3.5949 Y3.5732
G3 X3.5948 Y3.5766 I-0.0625 J0
G1 X3.5944 Y3.5835
G3 X3.5941 Y3.5876 I-0.0624 J-0.0034
G1 X3.5933 Y3.5944
G3 X3.5927 Y3.5978 I-0.0621 J-0.0074
G1 X3.5916 Y3.6045
G3 X3.5908 Y3.6082 I-0.0616 J-0.0108
G1 X3.5892 Y3.615
G3 X3.5881 Y3.6188 I-0.0608 J-0.0145
G1 X3.5861 Y3.6254
G3 X3.5854 Y3.6277 I-0.0598 J-0.0183
G1 X3.5831 Y3.6342
G3 X3.5816 Y3.638 I-0.059 J-0.0206
G1 X3.5789 Y3.6444
G3 X3.5773 Y3.648 I-0.0575 J-0.0244
G1 X3.5742 Y3.6541
G3 X3.5726 Y3.657 I-0.0559 J-0.028
G1 X3.5692 Y3.6631
G3 X3.5672 Y3.6664 I-0.0544 J-0.0309
G1 X3.5634 Y3.6722
G3 X3.5612 Y3.6753 I-0.0523 J-0.0342
G1 X3.5572 Y3.6808
G3 X3.5556 Y3.6828 I-0.0502 J-0.0373
G1 X3.5512 Y3.6883
G3 X3.548 Y3.6919 I-0.0486 J-0.0393
G1 X3.5433 Y3.6969
G3 X3.5411 Y3.6991 I-0.0454 J-0.0429
G1 X3.5361 Y3.7039
G3 X3.5333 Y3.7064 I-0.0432 J-0.0452
G1 X3.528 Y3.7109
G3 X3.5258 Y3.7127 I-0.0404 J-0.0477
G1 X3.5203 Y3.7169
G3 X3.5163 Y3.7197 I-0.0382 J-0.0495
G1 X3.5105 Y3.7235
G3 X3.5087 Y3.7247 I-0.0342 J-0.0523
G1 X3.5028 Y3.7283
G3 X3.4983 Y3.7307 I-0.0324 J-0.0535
G1 X3.4921 Y3.7338
G3 X3.4898 Y3.7349 I-0.0279 J-0.0559
G1 X3.4835 Y3.7378
G3 X3.4806 Y3.7389 I-0.0256 J-0.057
G1 X3.4742 Y3.7414
G3 X3.4694 Y3.7431 I-0.0227 J-0.0582
G1 X3.4626 Y3.7451
G3 X3.46 Y3.7458 I-0.0179 J-0.0599
G1 X3.4534 Y3.7475
G3 X3.4499 Y3.7483 I-0.0153 J-0.0606
G1 X3.4431 Y3.7496
G3 X3.4397 Y3.7501 I-0.0118 J-0.0614
G1 X3.4328 Y3.7511
G3 X3.4289 Y3.7515 I-0.0084 J-0.0619
G1 X3.422 Y3.752
G3 X3.4186 Y3.7521 I-0.0044 J-0.0623
G1 X3.4117 Y3.7522
G3 X3.4078 Y3.7522 I-0.001 J-0.0625
G1 X3.4009 Y3.7518
G3 X3.3975 Y3.7516 I0.0029 J-0.0624
G1 X3.3906 Y3.7509
G3 X3.387 Y3.7504 I0.0063 J-0.0622
G1 X3.3802 Y3.7493
G3 X3.3764 Y3.7486 I0.0099 J-0.0617
G1 X3.3696 Y3.7471
G3 X3.3663 Y3.7462 I0.0137 J-0.061
G1 X3.3596 Y3.7443
G3 X3.3568 Y3.7435 I0.017 J-0.0602
G1 X3.3503 Y3.7413
G3 X3.3463 Y3.7398 I0.0198 J-0.0593
G1 X3.34 Y3.7372
G3 X3.3367 Y3.7358 I0.0237 J-0.0578
G1 X3.3305 Y3.7328
G3 X3.3268 Y3.7309 I0.027 J-0.0564
G1 X3.3208 Y3.7275
G3 X3.3186 Y3.7262 I0.0306 J-0.0545
G1 X3.3128 Y3.7226
G3 X3.3089 Y3.7201 I0.0328 J-0.0532

(ower_follow)
G0 Z0.125
G0 X1.5924 Y3.2454
G1 Z-0.016 F30
G1 X1.5928 Y3.2367 F60
G1 X1.5927 Y3.228
G1 X1.5923 Y3.2193
G1 X1.5915 Y3.2106
G1 X1.5903 Y3.202
G1 X1.5887 Y3.1934
G1 X1.5868 Y3.1849
G1 X1.5844 Y3.1765
G1 X1.5817 Y3.1682
G1 X1.5786 Y3.1601
G1 X1.5752 Y3.1521
G1 X1.5714 Y3.1442
G1 X1.5672 Y3.1366
G1 X1.5627 Y3.1291
G1 X1.5579 Y3.1218
G1 X1.5528 Y3.1148
G1 X1.5473 Y3.108
G1 X1.5416 Y3.1015
G1 X1.5355 Y3.0952
G1 X1.5292 Y3.0892
G1 X1.5226 Y3.0835
G1 X1.5158 Y3.0781
G1 X1.5087 Y3.0729
G1 X1.5014 Y3.0682
G1 X1.494 Y3.0637
G1 X1.4863 Y3.0596
G1 X1.4784 Y3.0559
G1 X1.4704 Y3.0525
G1 X1.4622 Y3.0494
G1 X1.4539 Y3.0467
G1 X1.4455 Y3.0444
G1 X1.437 Y3.0425
G1 X1.4284 Y3.041
G1 X1.4198 Y3.0399
G1 X1.4111 Y3.0391
G0 Z0.125
G0 X1.4173 Y3.0391
G1 Z-0.016 F30
G1 X1.1173 Y3.0391 F60
G1 X1.1091 Y3.0386
G1 X1.1009 Y3.0384
G1 X1.0927 Y3.0386
G1 X1.0845 Y3.0393
G1 X1.0764 Y3.0403
G1 X1.0683 Y3.0417
G1 X1.0602 Y3.0435
G1 X1.0523 Y3.0456
G1 X1.0445 Y3.0482
G1 X1.0368 Y3.0511
G1 X1.0293 Y3.0543
G1 X1.0219 Y3.0579
G1 X1.0147 Y3.0619
G1 X1.0077 Y3.0662
G1 X1.0009 Y3.0709
G1 X0.9944 Y3.0758
G1 X0.9881 Y3.0811
G1 X0.982 Y3.0866
G1 X0.9762 Y3.0925
G1 X0.9707 Y3.0986
G1 X0.9655 Y3.1049
G1 X0.9607 Y3.1115
G1 X0.9561 Y3.1183
G1 X0.9518 Y3.1254
G1 X0.9479 Y3.1326
G1 X0.9444 Y3.14
G1 X0.9412 Y3.1476
G1 X0.9383 Y3.1553
G1 X0.9359 Y3.1631
G1 X0.9338 Y3.1711
G1 X0.9321 Y3.1791
G1 X0.9307 Y3.1872
G1 X0.9298 Y3.1954
G1 X0.9298 Y3.6891
G1 X0.9294 Y3.6978
G1 X0.9295 Y3.7066
G1 X0.9299 Y3.7153
G1 X0.9307 Y3.724
G1 X0.9318 Y3.7327
G1 X0.9334 Y3.7413
G1 X0.9353 Y3.7498
G1 X0.9376 Y3.7583
G1 X0.9402 Y3.7666
G1 X0.9432 Y3.7748
G1 X0.9466 Y3.7829
G1 X0.9503 Y3.7908
G1 X0.9544 Y3.7985
G1 X0.9588 Y3.8061
G1 X0.9635 Y3.8134
G1 X0.9685 Y3.8206
G1 X0.9739 Y3.8275
G1 X0.9795 Y3.8342
G1 X0.9855 Y3.8406
G1 X0.9917 Y3.8468
G1 X0.9981 Y3.8527
G1 X1.0048 Y3.8583
G1 X1.0118 Y3.8636
G1 X1.019 Y3.8686
G1 X1.0264 Y3.8732
G1 X1.0339 Y3.8776
G1 X1.0417 Y3.8816
G1 X1.0496 Y3.8853
G1 X1.0577 Y3.8886
G1 X1.066 Y3.8916
G1 X1.0743 Y3.8942
G1 X1.0828 Y3.8964
G1 X1.0913 Y3.8983
G1 X1.0999 Y3.8998
G1 X1.1086 Y3.9009
G1 X1.1173 Y3.9016
G1 X1.3861 Y3.9016
G1 X1.3948 Y3.9017
G1 X1.4035 Y3.9014
G1 X1.4122 Y3.9007
G1 X1.4209 Y3.8996
G1 X1.4295 Y3.8982
G1 X1.438 Y3.8964
G1 X1.4465 Y3.8942
G1 X1.4548 Y3.8917
G1 X1.4631 Y3.8888
G1 X1.4712 Y3.8855
G1 X1.4791 Y3.8819
G1 X1.4869 Y3.8779
G1 X1.4945 Y3.8736
G1 X1.5019 Y3.869
G1 X1.5091 Y3.8641
G1 X1.5161 Y3.8588
G1 X1.5228 Y3.8533
G1 X1.5293 Y3.8474
G1 X1.5355 Y3.8413
G1 X1.5415 Y3.8349
G1 X1.5472 Y3.8283
G1 X1.5525 Y3.8214
G1 X1.5576 Y3.8143
G1 X1.5624 Y3.807
G1 X1.5668 Y3.7995
G1 X1.5709 Y3.7918
G1 X1.5747 Y3.7839
G1 X1.5781 Y3.7759
G1 X1.5812 Y3.7677
G1 X1.5839 Y3.7594
G1 X1.5862 Y3.751
G1 X1.5882 Y3.7425
G1 X1.5898 Y3.7339
G1 X1.591 Y3.7253
G1 X1.5918 Y3.7166
G1 X1.5923 Y3.7079
G1 X1.5923 Y3.2454
G0 Z0.125
G0 X1.722 Y3.8885
G1 Z-0.016 F30
G1 X1.8159 Y3.8885 F60
G1 X1.8205 Y3.8881
G1 X1.825 Y3.8872
G1 X1.8294 Y3.8861
G1 X1.8337 Y3.8845
G1 X1.8378 Y3.8826
G1 X1.8418 Y3.8804
G1 X1.8456 Y3.8778
G1 X1.8491 Y3.875
G1 X1.8524 Y3.8718
G1 X1.8555 Y3.8684
G1 X1.8582 Y3.8648
G1 X1.8606 Y3.8609
G1 X1.8628 Y3.8569
G1 X1.8645 Y3.8527
G1 X1.8659 Y3.8483
G1 X1.867 Y3.8439
G1 X1.8677 Y3.8394
G1 X1.868 Y3.8348
G1 X1.8679 Y3.8303
G1 X1.8679 Y3.4822
G0 Z0.125
G0 X1.8678 Y3.4822
G1 Z-0.016 F30
G1 X1.8677 Y3.4786 F60
G1 X1.8679 Y3.475
G1 X1.8685 Y3.4715
G1 X1.8695 Y3.468
G1 X1.8708 Y3.4647
G1 X1.8724 Y3.4615
G1 X1.8744 Y3.4585
G1 X1.8767 Y3.4557
G1 X1.8792 Y3.4531
G1 X1.882 Y3.4509
G1 X1.885 Y3.4489
G1 X1.8881 Y3.4472
G1 X1.8915 Y3.4459
G1 X1.8949 Y3.4449
G1 X1.8985 Y3.4443
G1 X1.9021 Y3.444
G1 X1.9057 Y3.4441
G1 X1.9092 Y3.4446
G1 X1.9127 Y3.4454
G1 X1.9161 Y3.4466
G1 X1.9194 Y3.4482
G1 X1.9224 Y3.45
G1 X1.9253 Y3.4522
G1 X1.9796 Y3.519
G1 X1.9816 Y3.5208
G1 X1.9839 Y3.5222
G1 X1.9863 Y3.5233
G1 X1.9889 Y3.5241
G1 X1.9916 Y3.5245
G1 X1.9942 Y3.5245
G1 X1.9969 Y3.5241
G1 X1.9995 Y3.5233
G1 X2.0019 Y3.5222
G1 X2.0042 Y3.5208
G1 X2.0062 Y3.519
G0 Z0.125
G0 X2.0061 Y3.519
G1 Z-0.016 F30
G1 X2.0614 Y3.4512 F60
G1 X2.0637 Y3.4489
G1 X2.0662 Y3.4469
G1 X2.069 Y3.4452
G1 X2.0719 Y3.4439
G1 X2.075 Y3.4428
G1 X2.0782 Y3.4422
G1 X2.0814 Y3.4418
G1 X2.0846 Y3.4419
G1 X2.0879 Y3.4423
G1 X2.091 Y3.443
G1 X2.0941 Y3.4441
G1 X2.097 Y3.4456
G1 X2.0997 Y3.4473
G1 X2.1022 Y3.4494
G1 X2.1045 Y3.4517
G1 X2.1065 Y3.4542
G1 X2.1082 Y3.457
G1 X2.1095 Y3.4599
G1 X2.1106 Y3.463
G1 X2.1112 Y3.4662
G1 X2.1116 Y3.4694
G1 X2.1116 Y3.8356
G0 Z0.125
G0 X2.1117 Y3.8356
G1 Z-0.016 F30
G1 X2.1119 Y3.84 F60
G1 X2.1124 Y3.8443
G1 X2.1133 Y3.8486
G1 X2.1146 Y3.8527
G1 X2.1161 Y3.8568
G1 X2.1181 Y3.8607
G1 X2.1203 Y3.8645
G1 X2.1228 Y3.868
G1 X2.1257 Y3.8714
G1 X2.1287 Y3.8744
G1 X2.1321 Y3.8773
G1 X2.1356 Y3.8798
G1 X2.1394 Y3.882
G1 X2.1433 Y3.884
G1 X2.1474 Y3.8855
G1 X2.1515 Y3.8868
G1 X2.1558 Y3.8877
G1 X2.1601 Y3.8882
G1 X2.1645 Y3.8884
G0 Z0.125
G0 X2.1645 Y3.8885
G1 Z-0.016 F30
G1 X2.2588 Y3.8885 F60
G0 Z0.125
G0 X2.2588 Y3.8884
G1 Z-0.016 F30
G1 X2.2634 Y3.888 F60
G1 X2.268 Y3.8871
G1 X2.2725 Y3.8859
G1 X2.2768 Y3.8844
G1 X2.281 Y3.8824
G1 X2.2851 Y3.8802
G1 X2.2889 Y3.8776
G1 X2.2925 Y3.8747
G1 X2.2959 Y3.8715
G1 X2.299 Y3.8681
G1 X2.3017 Y3.8644
G1 X2.3042 Y3.8605
G1 X2.3064 Y3.8564
G1 X2.3082 Y3.8521
G1 X2.3096 Y3.8477
G1 X2.3107 Y3.8432
G1 X2.3114 Y3.8386
G1 X2.3117 Y3.834
G1 X2.3116 Y3.8294
G1 X2.3116 Y3.1158
G0 Z0.125
G0 X2.1631 Y3.0385
G1 Z-0.016 F30
G1 X2.2468 Y3.0385 F60
G1 X2.2519 Y3.0391
G1 X2.2569 Y3.0401
G1 X2.2618 Y3.0414
G1 X2.2666 Y3.0431
G1 X2.2713 Y3.0451
G1 X2.2758 Y3.0475
G1 X2.2801 Y3.0502
G1 X2.2843 Y3.0531
G1 X2.2882 Y3.0564
G1 X2.2918 Y3.0599
G1 X2.2952 Y3.0637
G1 X2.2984 Y3.0677
G1 X2.3012 Y3.0719
G1 X2.3037 Y3.0764
G1 X2.3059 Y3.0809
G1 X2.3078 Y3.0857
G1 X2.3093 Y3.0905
G1 X2.3105 Y3.0955
G1 X2.3113 Y3.1005
G1 X2.3118 Y3.1056
G1 X2.3119 Y3.1107
G1 X2.3116 Y3.1157
G0 Z0.125
G0 X2.0009 Y3.1929
G1 Z-0.016 F30
G1 X2.0973 Y3.0778 F60
G1 X2.101 Y3.073
G1 X2.1051 Y3.0685
G1 X2.1094 Y3.0643
G1 X2.1139 Y3.0603
G1 X2.1187 Y3.0566
G1 X2.1237 Y3.0532
G1 X2.1289 Y3.0501
G1 X2.1342 Y3.0473
G1 X2.1398 Y3.0448
G1 X2.1454 Y3.0427
G1 X2.1512 Y3.0409
G1 X2.1571 Y3.0395
G1 X2.163 Y3.0385
G0 Z0.125
G0 X2.001 Y3.193
G1 Z-0.016 F30
G1 X2 Y3.1937 F60
G1 X1.9989 Y3.1943
G1 X1.9977 Y3.1947
G1 X1.9965 Y3.1948
G0 Z0.125
G0 X1.817 Y3.0384
G1 Z-0.016 F30
G1 X1.8233 Y3.0394 F60
G1 X1.8295 Y3.0408
G1 X1.8356 Y3.0425
G1 X1.8417 Y3.0445
G1 X1.8476 Y3.0469
G1 X1.8534 Y3.0496
G1 X1.859 Y3.0526
G1 X1.8644 Y3.0559
G1 X1.8697 Y3.0595
G1 X1.8747 Y3.0635
G1 X1.8795 Y3.0677
G1 X1.8841 Y3.0721
G1 X1.8884 Y3.0768
G1 X1.8924 Y3.0818
G1 X1.984 Y3.1921
G1 X1.9859 Y3.1932
G1 X1.9879 Y3.1941
G1 X1.99 Y3.1947
G1 X1.9922 Y3.195
G1 X1.9944 Y3.195
G1 X1.9965 Y3.1947
G0 Z0.125
G0 X1.817 Y3.0385
G1 Z-0.016 F30
G1 X1.7417 Y3.0385 F60
G1 X1.7362 Y3.0389
G1 X1.7308 Y3.0397
G1 X1.7254 Y3.0409
G1 X1.7201 Y3.0425
G1 X1.715 Y3.0444
G1 X1.71 Y3.0467
G1 X1.7052 Y3.0494
G1 X1.7006 Y3.0524
G1 X1.6962 Y3.0557
G1 X1.6921 Y3.0593
G1 X1.6882 Y3.0632
G1 X1.6846 Y3.0674
G1 X1.6813 Y3.0718
G1 X1.6784 Y3.0764
G1 X1.6758 Y3.0813
G1 X1.6735 Y3.0863
G1 X1.6716 Y3.0914
G1 X1.6701 Y3.0967
G1 X1.669 Y3.1021
G1 X1.6682 Y3.1075
G1 X1.6678 Y3.113
G1 X1.6679 Y3.1185
G1 X1.6679 Y3.8343
G1 X1.6681 Y3.8388
G1 X1.6686 Y3.8432
G1 X1.6696 Y3.8476
G1 X1.6708 Y3.8519
G1 X1.6725 Y3.856
G1 X1.6744 Y3.86
G1 X1.6767 Y3.8639
G1 X1.6793 Y3.8675
G1 X1.6822 Y3.8709
G1 X1.6854 Y3.8741
G1 X1.6888 Y3.877
G1 X1.6924 Y3.8796
G1 X1.6963 Y3.8819
G1 X1.7003 Y3.8838
G1 X1.7044 Y3.8855
G1 X1.7087 Y3.8867
G1 X1.7131 Y3.8877
G1 X1.7175 Y3.8882
G1 X1.722 Y3.8884
G0 Z0.125
G0 X2.9834 Y3.0384
G1 Z-0.016 F30
G1 X2.9866 Y3.0386 F60
G1 X2.9898 Y3.0391
G1 X2.9929 Y3.04
G1 X2.9959 Y3.0413
G1 X2.9987 Y3.0428
G1 X3.0014 Y3.0447
G1 X3.0038 Y3.0468
G1 X3.0059 Y3.0492
G1 X3.0078 Y3.0519
G1 X3.0093 Y3.0547
G1 X3.0106 Y3.0577
G1 X3.0115 Y3.0608
G1 X3.012 Y3.064
G1 X3.0122 Y3.0672
G1 X3.0122 Y3.191
G0 Z0.125
G0 X3.0121 Y3.1909
G1 Z-0.016 F30
G1 X3.0116 Y3.1942 F60
G1 X3.0108 Y3.1975
G1 X3.0096 Y3.2006
G1 X3.0081 Y3.2036
G1 X3.0063 Y3.2064
G1 X3.0042 Y3.209
G1 X3.0019 Y3.2114
G1 X2.9993 Y3.2136
G1 X2.9965 Y3.2154
G1 X2.9935 Y3.2169
G1 X2.9904 Y3.2182
G1 X2.9872 Y3.2191
G1 X2.9839 Y3.2196
G1 X2.9805 Y3.2198
G1 X2.9772 Y3.2196
G0 Z0.125
G0 X2.9772 Y3.2197
G1 Z-0.016 F30
G1 X2.6434 Y3.2197 F60
G1 X2.6397 Y3.2196
G1 X2.6359 Y3.2198
G1 X2.6322 Y3.2204
G1 X2.6286 Y3.2213
G1 X2.625 Y3.2226
G1 X2.6216 Y3.2242
G1 X2.6183 Y3.226
G1 X2.6153 Y3.2282
G1 X2.6124 Y3.2307
G1 X2.6098 Y3.2334
G1 X2.6074 Y3.2363
G1 X2.6054 Y3.2394
G1 X2.6036 Y3.2427
G1 X2.6021 Y3.2462
G1 X2.601 Y3.2498
G1 X2.6002 Y3.2534
G1 X2.5997 Y3.2572
G1 X2.5997 Y3.3697
G1 X2.6002 Y3.3729
G1 X2.6011 Y3.3759
G1 X2.6023 Y3.3788
G1 X2.6038 Y3.3816
G1 X2.6056 Y3.3842
G1 X2.6078 Y3.3866
G1 X2.6101 Y3.3887
G1 X2.6127 Y3.3905
G1 X2.6155 Y3.3921
G1 X2.6184 Y3.3933
G1 X2.6215 Y3.3942
G1 X2.6246 Y3.3947
G1 X2.6278 Y3.3949
G1 X2.6309 Y3.3947
G1 X2.7772 Y3.3947
G0 Z0.125
G0 X2.7772 Y3.3948
G1 Z-0.016 F30
G1 X2.7803 Y3.3946 F60
G1 X2.7834 Y3.3948
G1 X2.7865 Y3.3953
G1 X2.7894 Y3.3963
G1 X2.7923 Y3.3975
G1 X2.7949 Y3.3992
G1 X2.7974 Y3.4011
G1 X2.7996 Y3.4033
G1 X2.8015 Y3.4057
G1 X2.8031 Y3.4084
G1 X2.8044 Y3.4112
G1 X2.8053 Y3.4142
G1 X2.8059 Y3.4173
G0 Z0.125
G0 X2.8059 Y3.4172
G1 Z-0.016 F30
G1 X2.8059 Y3.4971 F60
G0 Z0.125
G0 X2.8058 Y3.4971
G1 Z-0.016 F30
G1 X2.806 Y3.5004 F60
G1 X2.8058 Y3.5038
G1 X2.8052 Y3.5071
G1 X2.8044 Y3.5103
G1 X2.8031 Y3.5135
G1 X2.8016 Y3.5165
G1 X2.7997 Y3.5193
G1 X2.7976 Y3.5219
G1 X2.7952 Y3.5242
G1 X2.7926 Y3.5263
G1 X2.7897 Y3.5281
G1 X2.7867 Y3.5296
G1 X2.7836 Y3.5308
G1 X2.7803 Y3.5316
G1 X2.777 Y3.5321
G0 Z0.125
G0 X2.7771 Y3.5322
G1 Z-0.016 F30
G1 X2.6236 Y3.5322 F60
G0 Z0.125
G0 X2.6236 Y3.5323
G1 Z-0.016 F30
G1 X2.6206 Y3.5328 F60
G1 X2.6176 Y3.5337
G1 X2.6148 Y3.5348
G1 X2.6122 Y3.5363
G1 X2.6097 Y3.5381
G1 X2.6074 Y3.5401
G1 X2.6054 Y3.5424
G1 X2.6036 Y3.5449
G1 X2.6022 Y3.5476
G1 X2.601 Y3.5504
G1 X2.6002 Y3.5533
G1 X2.5997 Y3.5563
G1 X2.5995 Y3.5594
G1 X2.5997 Y3.5624
G1 X2.5997 Y3.6672
G1 X2.5999 Y3.6711
G1 X2.6005 Y3.675
G1 X2.6014 Y3.6788
G1 X2.6027 Y3.6825
G1 X2.6044 Y3.6861
G1 X2.6064 Y3.6894
G1 X2.6088 Y3.6926
G1 X2.6114 Y3.6955
G1 X2.6143 Y3.6981
G1 X2.6175 Y3.7005
G1 X2.6208 Y3.7025
G1 X2.6244 Y3.7042
G1 X2.6281 Y3.7055
G1 X2.6319 Y3.7064
G1 X2.6358 Y3.707
G1 X2.6397 Y3.7072
G1 X2.9395 Y3.7072
G1 X2.9449 Y3.708
G1 X2.9502 Y3.7093
G1 X2.9554 Y3.7109
G1 X2.9605 Y3.7129
G1 X2.9654 Y3.7152
G1 X2.9701 Y3.7179
G1 X2.9747 Y3.7209
G1 X2.979 Y3.7243
G1 X2.983 Y3.7279
G1 X2.9868 Y3.7318
G1 X2.9903 Y3.736
G1 X2.9935 Y3.7404
G1 X2.9964 Y3.7451
G1 X2.999 Y3.7499
G1 X3.0011 Y3.7549
G1 X3.003 Y3.76
G1 X3.0044 Y3.7653
G1 X3.0055 Y3.7706
G1 X3.0062 Y3.776
G1 X3.0065 Y3.7815
G1 X3.0064 Y3.7869
G1 X3.0059 Y3.7924
G1 X3.0059 Y3.8084
G1 X3.0062 Y3.8136
G1 X3.0061 Y3.8189
G1 X3.0056 Y3.8242
G1 X3.0047 Y3.8294
G1 X3.0035 Y3.8345
G1 X3.0019 Y3.8396
G1 X2.9999 Y3.8445
G1 X2.9976 Y3.8493
G1 X2.995 Y3.8538
G1 X2.992 Y3.8582
G1 X2.9887 Y3.8624
G1 X2.9852 Y3.8663
G1 X2.9814 Y3.87
G1 X2.9773 Y3.8733
G1 X2.973 Y3.8764
G1 X2.9685 Y3.8792
G1 X2.9638 Y3.8816
G1 X2.9589 Y3.8837
G1 X2.9539 Y3.8854
G1 X2.9488 Y3.8868
G1 X2.9436 Y3.8878
G1 X2.9383 Y3.8884
G0 Z0.125
G0 X2.9383 Y3.8885
G1 Z-0.016 F30
G1 X2.4497 Y3.8885 F60
G0 Z0.125
G0 X2.4497 Y3.8884
G1 Z-0.016 F30
G1 X2.4445 Y3.8878 F60
G1 X2.4395 Y3.8867
G1 X2.4345 Y3.8853
G1 X2.4297 Y3.8835
G1 X2.425 Y3.8814
G1 X2.4205 Y3.8789
G1 X2.4161 Y3.8761
G1 X2.412 Y3.873
G1 X2.4082 Y3.8695
G1 X2.4046 Y3.8658
G1 X2.4013 Y3.8619
G1 X2.3983 Y3.8577
G1 X2.3956 Y3.8532
G1 X2.3933 Y3.8486
G1 X2.3913 Y3.8439
G1 X2.3897 Y3.839
G1 X2.3884 Y3.834
G1 X2.3875 Y3.8289
G1 X2.387 Y3.8238
G1 X2.3869 Y3.8186
G1 X2.3872 Y3.8135
G1 X2.3872 Y3.1135
G1 X2.3874 Y3.1081
G1 X2.388 Y3.1028
G1 X2.3889 Y3.0976
G1 X2.3902 Y3.0924
G1 X2.3919 Y3.0873
G1 X2.394 Y3.0823
G1 X2.3964 Y3.0776
G1 X2.3991 Y3.073
G1 X2.4022 Y3.0686
G1 X2.4055 Y3.0644
G1 X2.4092 Y3.0605
G1 X2.4131 Y3.0568
G1 X2.4173 Y3.0535
G1 X2.4217 Y3.0504
G1 X2.4263 Y3.0477
G1 X2.431 Y3.0453
G1 X2.436 Y3.0432
G1 X2.4411 Y3.0415
G1 X2.4463 Y3.0402
G1 X2.4515 Y3.0393
G1 X2.4568 Y3.0387
G1 X2.4622 Y3.0385
G1 X2.9834 Y3.0385
G0 Z0.125
G0 X3.1153 Y3.0384
G1 Z-0.016 F30
G1 X3.2478 Y3.0384 F60
G1 X3.2518 Y3.0389
G1 X3.2556 Y3.0397
G1 X3.2594 Y3.0409
G1 X3.263 Y3.0424
G1 X3.2665 Y3.0443
G1 X3.2698 Y3.0465
G1 X3.2729 Y3.0489
G1 X3.2758 Y3.0517
G1 X3.2784 Y3.0547
G1 X3.2806 Y3.0579
G1 X3.2826 Y3.0613
G1 X3.2843 Y3.0649
G1 X3.2856 Y3.0686
G1 X3.2866 Y3.0724
G1 X3.2872 Y3.0763
G1 X3.2875 Y3.0803
G1 X3.2874 Y3.0842
G1 X3.2874 Y3.2013
G1 X3.2876 Y3.2059
G1 X3.2882 Y3.2105
G1 X3.2891 Y3.215
G1 X3.2904 Y3.2195
G1 X3.2921 Y3.2238
G1 X3.2941 Y3.2279
G1 X3.2965 Y3.2319
G1 X3.2992 Y3.2356
G1 X3.3022 Y3.2392
G1 X3.3054 Y3.2424
G1 X3.309 Y3.2454
G1 X3.3127 Y3.2481
G1 X3.3167 Y3.2505
G1 X3.3208 Y3.2525
G1 X3.3251 Y3.2542
G1 X3.3296 Y3.2555
G1 X3.3341 Y3.2564
G1 X3.3387 Y3.257
G1 X3.3433 Y3.2572
G1 X3.3722 Y3.2572
G1 X3.3769 Y3.257
G1 X3.3815 Y3.2564
G1 X3.386 Y3.2555
G1 X3.3905 Y3.2541
G1 X3.3949 Y3.2524
G1 X3.399 Y3.2503
G1 X3.403 Y3.2479
G1 X3.4068 Y3.2452
G1 X3.4103 Y3.2422
G1 X3.4136 Y3.2388
G1 X3.4166 Y3.2353
G0 Z0.125
G0 X3.4166 Y3.2352
G1 Z-0.016 F30
G1 X3.5469 Y3.0649 F60
G0 Z0.125
G0 X3.5878 Y3.0384
G1 Z-0.016 F30
G1 X3.6895 Y3.0384 F60
G1 X3.6932 Y3.0386
G1 X3.6969 Y3.0392
G1 X3.7004 Y3.0401
G1 X3.7039 Y3.0415
G1 X3.7072 Y3.0431
G1 X3.7103 Y3.0452
G1 X3.7132 Y3.0475
G1 X3.7158 Y3.0501
G1 X3.7181 Y3.053
G1 X3.7202 Y3.0561
G1 X3.7218 Y3.0594
G1 X3.7232 Y3.0629
G1 X3.7241 Y3.0664
G1 X3.7247 Y3.0701
G1 X3.7249 Y3.0738
G1 X3.7249 Y3.1414
G1 X3.7248 Y3.1485
G1 X3.7244 Y3.1556
G1 X3.7237 Y3.1627
G1 X3.7225 Y3.1698
G1 X3.721 Y3.1767
G1 X3.7192 Y3.1836
G1 X3.7169 Y3.1904
G1 X3.7144 Y3.1971
G1 X3.7114 Y3.2036
G1 X3.7082 Y3.2099
G1 X3.7046 Y3.2161
G1 X3.7007 Y3.2221
G1 X3.6965 Y3.2278
G1 X3.692 Y3.2334
G1 X3.6872 Y3.2386
G0 Z0.125
G0 X3.6868 Y3.2391
G1 Z-0.016 F30
G1 X3.6825 Y3.2437 F60
G1 X3.6784 Y3.2485
G1 X3.6747 Y3.2536
G1 X3.6713 Y3.2589
G1 X3.6682 Y3.2644
G1 X3.6654 Y3.2701
G1 X3.663 Y3.2759
G1 X3.6609 Y3.2818
G1 X3.6592 Y3.2879
G1 X3.6579 Y3.2941
G1 X3.657 Y3.3003
G1 X3.6564 Y3.3066
G1 X3.6562 Y3.3129
G0 Z0.125
G0 X3.2611 Y3.8947
G1 Z-0.016 F30
G1 X3.253 Y3.8946 F60
G1 X3.2449 Y3.8942
G1 X3.2368 Y3.8934
G1 X3.2288 Y3.8922
G1 X3.2208 Y3.8906
G1 X3.2129 Y3.8886
G1 X3.2051 Y3.8863
G1 X3.1975 Y3.8836
G1 X3.1899 Y3.8805
G1 X3.1826 Y3.8771
G1 X3.1754 Y3.8734
G1 X3.1684 Y3.8693
G1 X3.1615 Y3.8648
G1 X3.155 Y3.8601
G1 X3.1486 Y3.855
G1 X3.1425 Y3.8497
G1 X3.1366 Y3.844
G1 X3.1311 Y3.8381
G1 X3.1258 Y3.832
G1 X3.1208 Y3.8255
G1 X3.1161 Y3.8189
G1 X3.1118 Y3.812
G1 X3.1077 Y3.805
G1 X3.1041 Y3.7977
G1 X3.1007 Y3.7903
G1 X3.0977 Y3.7828
G1 X3.0951 Y3.7751
G1 X3.0929 Y3.7673
G1 X3.091 Y3.7594
G1 X3.0895 Y3.7514
G1 X3.0884 Y3.7433
G1 X3.0877 Y3.7352
G1 X3.0873 Y3.7271
G0 Z0.125
G0 X3.0874 Y3.7271
G1 Z-0.016 F30
G1 X3.0874 Y3.0726 F60
G1 X3.0872 Y3.0694
G1 X3.0874 Y3.0661
G1 X3.0879 Y3.0629
G1 X3.0888 Y3.0597
G1 X3.09 Y3.0567
G1 X3.0915 Y3.0538
G1 X3.0932 Y3.051
G1 X3.0953 Y3.0485
G1 X3.0976 Y3.0462
G1 X3.1002 Y3.0442
G1 X3.1029 Y3.0424
G1 X3.1058 Y3.0409
G1 X3.1089 Y3.0398
G1 X3.1121 Y3.039
G1 X3.1153 Y3.0385
G0 Z0.125
G0 X3.5879 Y3.0385
G1 Z-0.016 F30
G1 X3.5833 Y3.0392 F60
G1 X3.5789 Y3.0403
G1 X3.5745 Y3.0417
G1 X3.5703 Y3.0436
G1 X3.5663 Y3.0457
G1 X3.5624 Y3.0482
G1 X3.5588 Y3.051
G1 X3.5554 Y3.0541
G1 X3.5523 Y3.0575
G1 X3.5495 Y3.0611
G1 X3.547 Y3.0649
G0 Z0.125
G0 X3.6561 Y3.3129
G1 Z-0.016 F30
G1 X3.6563 Y3.3194 F60
G1 X3.6569 Y3.326
G1 X3.6578 Y3.3324
G1 X3.6591 Y3.3389
G1 X3.6607 Y3.3452
G1 X3.6626 Y3.3515
G1 X3.6649 Y3.3576
G1 X3.6674 Y3.3636
G1 X3.6703 Y3.3695
G1 X3.6735 Y3.3752
G1 X3.677 Y3.3808
G1 X3.6807 Y3.3861
G1 X3.6848 Y3.3913
G1 X3.6891 Y3.3962
G1 X3.6936 Y3.4009
G0 Z0.125
G0 X3.7249 Y3.6822
G1 Z-0.016 F30
G1 X3.7249 Y3.4764 F60
G1 X3.7247 Y3.47
G1 X3.7241 Y3.4635
G1 X3.7232 Y3.4572
G1 X3.7218 Y3.4509
G1 X3.7201 Y3.4447
G1 X3.718 Y3.4386
G1 X3.7155 Y3.4326
G1 X3.7127 Y3.4268
G1 X3.7095 Y3.4212
G1 X3.706 Y3.4158
G1 X3.7022 Y3.4106
G1 X3.6981 Y3.4056
G1 X3.6937 Y3.4009
G0 Z0.125
G0 X3.7248 Y3.6822
G1 Z-0.016 F30
G1 X3.7246 Y3.6886 F60
G1 X3.724 Y3.6949
G1 X3.7231 Y3.7012
G1 X3.7217 Y3.7075
G1 X3.72 Y3.7136
G1 X3.7179 Y3.7196
G1 X3.7155 Y3.7255
G1 X3.7127 Y3.7313
G1 X3.7096 Y3.7368
G1 X3.7061 Y3.7422
G1 X3.7023 Y3.7473
G1 X3.6982 Y3.7522
G1 X3.6939 Y3.7569
G1 X3.6004 Y3.8504
G1 X3.595 Y3.8555
G1 X3.5894 Y3.8604
G1 X3.5836 Y3.8649
G1 X3.5775 Y3.8692
G1 X3.5712 Y3.8732
G1 X3.5648 Y3.8768
G1 X3.5581 Y3.8802
G1 X3.5514 Y3.8832
G1 X3.5444 Y3.8859
G1 X3.5374 Y3.8882
G1 X3.5302 Y3.8902
G1 X3.523 Y3.8918
G1 X3.5157 Y3.8931
G1 X3.5083 Y3.894
G1 X3.5009 Y3.8945
G1 X3.4935 Y3.8947
G1 X3.2612 Y3.8947
G0 Z0.125
M5
M30
