(Generated by PartKam Version 0.05)

G20 G90 G40

(letter_profile)
G0 Z0.125
T0 M6
G17
M3
G0 X0.0325 Y0.9251
G1 Z-0.016 F30
G1 X0.0325 Y0.0563 F60
G3 X0.0637 Y0.025 I0.0313 J0
G1 X0.2638 Y0.025
G3 X0.295 Y0.0563 I0 J0.0313
G1 X0.295 Y0.2188
G1 X0.3672 Y0.2188
G1 Z-0.01 F30
G1 X0.4297 Y0.2188 F60
G1 Z-0.016 F30
G1 X0.4825 Y0.2188 F60
G3 X0.4887 Y0.2194 I0 J0.0313
G3 X0.5801 Y0.2531 I-0.0634 J0.3133
G3 X0.6604 Y0.3143 I-0.1677 J0.303
G3 X0.7196 Y0.3962 I-0.2476 J0.2414
G3 X0.7508 Y0.4884 I-0.2825 J0.1469
G3 X0.7512 Y0.4938 I-0.0308 J0.0054
G1 X0.7512 Y0.4938
G1 X0.7512 Y0.6625
G3 X0.7511 Y0.6645 I-0.0312 J0
G3 X0.7304 Y0.7576 I-0.3096 J-0.02
G3 X0.681 Y0.8441 I-0.3184 J-0.1246
G3 X0.6086 Y0.9127 I-0.2687 J-0.211
G3 X0.523 Y0.9549 I-0.1779 J-0.2534
G3 X0.5137 Y0.9563 I-0.0093 J-0.0298
G1 X0.1958 Y0.9563
G1 Z-0.01 F30
G1 X0.1333 Y0.9563 F60
G1 Z-0.016 F30
G1 X0.0638 Y0.9563 F60
G3 X0.0325 Y0.9251 I0 J-0.0312
G0 Z0.125
G0 X0.0325 Y2.8072
G1 Z-0.016 F30
G1 X0.0325 Y1.9384 F60
G3 X0.0637 Y1.9071 I0.0313 J0
G1 X0.2638 Y1.9071
G3 X0.295 Y1.9384 I0 J0.0313
G1 X0.295 Y2.1009
G1 X0.3791 Y2.1009
G1 Z-0.01 F30
G1 X0.4416 Y2.1009 F60
G1 Z-0.016 F30
G1 X0.4825 Y2.1009 F60
G3 X0.4887 Y2.1015 I0 J0.0313
G3 X0.5801 Y2.1352 I-0.0634 J0.3133
G3 X0.6604 Y2.1964 I-0.1677 J0.3029
G3 X0.7196 Y2.2783 I-0.2476 J0.2414
G3 X0.7508 Y2.3705 I-0.2825 J0.1469
G3 X0.7512 Y2.3759 I-0.0308 J0.0054
G1 X0.7512 Y2.3759
G1 X0.7512 Y2.5446
G3 X0.7511 Y2.5467 I-0.0312 J0
G3 X0.7303 Y2.6401 I-0.3129 J-0.0209
G3 X0.681 Y2.7262 I-0.3169 J-0.124
G3 X0.6089 Y2.7945 I-0.2675 J-0.2101
G3 X0.5231 Y2.8369 I-0.1801 J-0.2565
G3 X0.5137 Y2.8384 I-0.0094 J-0.0298
G1 X0.1778 Y2.8384
G1 Z-0.01 F30
G1 X0.1153 Y2.8384 F60
G1 Z-0.016 F30
G1 X0.0638 Y2.8384 F60
G3 X0.0325 Y2.8072 I0 J-0.0312
G0 Z0.125
G0 X2.2082 Y2.0004
G1 Z-0.016 F30
G1 X2.2085 Y2.7221 F60
G3 X2.209 Y2.7317 I-0.0841 J0.0096
G3 X2.2057 Y2.7552 I-0.0846 J0
G3 X2.1889 Y2.7874 I-0.088 J-0.0255
G3 X2.1603 Y2.8106 I-0.0697 J-0.0564
G3 X2.1254 Y2.8196 I-0.0374 J-0.0724
G1 X2.1245 Y2.8197
G1 X2.0304 Y2.8197
G3 X1.9985 Y2.8135 I-0.001 J-0.0801
G3 X1.9708 Y2.7949 I0.0333 J-0.0796
G3 X1.9522 Y2.7673 I0.0608 J-0.0609
G3 X1.9461 Y2.7365 I0.0736 J-0.0308
G3 X1.9461 Y2.7353 I0.0798 J0
G1 X1.946 Y2.6079
G1 Z-0.01 F30
G1 X1.946 Y2.5454 F60
G1 Z-0.016 F30
G1 X1.946 Y2.3971 F60
G3 X1.9459 Y2.3921 I0.0909 J-0.0051
G1 X1.9459 Y2.392
G3 X1.946 Y2.3825 I0.2789 J0.0002
G2 X1.9461 Y2.3793 I-0.0927 J-0.0032
G1 X1.9461 Y2.3792
G2 X1.9461 Y2.3777 I-0.0928 J0
G1 X1.8959 Y2.4388
G3 X1.8923 Y2.4426 I-0.0241 J-0.0198
G1 X1.8899 Y2.4446
G3 X1.8881 Y2.4461 I-0.0205 J-0.0236
G3 X1.8722 Y2.4538 I-0.0289 J-0.039
G3 X1.8549 Y2.4555 I-0.0136 J-0.0488
G3 X1.838 Y2.4513 I0.0037 J-0.0505
G3 X1.8234 Y2.4413 I0.0198 J-0.0443
G3 X1.8213 Y2.4389 I0.0221 J-0.0221
G1 X1.7696 Y2.3754
G1 X1.7688 Y2.3753
G2 X1.7671 Y2.3755 I-0.0003 J0.005
G3 X1.7662 Y2.376 I-0.0162 J-0.0267
G1 X1.7658 Y2.3763
G2 X1.7651 Y2.3774 I0.0034 J0.0031
G2 X1.7646 Y2.3788 I0.0043 J0.0021
G3 X1.7648 Y2.3817 I-0.0311 J0.0029
G1 X1.7648 Y2.3822
G1 X1.7648 Y2.5526
G1 Z-0.01 F30
G1 X1.7648 Y2.6151 F60
G1 Z-0.016 F30
G1 X1.7649 Y2.7314 F60
G3 X1.7649 Y2.7343 I-0.0813 J0.0029
G3 X1.7602 Y2.7616 I-0.0813 J0
G3 X1.7443 Y2.7892 I-0.0835 J-0.0297
G3 X1.7197 Y2.8094 I-0.0678 J-0.0576
G3 X1.69 Y2.8191 I-0.0399 J-0.0717
G3 X1.6863 Y2.8193 I-0.0039 J-0.031
G1 X1.5881 Y2.8197
G3 X1.557 Y2.814 I-0.0011 J-0.0817
G3 X1.5299 Y2.797 I0.032 J-0.0812
G3 X1.5108 Y2.7714 I0.0591 J-0.0642
G3 X1.5026 Y2.7409 I0.0732 J-0.0361
G3 X1.5025 Y2.7388 I0.0312 J-0.0022
G1 X1.5023 Y2.0253
G3 X1.5019 Y2.0158 I0.1041 J-0.0095
G3 X1.5055 Y1.9887 I0.1046 J0
G3 X1.5222 Y1.9529 I0.109 J0.0293
G3 X1.5508 Y1.9249 I0.0905 J0.0639
G3 X1.5866 Y1.9098 I0.0563 J0.0834
G3 X1.5885 Y1.9095 I0.0063 J0.0306
G3 X1.6105 Y1.9075 I0.0292 J0.2003
G3 X1.6497 Y1.9072 I0.0256 J0.7218
G2 X1.6715 Y1.9074 I0.0213 J-1.132
G2 X1.6814 Y1.9072 I-0.0001 J-0.257
G3 X1.6866 Y1.9074 I0.0012 J0.0312
G3 X1.7145 Y1.9139 I-0.0181 J0.1411
G3 X1.7408 Y1.9259 I-0.0475 J0.1393
G3 X1.7643 Y1.9428 I-0.0737 J0.1271
G3 X1.7763 Y1.9547 I-0.0936 J0.1061
G1 Z-0.01 F30
G3 X1.7833 Y1.9632 I-0.1056 J0.0942 F60
G1 X1.8162 Y2.0028
G1 Z-0.016 F30
G1 X1.8585 Y2.0538 F60
G1 X1.9093 Y1.9932
G1 Z-0.01 F30
G1 X1.9458 Y1.9495 F60
G3 X1.9469 Y1.9483 I0.024 J0.0201
G3 X1.9496 Y1.9455 I0.0963 J0.0893
G1 Z-0.016 F30
G3 X1.9632 Y1.9334 I0.0936 J0.0922 F60
G3 X1.9819 Y1.9214 I0.0812 J0.1059
G3 X2.0027 Y1.9126 I0.0618 J0.1166
G3 X2.0244 Y1.9075 I0.0391 J0.1196
G3 X2.0287 Y1.9072 I0.0043 J0.0309
G1 X2.0965 Y1.9072
G3 X2.1336 Y1.9106 I0.01 J0.0966
G3 X2.1695 Y1.929 I-0.0296 J0.102
G3 X2.196 Y1.9596 I-0.065 J0.0829
G3 X2.2081 Y1.9972 I-0.083 J0.0474
G3 X2.2082 Y2.0004 I-0.0311 J0.0032
G0 Z0.125
G0 X1.4962 Y3.6826
G1 Z-0.016 F30
G1 X1.496 Y2.9691 F60
G3 X1.4956 Y2.9596 I0.1041 J-0.0095
G3 X1.4992 Y2.9325 I0.1046 J0
G3 X1.516 Y2.8967 I0.1089 J0.0293
G3 X1.5445 Y2.8688 I0.0906 J0.064
G3 X1.5803 Y2.8536 I0.0565 J0.0836
G3 X1.5822 Y2.8533 I0.0064 J0.0306
G3 X1.6042 Y2.8513 I0.0292 J0.2012
G3 X1.6434 Y2.851 I0.0257 J0.7253
G2 X1.6652 Y2.8512 I0.0213 J-1.1393
G2 X1.6752 Y2.851 I-0.0001 J-0.2588
G3 X1.6804 Y2.8512 I0.0012 J0.0312
G3 X1.7082 Y2.8577 I-0.0183 J0.1415
G3 X1.7345 Y2.8697 I-0.0477 J0.1396
G3 X1.758 Y2.8866 I-0.0738 J0.1273
G3 X1.7616 Y2.8899 I-0.0936 J0.1061
G1 Z-0.01 F30
G3 X1.777 Y2.9069 I-0.0972 J0.1029 F60
G1 X1.8022 Y2.9373
G1 Z-0.016 F30
G1 X1.8522 Y2.9976 F60
G1 X1.8952 Y2.9462
G1 Z-0.01 F30
G1 X1.9343 Y2.8994 F60
G3 X1.9352 Y2.8982 I0.1016 J0.081
G1 Z-0.016 F30
G3 X1.951 Y2.882 I0.1006 J0.0822 F60
G3 X1.9713 Y2.8676 I0.0872 J0.1012
G3 X1.9941 Y2.8571 I0.0664 J0.1146
G3 X2.0181 Y2.8513 I0.0415 J0.1191
G3 X2.0241 Y2.8511 I0.0043 J0.0309
G2 X2.0344 Y2.8513 I0.0102 J-0.1909
G2 X2.0579 Y2.851 I-0.0007 J-0.8749
G3 X2.1051 Y2.8519 I0.0143 J0.5185
G3 X2.1325 Y2.8561 I-0.0096 J0.151
G3 X2.1354 Y2.857 I-0.0076 J0.0303
G3 X2.1642 Y2.8733 I-0.0331 J0.0922
G3 X2.1866 Y2.8985 I-0.0661 J0.0811
G3 X2.1998 Y2.9296 I-0.0883 J0.0558
G3 X2.2026 Y2.9528 I-0.095 J0.0231
G3 X2.2022 Y2.961 I-0.0977 J0
G1 X2.2022 Y3.6665
G3 X2.2027 Y3.6757 I-0.0837 J0.0092
G3 X2.1993 Y3.6995 I-0.0842 J0
G3 X2.1824 Y3.7315 I-0.0876 J-0.0259
G3 X2.1539 Y3.7545 I-0.0694 J-0.0567
G3 X2.1191 Y3.7634 I-0.0372 J-0.0725
G1 X2.1182 Y3.7634
G1 X2.0244 Y3.7634
G3 X1.9922 Y3.7573 I-0.0013 J-0.0801
G3 X1.9646 Y3.7387 I0.0333 J-0.0796
G3 X1.946 Y3.7111 I0.0607 J-0.0609
G3 X1.9398 Y3.6803 I0.0736 J-0.0308
G3 X1.9398 Y3.6791 I0.0797 J0
G1 X1.9398 Y3.5922
G1 Z-0.01 F30
G1 X1.9398 Y3.5297 F60
G1 Z-0.016 F30
G1 X1.9397 Y3.3418 F60
G3 X1.9396 Y3.3366 I0.0945 J-0.0051
G1 X1.9396 Y3.3366
G3 X1.9398 Y3.327 I0.293 J0.0001
G2 X1.9398 Y3.3236 I-0.0996 J-0.0033
G1 X1.9398 Y3.3234
G2 X1.9398 Y3.3215 I-0.0997 J0
G1 X1.8897 Y3.3826
G3 X1.8858 Y3.3865 I-0.0242 J-0.0198
G1 X1.8832 Y3.3887
G3 X1.8809 Y3.3905 I-0.0203 J-0.0237
G3 X1.8654 Y3.3978 I-0.0281 J-0.0398
G3 X1.8486 Y3.3993 I-0.0131 J-0.049
G3 X1.8321 Y3.3953 I0.0037 J-0.0504
G3 X1.8178 Y3.3857 I0.0193 J-0.0443
G3 X1.8153 Y3.383 I0.0217 J-0.0225
G1 X1.7725 Y3.3305
G1 X1.763 Y3.3192
G1 X1.7625 Y3.3191
G2 X1.761 Y3.3192 I-0.0003 J0.005
G1 X1.7605 Y3.3194
G1 X1.76 Y3.3197
G1 X1.7595 Y3.3201
G2 X1.7588 Y3.3212 I0.0035 J0.0033
G2 X1.7583 Y3.3227 I0.0042 J0.002
G3 X1.7585 Y3.3258 I-0.0311 J0.003
G1 X1.7585 Y3.3259
G1 X1.7585 Y3.5089
G1 Z-0.01 F30
G1 X1.7585 Y3.5714 F60
G1 Z-0.016 F30
G1 X1.7585 Y3.674 F60
G3 X1.7586 Y3.678 I-0.0813 J0.0039
G3 X1.7542 Y3.7043 I-0.0814 J0
G3 X1.7384 Y3.7324 I-0.084 J-0.0287
G3 X1.7137 Y3.753 I-0.0684 J-0.057
G3 X1.6837 Y3.7629 I-0.0401 J-0.0713
G3 X1.68 Y3.7631 I-0.0039 J-0.031
G1 X1.5818 Y3.7635
G3 X1.5507 Y3.7578 I-0.0011 J-0.0818
G3 X1.5236 Y3.7408 I0.0319 J-0.0812
G3 X1.5045 Y3.7152 I0.059 J-0.0641
G3 X1.4963 Y3.6847 I0.0732 J-0.036
G3 X1.4962 Y3.6826 I0.0312 J-0.0021
G0 Z0.125
G0 X1.5025 Y0.8567
G1 Z-0.016 F30
G1 X1.5023 Y0.1432 F60
G3 X1.5019 Y0.1339 I0.1026 J-0.0093
G3 X1.5055 Y0.1068 I0.1031 J0
G3 X1.5224 Y0.0707 I0.1127 J0.0307
G3 X1.5506 Y0.0426 I0.0922 J0.0643
G3 X1.5851 Y0.0283 I0.0502 J0.0724
G3 X1.6111 Y0.0254 I0.0355 J0.1959
G3 X1.6526 Y0.0249 I0.0266 J0.5596
G2 X1.6724 Y0.0252 I0.0239 J-0.9036
G2 X1.6814 Y0.0251 I0.0009 J-0.2061
G3 X1.6867 Y0.0253 I0.0012 J0.0312
G3 X1.7143 Y0.0317 I-0.0183 J0.1417
G3 X1.7405 Y0.0436 I-0.0474 J0.1395
G3 X1.764 Y0.0604 I-0.0733 J0.1271
G3 X1.7816 Y0.079 I-0.0929 J0.1059
G1 Z-0.01 F30
G3 X1.7829 Y0.0806 I-0.1105 J0.0873 F60
G1 X1.8215 Y0.1271
G1 Z-0.016 F30
G1 X1.8585 Y0.1717 F60
G1 X1.8989 Y0.1234
G1 Z-0.01 F30
G1 X1.9389 Y0.0755 F60
G1 Z-0.016 F30
G1 X1.9409 Y0.0731 F60
G3 X1.9577 Y0.0558 I0.1007 J0.0808
G3 X1.9779 Y0.0415 I0.0867 J0.1013
G3 X2.0005 Y0.0312 I0.0662 J0.1149
G3 X2.0243 Y0.0254 I0.0416 J0.1196
G3 X2.0287 Y0.0251 I0.0044 J0.0309
G1 X2.1133 Y0.0252
G3 X2.116 Y0.0253 I0 J0.0312
G3 X2.137 Y0.0295 I-0.0086 J0.0978
G3 X2.1568 Y0.0382 I-0.031 J0.0982
G3 X2.1743 Y0.0506 I-0.0514 J0.0904
G3 X2.1887 Y0.0663 I-0.0672 J0.0762
G3 X2.1983 Y0.0821 I-0.0816 J0.0604
G3 X2.2049 Y0.0995 I-0.0934 J0.0457
G3 X2.2084 Y0.1179 I-0.0995 J0.0281
G3 X2.2088 Y0.1273 I-0.0993 J0.0094
G3 X2.2085 Y0.1349 I-0.0998 J0
G1 X2.2085 Y0.8406
G3 X2.209 Y0.8498 I-0.0837 J0.0092
G3 X2.2056 Y0.8736 I-0.0842 J0
G3 X2.1887 Y0.9056 I-0.0876 J-0.0259
G3 X2.1601 Y0.9286 I-0.0694 J-0.0567
G3 X2.1254 Y0.9375 I-0.0371 J-0.0725
G1 X2.1245 Y0.9376
G1 X2.0304 Y0.9376
G3 X1.9985 Y0.9314 I-0.001 J-0.08
G3 X1.9708 Y0.9129 I0.0333 J-0.0796
G3 X1.9522 Y0.8852 I0.0608 J-0.0609
G3 X1.9461 Y0.8544 I0.0736 J-0.0308
G3 X1.9461 Y0.8532 I0.0797 J0
G1 X1.9461 Y0.799
G1 Z-0.01 F30
G1 X1.946 Y0.7365 F60
G1 Z-0.016 F30
G1 X1.946 Y0.5142 F60
G3 X1.9459 Y0.5092 I0.0871 J-0.005
G1 X1.9459 Y0.5092
G3 X1.946 Y0.4998 I0.2643 J0.0001
G2 X1.9461 Y0.4969 I-0.0816 J-0.0029
G2 X1.9461 Y0.4956 I-0.0817 J0
G1 X1.8959 Y0.5567
G3 X1.892 Y0.5607 I-0.0241 J-0.0198
G1 X1.8894 Y0.5629
G3 X1.8872 Y0.5646 I-0.0202 J-0.0238
G3 X1.8715 Y0.5719 I-0.0281 J-0.0397
G3 X1.8544 Y0.5734 I-0.0129 J-0.049
G3 X1.8378 Y0.5691 I0.0042 J-0.0504
G3 X1.8234 Y0.5591 I0.0199 J-0.0441
G3 X1.8213 Y0.5568 I0.0221 J-0.0221
G1 X1.7696 Y0.4933
G1 X1.769 Y0.4932
G2 X1.7675 Y0.4933 I-0.0006 J0.0051
G1 X1.7669 Y0.4935
G1 X1.7664 Y0.4937
G1 X1.766 Y0.494
G2 X1.7651 Y0.4952 I0.0034 J0.0034
G2 X1.7646 Y0.4969 I0.0044 J0.0022
G3 X1.7648 Y0.4998 I-0.0311 J0.003
G1 X1.7648 Y0.5
G1 X1.7648 Y0.7237
G1 Z-0.01 F30
G1 X1.7649 Y0.7862 F60
G1 Z-0.016 F30
G1 X1.7649 Y0.8504 F60
G3 X1.7649 Y0.8522 I-0.0815 J0.0018
G3 X1.7598 Y0.8805 I-0.0815 J0
G3 X1.7438 Y0.9076 I-0.0831 J-0.0307
G3 X1.7194 Y0.9274 I-0.0673 J-0.0581
G3 X1.6901 Y0.937 I-0.0397 J-0.072
G3 X1.6863 Y0.9372 I-0.0039 J-0.031
G1 X1.5881 Y0.9376
G3 X1.557 Y0.9319 I-0.0011 J-0.0819
G3 X1.5299 Y0.9149 I0.0319 J-0.0811
G3 X1.5108 Y0.8893 I0.059 J-0.0641
G3 X1.5025 Y0.8588 I0.0733 J-0.0361
G3 X1.5025 Y0.8567 I0.0312 J-0.0021
G0 Z0.125
G0 X1.4962 Y1.8004
G1 Z-0.016 F30
G1 X1.496 Y1.087 F60
G3 X1.4956 Y1.0775 I0.1041 J-0.0095
G3 X1.4992 Y1.0504 I0.1045 J0
G3 X1.516 Y1.0146 I0.1089 J0.0293
G3 X1.5445 Y0.9867 I0.0906 J0.064
G3 X1.5803 Y0.9715 I0.0565 J0.0837
G3 X1.5822 Y0.9712 I0.0064 J0.0306
G3 X1.6042 Y0.9692 I0.0292 J0.2012
G3 X1.6434 Y0.9689 I0.0257 J0.7252
G2 X1.6652 Y0.9691 I0.0213 J-1.1393
G2 X1.6752 Y0.9689 I-0.0001 J-0.2588
G3 X1.6805 Y0.9691 I0.0012 J0.0312
G3 X1.7082 Y0.9756 I-0.0188 J0.1428
G3 X1.7345 Y0.9876 I-0.0479 J0.14
G3 X1.758 Y1.0045 I-0.0736 J0.1272
G3 X1.7674 Y1.0135 I-0.093 J0.1056
G1 Z-0.01 F30
G3 X1.777 Y1.0249 I-0.1024 J0.0966 F60
G1 X1.8074 Y1.0615
G1 Z-0.016 F30
G1 X1.8522 Y1.1155 F60
G1 X1.9083 Y1.0485
G1 Z-0.01 F30
G1 X1.9343 Y1.0173 F60
G3 X1.9493 Y1.0014 I0.102 J0.0815
G1 Z-0.016 F30
G3 X1.9511 Y0.9999 I0.087 J0.0974 F60
G3 X1.9713 Y0.9855 I0.0874 J0.1014
G3 X1.9941 Y0.975 I0.0665 J0.1145
G3 X2.0181 Y0.9692 I0.0414 J0.1185
G3 X2.0241 Y0.969 I0.0043 J0.0309
G2 X2.0344 Y0.9692 I0.0102 J-0.1895
G2 X2.0579 Y0.9689 I-0.0005 J-0.8693
G3 X2.1051 Y0.9698 I0.0143 J0.5162
G3 X2.1325 Y0.9741 I-0.0096 J0.1504
G3 X2.1354 Y0.9749 I-0.0077 J0.0303
G3 X2.1642 Y0.9912 I-0.0331 J0.0922
G3 X2.1866 Y1.0164 I-0.0661 J0.0811
G3 X2.1998 Y1.0475 I-0.0883 J0.0558
G3 X2.2026 Y1.0707 I-0.095 J0.0231
G3 X2.2022 Y1.0789 I-0.0978 J0
G1 X2.2022 Y1.7844
G3 X2.2027 Y1.7936 I-0.0837 J0.0092
G3 X2.1993 Y1.8174 I-0.0842 J0
G3 X2.1824 Y1.8494 I-0.0877 J-0.0259
G3 X2.1539 Y1.8724 I-0.0694 J-0.0567
G3 X2.1191 Y1.8813 I-0.0371 J-0.0724
G1 X2.1182 Y1.8813
G1 X2.0241 Y1.8813
G3 X1.9922 Y1.8752 I-0.001 J-0.08
G3 X1.9646 Y1.8566 I0.0333 J-0.0796
G3 X1.946 Y1.8289 I0.0608 J-0.0609
G3 X1.9398 Y1.7982 I0.0735 J-0.0308
G3 X1.9398 Y1.797 I0.0797 J0
G1 X1.9398 Y1.7101
G1 Z-0.01 F30
G1 X1.9398 Y1.6476 F60
G1 Z-0.016 F30
G1 X1.9397 Y1.4588 F60
G3 X1.9396 Y1.4537 I0.0902 J-0.0051
G1 X1.9396 Y1.4537
G3 X1.9398 Y1.4442 I0.2768 J0.0001
G2 X1.9398 Y1.4412 I-0.0872 J-0.003
G1 X1.9398 Y1.4409
G2 X1.9398 Y1.4394 I-0.0873 J0
G1 X1.8897 Y1.5005
G3 X1.8879 Y1.5025 I-0.0242 J-0.0198
G3 X1.8717 Y1.5135 I-0.035 J-0.034
G3 X1.8528 Y1.5174 I-0.0195 J-0.0467
G3 X1.8337 Y1.5139 I-0.0005 J-0.0505
G3 X1.8173 Y1.5031 I0.0179 J-0.0454
G3 X1.815 Y1.5007 I0.022 J-0.0222
G1 X1.769 Y1.4441
G1 X1.7629 Y1.437
G1 X1.7624 Y1.437
G2 X1.761 Y1.4371 I-0.0003 J0.0049
G2 X1.76 Y1.4376 I0.0005 J0.0018
G1 X1.7595 Y1.438
G2 X1.7588 Y1.4391 I0.0036 J0.0033
G2 X1.7583 Y1.4406 I0.0042 J0.002
G3 X1.7585 Y1.4437 I-0.0311 J0.003
G1 X1.7585 Y1.4438
G1 X1.7585 Y1.6512
G1 Z-0.01 F30
G1 X1.7585 Y1.7137 F60
G1 Z-0.016 F30
G1 X1.7585 Y1.7919 F60
G3 X1.7586 Y1.7959 I-0.0813 J0.0039
G3 X1.7542 Y1.8222 I-0.0814 J0
G3 X1.7384 Y1.8503 I-0.084 J-0.0287
G3 X1.7137 Y1.8709 I-0.0684 J-0.057
G3 X1.6837 Y1.8808 I-0.0402 J-0.0713
G3 X1.6799 Y1.881 I-0.0039 J-0.031
G1 X1.5818 Y1.8813
G3 X1.5507 Y1.8757 I-0.0011 J-0.0817
G3 X1.5236 Y1.8587 I0.032 J-0.0812
G3 X1.5045 Y1.833 I0.059 J-0.0641
G3 X1.4963 Y1.8026 I0.0731 J-0.036
G3 X1.4962 Y1.8004 I0.0312 J-0.0021
G0 Z0.125
G0 X2.2153 Y3.6509
G1 Z-0.016 F30
G1 X2.2157 Y2.9497 F60
G3 X2.2158 Y2.9475 I0.0312 J0
G3 X2.2276 Y2.9076 I0.0981 J0.0072
G3 X2.2551 Y2.8747 I0.0958 J0.0523
G3 X2.2925 Y2.855 I0.0698 J0.0869
G3 X2.3317 Y2.851 I0.0297 J0.0979
G1 X2.8424 Y2.851
G3 X2.8614 Y2.8539 I0.0008 J0.0581
G3 X2.8785 Y2.8628 I-0.0192 J0.0578
G3 X2.8921 Y2.8767 I-0.0361 J0.0488
G3 X2.9004 Y2.8943 I-0.0472 J0.0332
G3 X2.9024 Y2.9059 I-0.0578 J0.0161
G3 X2.9029 Y2.9169 I-0.1463 J0.011
G3 X2.9028 Y2.9202 I-0.1468 J0
G2 X2.9028 Y2.925 I0.2115 J0.0048
G1 X2.9028 Y2.925
G2 X2.9028 Y2.9263 I0.0284 J0
G3 X2.9028 Y2.9277 I-0.0312 J0.0014
G1 X2.9028 Y2.9277
G1 X2.9028 Y3.0347
G3 X2.9027 Y3.0374 I-0.0312 J0
G3 X2.8979 Y3.0564 I-0.0606 J-0.0053
G3 X2.8874 Y3.0729 I-0.059 J-0.0256
G3 X2.8727 Y3.0855 I-0.0489 J-0.0424
G3 X2.8548 Y3.093 I-0.0326 J-0.0524
G3 X2.8496 Y3.0938 I-0.0074 J-0.0304
G1 X2.8388 Y3.0946
G3 X2.8366 Y3.0947 I-0.0022 J-0.0312
G1 X2.7515 Y3.0947
G1 Z-0.01 F30
G1 X2.689 Y3.0947 F60
G1 Z-0.016 F30
G1 X2.4972 Y3.0948 F60
G2 X2.4958 Y3.0954 I0.0012 J0.0055
G2 X2.4925 Y3.0981 I0.0054 J0.0099
G2 X2.4904 Y3.1019 I0.0088 J0.0073
G2 X2.4901 Y3.1037 I0.0057 J0.0018
G1 X2.4901 Y3.1043
G3 X2.4903 Y3.1071 I-0.0311 J0.0029
G1 X2.4906 Y3.2072
G3 X2.4921 Y3.2072 I0.0015 J0.0312
G1 X2.6349 Y3.2072
G3 X2.6549 Y3.2091 I0.0048 J0.055
G3 X2.6748 Y3.2193 I-0.0159 J0.0558
G3 X2.6894 Y3.2363 I-0.0359 J0.0457
G3 X2.6963 Y3.2577 I-0.048 J0.0273
G3 X2.6965 Y3.261 I-0.0311 J0.0033
G1 X2.6965 Y3.261
G1 X2.6965 Y3.2635
G1 Z-0.01 F30
G1 X2.6965 Y3.326 F60
G1 Z-0.016 F30
G1 X2.6965 Y3.3393 F60
G3 X2.6967 Y3.3444 I-0.0596 J0.0052
G3 X2.694 Y3.362 I-0.0599 J0
G3 X2.6821 Y3.3842 I-0.0619 J-0.019
G3 X2.6627 Y3.4001 I-0.0501 J-0.0413
G3 X2.6387 Y3.4071 I-0.0284 J-0.0529
G3 X2.6364 Y3.4072 I-0.0023 J-0.0312
G1 X2.4902 Y3.4073
G3 X2.4903 Y3.4094 I-0.0312 J0.0024
G1 X2.4907 Y3.5137
G2 X2.4911 Y3.5148 I0.0042 J-0.0011
G2 X2.4937 Y3.5177 I0.0086 J-0.005
G2 X2.4978 Y3.5197 I0.0072 J-0.0096
G2 X2.5008 Y3.5199 I0.0021 J-0.0075
G3 X2.5048 Y3.5197 I0.0039 J0.031
G1 X2.6666 Y3.5198
G1 Z-0.01 F30
G1 X2.7291 Y3.5198 F60
G1 Z-0.016 F30
G1 X2.8 Y3.5199 F60
G3 X2.8036 Y3.5201 I0 J0.0312
G3 X2.8415 Y3.5324 I-0.0114 J0.0994
G3 X2.8728 Y3.5589 I-0.0546 J0.0964
G3 X2.8924 Y3.595 I-0.0861 J0.07
G3 X2.8972 Y3.6257 I-0.0956 J0.0307
G3 X2.8968 Y3.6341 I-0.1004 J0
G2 X2.8967 Y3.6376 I0.0839 J0.0049
G2 X2.8966 Y3.6452 I0.4454 J0.0077
G2 X2.8967 Y3.6475 I0.4455 J0
G3 X2.8967 Y3.6486 I-0.2006 J0.001
G3 X2.8939 Y3.6816 I-0.2006 J0
G3 X2.8862 Y3.7044 I-0.0741 J-0.0124
G3 X2.8719 Y3.7265 I-0.0916 J-0.0438
G3 X2.8513 Y3.745 I-0.0813 J-0.0693
G3 X2.8267 Y3.7577 I-0.0607 J-0.0878
G3 X2.8 Y3.7634 I-0.0343 J-0.0953
G3 X2.7977 Y3.7635 I-0.0023 J-0.0312
G1 X2.6975 Y3.7635
G1 Z-0.01 F30
G1 X2.635 Y3.7635 F60
G1 Z-0.016 F30
G1 X2.3091 Y3.7635 F60
G3 X2.3071 Y3.7634 I0 J-0.0312
G3 X2.2682 Y3.7521 I0.0058 J-0.0927
G3 X2.2365 Y3.7251 I0.0496 J-0.0903
G3 X2.2181 Y3.6884 I0.0831 J-0.0647
G3 X2.2146 Y3.6627 I0.0931 J-0.0257
G3 X2.2153 Y3.6509 I0.0965 J0
G0 Z0.125
G0 X2.2153 Y1.7688
G1 Z-0.016 F30
G1 X2.2157 Y1.0676 F60
G3 X2.2158 Y1.0654 I0.0312 J0
G3 X2.2276 Y1.0254 I0.098 J0.0072
G3 X2.2551 Y0.9926 I0.0958 J0.0523
G3 X2.2925 Y0.9729 I0.0698 J0.087
G3 X2.3317 Y0.9689 I0.0297 J0.098
G1 X2.8424 Y0.9689
G3 X2.8706 Y0.9759 I0.0012 J0.0553
G3 X2.892 Y0.9961 I-0.0298 J0.0531
G3 X2.9021 Y1.0205 I-0.0622 J0.04
G3 X2.9045 Y1.0432 I-0.1055 J0.0228
G3 X2.9044 Y1.0491 I-0.1079 J0
G2 X2.9036 Y1.0671 I0.6787 J0.0372
G2 X2.903 Y1.0965 I1.7729 J0.0501
G2 X2.9029 Y1.1145 I2.4925 J0.0291
G2 X2.9028 Y1.1526 I11.1353 J0.0498
G3 X2.9027 Y1.1551 I-0.0312 J0
G3 X2.8956 Y1.179 I-0.0604 J-0.0049
G3 X2.8798 Y1.1982 I-0.0569 J-0.0306
G3 X2.8578 Y1.2101 I-0.041 J-0.0498
G3 X2.8351 Y1.2126 I-0.0178 J-0.0578
G1 X2.7719 Y1.2126
G1 Z-0.01 F30
G1 X2.7094 Y1.2126 F60
G1 Z-0.016 F30
G1 X2.6313 Y1.2127 F60
G1 Z-0.01 F30
G1 X2.5688 Y1.2127 F60
G1 Z-0.016 F30
G1 X2.4972 Y1.2127 F60
G2 X2.4958 Y1.2133 I0.0013 J0.0055
G2 X2.4925 Y1.216 I0.0054 J0.0099
G2 X2.4904 Y1.2198 I0.0088 J0.0073
G2 X2.4901 Y1.2216 I0.0057 J0.0018
G1 X2.4901 Y1.2222
G3 X2.4903 Y1.225 I-0.0311 J0.0029
G1 X2.4906 Y1.3251
G3 X2.4921 Y1.3251 I0.0015 J0.0312
G1 X2.6347 Y1.3251
G3 X2.6547 Y1.3269 I0.0053 J0.0537
G3 X2.675 Y1.3373 I-0.0158 J0.0557
G3 X2.6895 Y1.3542 I-0.0365 J0.0459
G3 X2.6963 Y1.3756 I-0.0477 J0.0271
G3 X2.6965 Y1.3774 I-0.0311 J0.0033
G1 Z-0.01 F30
G3 X2.6965 Y1.3789 I-0.0312 J0.0015 F60
G1 X2.6965 Y1.3789
G1 X2.6965 Y1.4399
G1 Z-0.016 F30
G1 X2.6965 Y1.4573 F60
G3 X2.6967 Y1.4622 I-0.0604 J0.005
G3 X2.694 Y1.4801 I-0.0606 J0
G3 X2.6821 Y1.5022 I-0.0614 J-0.0189
G3 X2.6628 Y1.5179 I-0.0498 J-0.0412
G3 X2.639 Y1.525 I-0.0289 J-0.0539
G3 X2.6364 Y1.5251 I-0.0026 J-0.0311
G1 X2.4902 Y1.5252
G3 X2.4903 Y1.5273 I-0.0312 J0.0024
G1 X2.4907 Y1.6316
G2 X2.4911 Y1.6327 I0.0041 J-0.0011
G2 X2.4937 Y1.6356 I0.0086 J-0.005
G2 X2.4978 Y1.6376 I0.0073 J-0.0096
G2 X2.5008 Y1.6378 I0.0021 J-0.0075
G3 X2.5048 Y1.6376 I0.0039 J0.031
G1 X2.6669 Y1.6377
G1 Z-0.01 F30
G1 X2.7294 Y1.6377 F60
G1 Z-0.016 F30
G1 X2.8 Y1.6378 F60
G3 X2.8036 Y1.638 I0 J0.0312
G3 X2.8409 Y1.65 I-0.0115 J0.0996
G3 X2.872 Y1.6757 I-0.0539 J0.0966
G3 X2.8917 Y1.7108 I-0.0852 J0.0711
G3 X2.8972 Y1.7435 I-0.0953 J0.0327
G3 X2.897 Y1.7496 I-0.1007 J0
G1 X2.8969 Y1.7502
G2 X2.8967 Y1.7543 I0.0712 J0.0057
G2 X2.8966 Y1.7632 I0.3933 J0.0088
G2 X2.8966 Y1.7654 I0.3934 J0
G3 X2.8966 Y1.7666 I-0.2004 J0.0012
G3 X2.8939 Y1.7994 I-0.2004 J0
G3 X2.8862 Y1.8223 I-0.0742 J-0.0123
G3 X2.8719 Y1.8444 I-0.0916 J-0.0438
G3 X2.8513 Y1.8629 I-0.0814 J-0.0694
G3 X2.8267 Y1.8756 I-0.0608 J-0.0879
G3 X2.8 Y1.8813 I-0.0342 J-0.0953
G3 X2.7977 Y1.8813 I-0.0023 J-0.0312
G1 X2.3091 Y1.8813
G3 X2.3071 Y1.8813 I0 J-0.0312
G3 X2.2682 Y1.87 I0.0058 J-0.0927
G3 X2.2365 Y1.843 I0.0496 J-0.0903
G3 X2.2181 Y1.8063 I0.0832 J-0.0648
G3 X2.2146 Y1.7806 I0.093 J-0.0257
G3 X2.2153 Y1.7688 I0.0965 J0
G0 Z0.125
G0 X2.2216 Y0.825
G1 Z-0.016 F30
G1 X2.222 Y0.1238 F60
G3 X2.2221 Y0.1216 I0.0312 J0
G3 X2.2338 Y0.0817 I0.098 J0.0071
G3 X2.2613 Y0.0488 I0.0958 J0.0522
G3 X2.2988 Y0.0291 I0.0698 J0.0869
G3 X2.338 Y0.0251 I0.0297 J0.0979
G1 X2.8487 Y0.0251
G3 X2.8667 Y0.0277 I0.0006 J0.0585
G3 X2.8831 Y0.0356 I-0.0181 J0.0581
G3 X2.8965 Y0.0482 I-0.0342 J0.0498
G3 X2.9052 Y0.0639 I-0.0453 J0.0354
G3 X2.9084 Y0.0772 I-0.0502 J0.0192
G3 X2.9091 Y0.0904 I-0.1204 J0.0133
G3 X2.9091 Y0.0931 I-0.1211 J0
G2 X2.9091 Y0.0973 I0.1893 J0.0042
G1 X2.9091 Y0.0973
G1 X2.9091 Y0.0973
G2 X2.9091 Y0.0984 I0.0224 J0
G3 X2.9091 Y0.0998 I-0.0312 J0.0014
G1 X2.9091 Y0.0998
G1 X2.9091 Y0.2088
G3 X2.909 Y0.2113 I-0.0312 J0
G3 X2.9019 Y0.2352 I-0.0603 J-0.0049
G3 X2.8861 Y0.2545 I-0.0569 J-0.0307
G3 X2.8641 Y0.2663 I-0.041 J-0.0499
G3 X2.8414 Y0.2688 I-0.0179 J-0.0578
G1 X2.762 Y0.2688
G1 Z-0.01 F30
G1 X2.6995 Y0.2688 F60
G1 Z-0.016 F30
G1 X2.6172 Y0.2689 F60
G1 Z-0.01 F30
G1 X2.5547 Y0.2689 F60
G1 Z-0.016 F30
G1 X2.5035 Y0.2689 F60
G2 X2.5021 Y0.2695 I0.0012 J0.0055
G2 X2.4988 Y0.2722 I0.0054 J0.0099
G2 X2.4967 Y0.2759 I0.0087 J0.0072
G2 X2.4965 Y0.2777 I0.0055 J0.0018
G1 X2.4965 Y0.2783
G3 X2.4966 Y0.2812 I-0.0311 J0.003
G1 X2.4969 Y0.3813
G3 X2.4983 Y0.3813 I0.0015 J0.0312
G1 X2.6412 Y0.3813
G3 X2.6611 Y0.3832 I0.0049 J0.0547
G3 X2.681 Y0.3934 I-0.016 J0.0563
G3 X2.6958 Y0.4104 I-0.0357 J0.0458
G3 X2.7027 Y0.4322 I-0.0471 J0.0268
G3 X2.7028 Y0.4351 I-0.0311 J0.0029
G1 X2.7028 Y0.4351
G1 X2.7028 Y0.4541
G1 Z-0.01 F30
G1 X2.7027 Y0.5135 F60
G3 X2.7029 Y0.5166 I-0.0604 J0.005
G1 Z-0.016 F30
G3 X2.7029 Y0.5184 I-0.0606 J0.0018 F60
G3 X2.7003 Y0.5363 I-0.0606 J0
G3 X2.6884 Y0.5583 I-0.0614 J-0.0189
G3 X2.6692 Y0.5741 I-0.0499 J-0.0412
G3 X2.6454 Y0.5812 I-0.029 J-0.0539
G3 X2.6427 Y0.5813 I-0.0027 J-0.0311
G1 X2.4965 Y0.5813
G3 X2.4966 Y0.5835 I-0.0312 J0.0025
G1 X2.4971 Y0.6883
G1 X2.4975 Y0.6891
G2 X2.5001 Y0.6919 I0.0085 J-0.0051
G2 X2.5041 Y0.6938 I0.0071 J-0.0097
G2 X2.5072 Y0.694 I0.0021 J-0.0078
G3 X2.5111 Y0.6938 I0.0039 J0.031
G1 X2.6729 Y0.6939
G1 Z-0.01 F30
G1 X2.7354 Y0.6939 F60
G1 Z-0.016 F30
G1 X2.8063 Y0.694 F60
G3 X2.8099 Y0.6942 I0 J0.0312
G3 X2.8469 Y0.706 I-0.0116 J0.0997
G3 X2.8777 Y0.7313 I-0.0535 J0.0968
G3 X2.8976 Y0.7659 I-0.0845 J0.0716
G3 X2.9034 Y0.7995 I-0.0948 J0.0337
G3 X2.9033 Y0.8042 I-0.1006 J0
G3 X2.9032 Y0.8054 I-0.0312 J-0.0015
G2 X2.903 Y0.8096 I0.0677 J0.0058
G2 X2.9029 Y0.8182 I0.3794 J0.0086
G2 X2.9029 Y0.8212 I0.3795 J0
G3 X2.9029 Y0.8228 I-0.2006 J0.0016
G3 X2.9002 Y0.8555 I-0.2006 J0
G3 X2.8925 Y0.8785 I-0.0743 J-0.0123
G3 X2.8781 Y0.9005 I-0.0916 J-0.0438
G3 X2.8576 Y0.9191 I-0.0813 J-0.0693
G3 X2.833 Y0.9318 I-0.0608 J-0.0878
G3 X2.8063 Y0.9375 I-0.0343 J-0.0954
G3 X2.804 Y0.9375 I-0.0024 J-0.0312
G1 X2.3154 Y0.9376
G3 X2.3134 Y0.9375 I0 J-0.0312
G3 X2.2745 Y0.9262 I0.0059 J-0.0928
G3 X2.2428 Y0.8992 I0.0497 J-0.0904
G3 X2.2244 Y0.8625 I0.0831 J-0.0648
G3 X2.2209 Y0.8368 I0.093 J-0.0257
G3 X2.2216 Y0.825 I0.0965 J0
G0 Z0.125
G0 X2.2216 Y2.707
G1 Z-0.016 F30
G1 X2.222 Y2.0059 F60
G3 X2.2221 Y2.0038 I0.0312 J0
G3 X2.2342 Y1.9632 I0.0978 J0.0069
G3 X2.2626 Y1.93 I0.0953 J0.0529
G3 X2.3008 Y1.9106 I0.0691 J0.0888
G3 X2.3403 Y1.9072 I0.0285 J0.0998
G1 X2.8486 Y1.9072
G3 X2.8758 Y1.9134 I0.0013 J0.0567
G3 X2.8973 Y1.9318 I-0.0275 J0.0538
G3 X2.908 Y1.9553 I-0.0531 J0.0383
G3 X2.9096 Y1.9698 I-0.0623 J0.0145
G3 X2.9091 Y1.9779 I-0.064 J0
G1 X2.9091 Y2.0909
G3 X2.909 Y2.0935 I-0.0312 J0
G3 X2.9019 Y2.1173 I-0.0604 J-0.0049
G3 X2.8861 Y2.1365 I-0.0571 J-0.0308
G3 X2.8641 Y2.1484 I-0.0411 J-0.0497
G3 X2.8413 Y2.1509 I-0.0177 J-0.0573
G1 X2.8199 Y2.1509
G1 Z-0.01 F30
G1 X2.7574 Y2.1509 F60
G1 Z-0.016 F30
G1 X2.6586 Y2.1509 F60
G1 Z-0.01 F30
G1 X2.5961 Y2.151 F60
G1 Z-0.016 F30
G1 X2.5036 Y2.151 F60
G2 X2.5021 Y2.1516 I0.0014 J0.0059
G2 X2.4988 Y2.1543 I0.0055 J0.0101
G2 X2.4967 Y2.158 I0.0087 J0.0072
G2 X2.4965 Y2.1598 I0.0054 J0.0018
G1 X2.4965 Y2.1604
G3 X2.4966 Y2.1633 I-0.0311 J0.003
G1 X2.4969 Y2.2634
G3 X2.4984 Y2.2634 I0.0015 J0.0312
G1 X2.6412 Y2.2634
G3 X2.6611 Y2.2653 I0.0048 J0.0547
G3 X2.681 Y2.2754 I-0.016 J0.0563
G3 X2.6958 Y2.2926 I-0.0357 J0.0458
G3 X2.7027 Y2.3143 I-0.0471 J0.0268
G3 X2.7028 Y2.3172 I-0.0311 J0.0029
G1 X2.7028 Y2.3172
G1 X2.7028 Y2.332
G1 Z-0.01 F30
G1 X2.7027 Y2.3945 F60
G1 Z-0.016 F30
G1 X2.7027 Y2.3956 F60
G3 X2.703 Y2.4006 I-0.0604 J0.005
G3 X2.7003 Y2.4184 I-0.0606 J0
G3 X2.6884 Y2.4404 I-0.0614 J-0.0189
G3 X2.6692 Y2.4562 I-0.0498 J-0.0412
G3 X2.6454 Y2.4633 I-0.029 J-0.0539
G3 X2.6428 Y2.4634 I-0.0027 J-0.0311
G1 X2.4966 Y2.4636
G3 X2.4966 Y2.4656 I-0.0312 J0.0022
G1 X2.4971 Y2.5704
G1 X2.4975 Y2.5712
G2 X2.5001 Y2.574 I0.0084 J-0.0051
G2 X2.5041 Y2.5759 I0.0072 J-0.0098
G2 X2.5073 Y2.5761 I0.0022 J-0.008
G3 X2.5111 Y2.5759 I0.0038 J0.031
G1 X2.6731 Y2.576
G1 Z-0.01 F30
G1 X2.7356 Y2.576 F60
G1 Z-0.016 F30
G1 X2.8063 Y2.5761 F60
G3 X2.8099 Y2.5763 I0 J0.0312
G3 X2.8472 Y2.5883 I-0.0114 J0.0995
G3 X2.8783 Y2.6141 I-0.0539 J0.0966
G3 X2.898 Y2.6492 I-0.0852 J0.0711
G3 X2.9035 Y2.6818 I-0.0952 J0.0326
G3 X2.9033 Y2.688 I-0.1007 J0
G1 X2.9032 Y2.6886
G2 X2.903 Y2.6927 I0.0697 J0.0056
G2 X2.9029 Y2.7013 I0.3873 J0.0087
G2 X2.9029 Y2.7038 I0.3874 J0
G3 X2.9029 Y2.7051 I-0.1988 J0.0013
G3 X2.9002 Y2.7378 I-0.1988 J0
G3 X2.8925 Y2.7607 I-0.0738 J-0.0123
G3 X2.8781 Y2.7827 I-0.0916 J-0.0439
G3 X2.8576 Y2.8012 I-0.0813 J-0.0694
G3 X2.833 Y2.8139 I-0.0608 J-0.0879
G3 X2.8064 Y2.8196 I-0.0344 J-0.0957
G3 X2.804 Y2.8197 I-0.0024 J-0.0312
G1 X2.3154 Y2.8197
G3 X2.3134 Y2.8196 I0 J-0.0312
G3 X2.2745 Y2.8083 I0.0059 J-0.0928
G3 X2.2428 Y2.7813 I0.0497 J-0.0904
G3 X2.2244 Y2.7446 I0.0831 J-0.0648
G3 X2.2209 Y2.7189 I0.093 J-0.0257
G3 X2.2216 Y2.707 I0.0965 J0
G0 Z0.125
G0 X2.9155 Y3.5708
G1 Z-0.016 F30
G1 X2.9156 Y3.3655 F60
G1 Z-0.01 F30
G1 X2.9156 Y3.303 F60
G1 Z-0.016 F30
G1 X2.9159 Y2.9077 F60
G3 X2.9163 Y2.9026 I0.0312 J0
G3 X2.9229 Y2.8834 I0.0597 J0.0099
G3 X2.9353 Y2.8675 I0.0555 J0.0304
G3 X2.9523 Y2.8562 I0.0429 J0.0462
G3 X2.972 Y2.8511 I0.0248 J0.0548
G3 X2.9752 Y2.851 I0.0026 J0.0311
G2 X2.9923 Y2.8511 I0.0163 J-0.9304
G2 X3.0274 Y2.8509 I-0.0032 J-3.8339
G3 X3.0864 Y2.8511 I0.0237 J2.371
G3 X3.117 Y2.8523 I-0.0091 J0.6105
G3 X3.122 Y2.853 I-0.002 J0.0312
G3 X3.1495 Y2.8664 I-0.0156 J0.067
G3 X3.1691 Y2.8903 I-0.0469 J0.0584
G3 X3.1776 Y2.9162 I-0.0749 J0.039
G3 X3.1787 Y2.9299 I-0.0878 J0.0137
G3 X3.178 Y2.9408 I-0.0889 J0
G3 X3.1781 Y2.9536 I-0.7202 J0.0128
G1 X3.1781 Y2.9537
G3 X3.178 Y2.984 I-2.7999 J-0.0009
G2 X3.1779 Y3.0026 I1.6686 J0.0186
G2 X3.1781 Y3.0317 I1.6687 J0
G2 X3.179 Y3.0522 I0.3905 J-0.0068
G2 X3.1816 Y3.0581 I0.0176 J-0.0043
G2 X3.1889 Y3.0653 I0.0216 J-0.0147
G2 X3.1991 Y3.0696 I0.0172 J-0.0263
G2 X3.2092 Y3.07 I0.0062 J-0.0271
G3 X3.2162 Y3.0698 I0.0044 J0.0309
G2 X3.2306 Y3.0698 I0.0073 J-0.0892
G2 X3.2391 Y3.0683 I-0.0033 J-0.0413
G2 X3.2464 Y3.0648 I-0.0074 J-0.0249
G2 X3.2508 Y3.0606 I-0.0102 J-0.0148
G1 X3.2512 Y3.06
G1 X3.3004 Y2.9956
G1 Z-0.01 F30
G1 X3.3384 Y2.946 F60
G1 Z-0.016 F30
G1 X3.3805 Y2.8909 F60
G3 X3.3914 Y2.877 I0.0717 J0.0451
G3 X3.4068 Y2.8644 I0.063 J0.0611
G3 X3.4246 Y2.8556 I0.0475 J0.0735
G3 X3.4437 Y2.8512 I0.0285 J0.0789
G3 X3.4479 Y2.851 I0.0035 J0.0311
G2 X3.4611 Y2.8511 I0.0126 J-0.5569
G2 X3.4887 Y2.8509 I-0.0027 J-2.3403
G3 X3.536 Y2.8511 I0.019 J1.4647
G3 X3.561 Y2.8524 I-0.0075 J0.3858
G3 X3.5657 Y2.8531 I-0.0026 J0.0311
G3 X3.5917 Y2.8665 I-0.0144 J0.06
G3 X3.6091 Y2.89 I-0.0441 J0.051
G3 X3.6155 Y2.9129 I-0.0731 J0.0326
G3 X3.6162 Y2.924 I-0.0914 J0.0111
G3 X3.6155 Y2.935 I-0.0921 J0
G1 X3.6155 Y2.9359
G2 X3.6155 Y2.9392 I0.471 J0
G2 X3.6156 Y2.9522 I2.0451 J-0.0142
G3 X3.6157 Y2.9627 I-0.79 J0.0105
G3 X3.6152 Y2.991 I-0.7901 J0
G3 X3.6134 Y3.0124 I-0.2141 J-0.0077
G3 X3.6047 Y3.048 I-0.1759 J-0.0241
G3 X3.5899 Y3.0773 I-0.1242 J-0.0443
G3 X3.5886 Y3.079 I-0.0259 J-0.0174
G1 X3.5708 Y3.102
G3 X3.5682 Y3.1049 I-0.0247 J-0.0192
G2 X3.5593 Y3.1158 I0.0507 J0.0506
G2 X3.5524 Y3.1287 I0.0628 J0.0418
G2 X3.5481 Y3.1427 I0.0693 J0.0288
G2 X3.5468 Y3.1566 I0.0689 J0.0139
G2 X3.5486 Y3.1743 I0.0883 J-0.0004
G2 X3.5543 Y3.1921 I0.093 J-0.0195
G2 X3.5632 Y3.2084 I0.0882 J-0.0377
G2 X3.5751 Y3.2226 I0.0756 J-0.0515
G3 X3.5898 Y3.24 I-0.0986 J0.098
G3 X3.6015 Y3.2596 I-0.1142 J0.0813
G3 X3.6099 Y3.2813 I-0.1243 J0.0609
G3 X3.6145 Y3.3037 I-0.1269 J0.0375
G3 X3.6147 Y3.3064 I-0.031 J0.0036
G3 X3.6154 Y3.3527 I-2.3219 J0.0599
G3 X3.6156 Y3.4068 I-9.2123 J0.0541
G3 X3.6155 Y3.4445 I-9.2125 J0
G2 X3.6154 Y3.4988 I15.4 J0.0629
G2 X3.6154 Y3.5009 I3.8234 J0.0021
G2 X3.6154 Y3.5254 I3.8234 J0
G3 X3.6155 Y3.5286 I-0.1178 J0.0032
G3 X3.6114 Y3.5595 I-0.1179 J0
G3 X3.5971 Y3.5936 I-0.1366 J-0.0371
G3 X3.5795 Y3.6184 I-0.145 J-0.0844
G3 X3.5557 Y3.6424 I-0.1751 J-0.15
G2 X3.5459 Y3.6519 I0.3551 J0.3755
G1 Z-0.01 F30
G2 X3.5452 Y3.6526 I0.3648 J0.366 F60
G2 X3.5227 Y3.6754 I1.5373 J1.536
G3 X3.502 Y3.6963 I-0.9386 J-0.9106
G1 Z-0.016 F30
G3 X3.4819 Y3.7157 I-0.9179 J-0.9315 F60
G3 X3.4588 Y3.7357 I-0.2394 J-0.2536
G1 X3.4581 Y3.7362
G3 X3.4269 Y3.7541 I-0.0907 J-0.1216
G3 X3.3895 Y3.7657 I-0.0742 J-0.174
G3 X3.3582 Y3.7696 I-0.0438 J-0.2209
G3 X3.3213 Y3.7697 I-0.0189 J-0.3398
G1 X3.121 Y3.7697
G3 X3.0546 Y3.7598 I-0.006 J-0.1879
G3 X2.9925 Y3.7262 I0.0669 J-0.1973
G3 X2.9453 Y3.6737 I0.1289 J-0.1635
G3 X2.9201 Y3.6109 I0.1587 J-0.1001
G3 X2.9197 Y3.6083 I0.0306 J-0.0062
G1 X2.9157 Y3.5745
G3 X2.9155 Y3.5709 I0.031 J-0.0037
G1 X2.9155 Y3.5708
G0 Z0.125
G0 X2.9218 Y2.6271
G1 Z-0.016 F30
G1 X2.9219 Y2.3856 F60
G1 Z-0.01 F30
G1 X2.9219 Y2.3231 F60
G1 Z-0.016 F30
G1 X2.922 Y1.9646 F60
G3 X2.9224 Y1.9602 I0.0312 J0
G3 X2.9287 Y1.9406 I0.0599 J0.0086
G3 X2.9412 Y1.9242 I0.056 J0.0295
G3 X2.9583 Y1.9126 I0.0435 J0.0459
G3 X2.9783 Y1.9073 I0.0252 J0.0548
G3 X2.981 Y1.9072 I0.0027 J0.0311
G1 X3.1151 Y1.9073
G3 X3.1176 Y1.9074 I0 J0.0312
G3 X3.1449 Y1.9155 I-0.0058 J0.0694
G3 X3.1672 Y1.9338 I-0.036 J0.0667
G3 X3.181 Y1.9589 I-0.0585 J0.0486
G3 X3.1845 Y1.9805 I-0.0666 J0.0217
G3 X3.1843 Y1.9854 I-0.0701 J0
G1 X3.1845 Y2.1046
G2 X3.1863 Y2.1111 I0.0196 J-0.002
G2 X3.1919 Y2.1188 I0.0243 J-0.0115
G2 X3.1997 Y2.1241 I0.0186 J-0.0191
G2 X3.2064 Y2.1258 I0.0078 J-0.0178
G3 X3.2107 Y2.1257 I0.0025 J0.2
G3 X3.2202 Y2.1259 I-0.0066 J0.7144
G2 X3.2394 Y2.1256 I0.0057 J-0.2534
G2 X3.2445 Y2.125 I-0.0021 J-0.0395
G2 X3.2476 Y2.1238 I-0.0068 J-0.0233
G2 X3.2514 Y2.1218 I-0.0108 J-0.0241
G2 X3.2548 Y2.1191 I-0.0148 J-0.0224
G2 X3.2575 Y2.1162 I-0.0179 J-0.0193
G1 X3.3088 Y2.0491
G1 Z-0.01 F30
G1 X3.3467 Y1.9995 F60
G1 Z-0.016 F30
G1 X3.3869 Y1.947 F60
G3 X3.3981 Y1.933 I0.075 J0.0484
G3 X3.4132 Y1.9206 I0.0632 J0.0618
G3 X3.431 Y1.9118 I0.0471 J0.0727
G3 X3.4502 Y1.9073 I0.0279 J0.0776
G3 X3.4535 Y1.9072 I0.0033 J0.0311
G1 X3.5579 Y1.9073
G3 X3.5595 Y1.9073 I0 J0.0312
G3 X3.5836 Y1.9135 I-0.0032 J0.063
G3 X3.6037 Y1.9282 I-0.0294 J0.0613
G3 X3.6171 Y1.9492 I-0.0496 J0.0466
G3 X3.6218 Y1.973 I-0.0586 J0.0238
G1 X3.6218 Y1.9732
G1 X3.6215 Y2.0518
G3 X3.6215 Y2.0531 I-0.0312 J-0.0001
G3 X3.6174 Y2.0826 I-0.1621 J-0.0076
G3 X3.6079 Y2.1112 I-0.164 J-0.0384
G3 X3.5935 Y2.1377 I-0.1548 J-0.0672
G3 X3.5745 Y2.1612 I-0.1359 J-0.0906
G2 X3.5656 Y2.172 I0.05 J0.05
G2 X3.5587 Y2.1849 I0.0627 J0.0418
G2 X3.5545 Y2.1989 I0.0695 J0.0289
G2 X3.5531 Y2.2128 I0.0692 J0.0139
G2 X3.5551 Y2.231 I0.0862 J-0.0002
G2 X3.5612 Y2.2496 I0.0934 J-0.0204
G2 X3.5708 Y2.2665 I0.0899 J-0.0402
G2 X3.5834 Y2.2809 I0.0782 J-0.0556
G3 X3.5849 Y2.2824 I-0.0214 J0.0228
G3 X3.6017 Y2.3047 I-0.0974 J0.091
G3 X3.6138 Y2.3303 I-0.1203 J0.0725
G3 X3.6205 Y2.3574 I-0.1344 J0.0475
G3 X3.622 Y2.3776 I-0.1394 J0.0201
G3 X3.6218 Y2.3843 I-0.1409 J0
G1 X3.6217 Y2.5817
G3 X3.6218 Y2.5835 I-0.1238 J0.0018
G3 X3.6182 Y2.6129 I-0.1238 J0
G3 X3.6068 Y2.6437 I-0.1374 J-0.0336
G3 X3.5903 Y2.6694 I-0.1433 J-0.0732
G3 X3.5671 Y2.6947 I-0.1699 J-0.1326
G2 X3.555 Y2.7062 I0.451 J0.4855
G2 X3.5433 Y2.7177 I2.306 J2.3598
G1 Z-0.01 F30
G2 X3.528 Y2.733 I2.3176 J2.3483 F60
G3 X3.4989 Y2.7617 I-2.2269 J-2.2269
G1 Z-0.016 F30
G3 X3.4935 Y2.7669 I-2.1978 J-2.2557 F60
G3 X3.475 Y2.7843 I-0.5871 J-0.6054
G3 X3.4738 Y2.7854 I-0.0211 J-0.0231
G3 X3.4449 Y2.8045 I-0.1081 J-0.1315
G3 X3.4117 Y2.8181 I-0.0862 J-0.164
G3 X3.3782 Y2.8249 I-0.0554 J-0.1856
G3 X3.3443 Y2.8259 I-0.0228 J-0.201
G1 X3.1105 Y2.8254
G3 X3.1085 Y2.8254 I0.0001 J-0.0312
G3 X3.0516 Y2.8127 I0.0125 J-0.1904
G3 X2.9993 Y2.7828 I0.0752 J-0.1928
G3 X2.9577 Y2.7392 I0.1276 J-0.1629
G3 X2.932 Y2.6874 I0.156 J-0.11
G3 X2.9277 Y2.6729 I0.1829 J-0.0609
G3 X2.9246 Y2.6578 I0.1957 J-0.0485
G3 X2.9227 Y2.643 I0.2034 J-0.0342
G3 X2.9218 Y2.6278 I0.2139 J-0.0202
G1 X2.9218 Y2.6271
G1 X2.9218 Y2.6271
G0 Z0.125
G0 X2.9218 Y0.7449
G1 Z-0.016 F30
G1 X2.9219 Y0.4279 F60
G1 Z-0.01 F30
G1 X2.9219 Y0.3654 F60
G1 Z-0.016 F30
G1 X2.922 Y0.0826 F60
G3 X2.9223 Y0.0782 I0.0312 J0
G3 X2.9287 Y0.0586 I0.0599 J0.0084
G3 X2.9411 Y0.0421 I0.056 J0.0294
G3 X2.9582 Y0.0305 I0.0435 J0.0458
G3 X2.9783 Y0.0252 I0.0252 J0.0548
G3 X2.981 Y0.0251 I0.0027 J0.0311
G2 X2.9913 Y0.0251 I0.0114 J-6.3877
G2 X3.0123 Y0.0251 I0.0047 J-26.4761
G3 X3.0818 Y0.0254 I0.0045 J7.2427
G3 X3.1083 Y0.0259 I-0.0092 J1.0264
G3 X3.1409 Y0.0328 I-0.0034 J0.0962
G3 X3.1666 Y0.0507 I-0.0261 J0.0649
G3 X3.1811 Y0.0759 I-0.0503 J0.0456
G3 X3.1845 Y0.0981 I-0.0703 J0.0222
G3 X3.1843 Y0.1033 I-0.0737 J0
G1 X3.1845 Y0.2225
G2 X3.1864 Y0.2291 I0.0196 J-0.0019
G2 X3.192 Y0.2369 I0.0243 J-0.0116
G2 X3.2 Y0.2422 I0.0185 J-0.0193
G2 X3.2068 Y0.2437 I0.0075 J-0.0176
G3 X3.2116 Y0.2437 I0.0036 J0.1799
G3 X3.2213 Y0.2438 I-0.0043 J0.634
G2 X3.24 Y0.2434 I0.005 J-0.2281
G2 X3.2447 Y0.2428 I-0.002 J-0.0333
G2 X3.2478 Y0.2416 I-0.0073 J-0.0237
G2 X3.2515 Y0.2396 I-0.0112 J-0.0241
G2 X3.2548 Y0.2369 I-0.015 J-0.0223
G2 X3.2575 Y0.2341 I-0.0179 J-0.0192
G1 X3.305 Y0.172
G1 Z-0.01 F30
G1 X3.343 Y0.1223 F60
G1 Z-0.016 F30
G1 X3.3868 Y0.065 F60
G3 X3.3978 Y0.0511 I0.072 J0.0455
G3 X3.4131 Y0.0386 I0.0631 J0.0613
G3 X3.4309 Y0.0297 I0.0476 J0.0735
G3 X3.45 Y0.0253 I0.0285 J0.0788
G3 X3.4535 Y0.0251 I0.0035 J0.0311
G1 X3.5579 Y0.0252
G3 X3.5595 Y0.0252 I0 J0.0312
G3 X3.5834 Y0.0313 I-0.0033 J0.0631
G3 X3.6033 Y0.0457 I-0.0292 J0.0614
G3 X3.6169 Y0.0664 I-0.0492 J0.0469
G3 X3.6218 Y0.0907 I-0.0582 J0.0244
G1 X3.6215 Y0.1691
G3 X3.6215 Y0.1704 I-0.0312 J-0.0001
G3 X3.6175 Y0.2 I-0.1624 J-0.007
G3 X3.608 Y0.2288 I-0.1643 J-0.038
G3 X3.5936 Y0.2554 I-0.155 J-0.0669
G3 X3.5745 Y0.279 I-0.1358 J-0.0903
G2 X3.5656 Y0.2899 I0.0508 J0.0507
G2 X3.5587 Y0.3028 I0.063 J0.0419
G2 X3.5544 Y0.3168 I0.0694 J0.0288
G2 X3.5531 Y0.3306 I0.0686 J0.0138
G2 X3.555 Y0.3484 I0.0889 J-0.0005
G2 X3.5606 Y0.3662 I0.0932 J-0.0196
G2 X3.5695 Y0.3825 I0.0883 J-0.0377
G2 X3.5814 Y0.3967 I0.0758 J-0.0516
G3 X3.5974 Y0.416 I-0.0979 J0.0975
G3 X3.6098 Y0.4381 I-0.1158 J0.0794
G3 X3.6181 Y0.4623 I-0.127 J0.0568
G3 X3.6216 Y0.4873 I-0.1295 J0.0312
G3 X3.6217 Y0.4887 I-0.0312 J0.0015
G1 X3.6217 Y0.6996
G3 X3.6218 Y0.7014 I-0.1256 J0.0018
G3 X3.6183 Y0.7305 I-0.1256 J0
G3 X3.6073 Y0.7607 I-0.1359 J-0.0323
G3 X3.5913 Y0.786 I-0.1337 J-0.0669
G3 X3.5709 Y0.8076 I-0.126 J-0.0988
G2 X3.5599 Y0.8185 I0.9224 J0.9434
G2 X3.5569 Y0.8215 I3.8048 J3.8012
G1 Z-0.01 F30
G2 X3.5364 Y0.8422 I3.8078 J3.7982 F60
G3 X3.5128 Y0.8658 I-2.3225 J-2.2917
G1 Z-0.016 F30
G3 X3.4962 Y0.8822 I-2.2989 J-2.3153 F60
G3 X3.475 Y0.9022 I-0.5859 J-0.5985
G3 X3.4738 Y0.9032 I-0.0211 J-0.0231
G3 X3.4446 Y0.9226 I-0.1076 J-0.1308
G3 X3.4109 Y0.9362 I-0.0859 J-0.1646
G3 X3.3771 Y0.9429 I-0.055 J-0.1875
G3 X3.3428 Y0.9438 I-0.0224 J-0.2052
G1 X3.1105 Y0.9433
G3 X3.1085 Y0.9432 I0.0001 J-0.0312
G3 X3.052 Y0.9307 I0.0124 J-0.1904
G3 X2.9999 Y0.9012 I0.0748 J-0.1928
G3 X2.9585 Y0.8581 I0.1269 J-0.1633
G3 X2.9325 Y0.8068 I0.1555 J-0.111
G3 X2.9281 Y0.792 I0.1818 J-0.0623
G3 X2.9248 Y0.7765 I0.1954 J-0.0497
G3 X2.9227 Y0.7613 I0.2035 J-0.0351
G3 X2.9218 Y0.7457 I0.2144 J-0.0207
G1 X2.9218 Y0.745
G1 X2.9218 Y0.7449
G0 Z0.125
G0 X2.9155 Y1.6887
G1 Z-0.016 F30
G1 X2.9156 Y1.4834 F60
G1 Z-0.01 F30
G1 X2.9156 Y1.4209 F60
G1 Z-0.016 F30
G1 X2.9157 Y1.0264 F60
G3 X2.916 Y1.022 I0.0312 J0
G3 X2.9224 Y1.0024 I0.0601 J0.0085
G3 X2.9348 Y0.9859 I0.056 J0.0293
G3 X2.9519 Y0.9743 I0.0434 J0.0456
G3 X2.972 Y0.969 I0.0252 J0.0549
G3 X2.9747 Y0.9689 I0.0027 J0.0311
G1 X3.1103 Y0.9692
G3 X3.1139 Y0.9694 I-0.0001 J0.0312
G3 X3.1411 Y0.9786 I-0.0082 J0.0691
G3 X3.1628 Y0.9979 I-0.0385 J0.0651
G3 X3.1755 Y1.0234 I-0.0612 J0.0466
G3 X3.1783 Y1.0431 I-0.0692 J0.0197
G3 X3.178 Y1.0494 I-0.0719 J0
G1 X3.1783 Y1.1671
G2 X3.1803 Y1.1736 I0.0189 J-0.0023
G2 X3.1865 Y1.1814 I0.0238 J-0.0124
G2 X3.1952 Y1.1865 I0.0179 J-0.0205
G2 X3.203 Y1.1877 I0.0066 J-0.0186
G3 X3.2042 Y1.1876 I0.0017 J0.0312
G3 X3.2084 Y1.1876 I0.0034 J0.1963
G3 X3.2161 Y1.1877 I-0.0032 J0.7232
G2 X3.2311 Y1.1875 I0.0042 J-0.281
G2 X3.2358 Y1.187 I-0.0017 J-0.0432
G2 X3.2419 Y1.1854 I-0.0041 J-0.0275
G2 X3.2447 Y1.1838 I-0.0038 J-0.0096
G2 X3.249 Y1.1799 I-0.0166 J-0.0227
G2 X3.2624 Y1.1632 I-0.1542 J-0.1381
G3 X3.2703 Y1.1527 I0.4155 J0.301
G3 X3.2746 Y1.1473 I0.1186 J0.0906
G1 X3.2924 Y1.124
G1 Z-0.01 F30
G1 X3.3304 Y1.0744 F60
G1 Z-0.016 F30
G1 X3.3805 Y1.0089 F60
G3 X3.3914 Y0.995 I0.0713 J0.0446
G3 X3.4068 Y0.9823 I0.0628 J0.0608
G3 X3.4245 Y0.9735 I0.0475 J0.0735
G3 X3.4437 Y0.9691 I0.0286 J0.0792
G3 X3.4472 Y0.9689 I0.0035 J0.0311
G1 X3.5516 Y0.969
G3 X3.5532 Y0.969 I0 J0.0312
G3 X3.5771 Y0.9751 I-0.0033 J0.0631
G3 X3.5971 Y0.9895 I-0.0292 J0.0614
G3 X3.6105 Y1.0102 I-0.0492 J0.0469
G3 X3.6154 Y1.0345 I-0.0583 J0.0244
G1 X3.6153 Y1.1124
G3 X3.6153 Y1.1135 I-0.0312 J-0.0001
G3 X3.6113 Y1.1433 I-0.1624 J-0.0063
G3 X3.6019 Y1.1723 I-0.1645 J-0.0375
G3 X3.5874 Y1.1991 I-0.1552 J-0.0666
G3 X3.5682 Y1.2228 I-0.1359 J-0.0902
G2 X3.5593 Y1.2337 I0.0508 J0.0507
G2 X3.5524 Y1.2466 I0.0629 J0.0419
G2 X3.5481 Y1.2606 I0.0694 J0.0288
G2 X3.5468 Y1.2745 I0.0689 J0.0139
G2 X3.5486 Y1.2922 I0.0883 J-0.0004
G2 X3.5543 Y1.31 I0.093 J-0.0195
G2 X3.5632 Y1.3263 I0.0882 J-0.0377
G2 X3.5751 Y1.3405 I0.0757 J-0.0516
G3 X3.5925 Y1.3623 I-0.0887 J0.0884
G3 X3.6048 Y1.3877 I-0.1099 J0.0689
G3 X3.6121 Y1.4171 I-0.1471 J0.0524
G3 X3.6152 Y1.4556 I-0.2775 J0.0413
G3 X3.6154 Y1.4908 I-4.422 J0.0451
G3 X3.6155 Y1.5641 I-32.8421 J0.0733
G3 X3.6155 Y1.5866 I-32.8422 J0
G2 X3.6155 Y1.6247 I103.8627 J0.0713
G2 X3.6154 Y1.6332 I26.5583 J0.0085
G2 X3.6154 Y1.6436 I26.5583 J0
G3 X3.6155 Y1.6448 I-0.1284 J0.0012
G3 X3.6122 Y1.6734 I-0.1284 J0
G3 X3.602 Y1.7026 I-0.136 J-0.0312
G3 X3.5866 Y1.7278 I-0.1312 J-0.0629
G3 X3.5671 Y1.7489 I-0.1187 J-0.0903
G1 X3.5411 Y1.7746
G1 Z-0.01 F30
G1 X3.4968 Y1.8186 F60
G1 Z-0.016 F30
G1 X3.4723 Y1.8429 F60
G3 X3.4706 Y1.8444 I-0.022 J-0.0222
G3 X3.4421 Y1.8643 I-0.1129 J-0.1319
G3 X3.4093 Y1.8785 I-0.0898 J-0.1617
G3 X3.3753 Y1.8862 I-0.0585 J-0.1803
G3 X3.3413 Y1.8876 I-0.0246 J-0.1889
G1 X3.1212 Y1.8876
G3 X3.046 Y1.8748 I-0.0074 J-0.1835
G3 X2.9775 Y1.8307 I0.078 J-0.1965
G3 X2.9307 Y1.7637 I0.1453 J-0.1512
G3 X2.9155 Y1.691 I0.1658 J-0.0727
G3 X2.9155 Y1.6887 I0.181 J0
G0 Z0.125
G0 X0.7138 Y1.8938
G1 Z-0.016 F30
G1 X0.5629 Y1.8938 F60
G1 Z-0.01 F30
G1 X0.5004 Y1.8938 F60
G1 Z-0.016 F30
G1 X0.0637 Y1.8938 F60
G3 X0.0325 Y1.8626 I0 J-0.0312
G1 X0.0325 Y1.6501
G3 X0.0637 Y1.6188 I0.0313 J0
G1 X0.2575 Y1.6188
G1 X0.2575 Y1.3382
G1 Z-0.01 F30
G1 X0.2575 Y1.2757 F60
G1 Z-0.016 F30
G1 X0.2575 Y1.0001 F60
G3 X0.2888 Y0.9688 I0.0313 J0
G1 X0.4888 Y0.9688
G3 X0.52 Y1.0001 I0 J0.0313
G1 X0.52 Y1.2774
G1 Z-0.01 F30
G1 X0.52 Y1.3399 F60
G1 Z-0.016 F30
G1 X0.52 Y1.6188 F60
G1 X0.7138 Y1.6188
G3 X0.745 Y1.6501 I0 J0.0313
G1 X0.745 Y1.8626
G3 X0.7138 Y1.8938 I-0.0312 J0
G0 Z0.125
G0 X0.7138 Y3.7759
G1 Z-0.016 F30
G1 X0.0637 Y3.7759 F60
G3 X0.0325 Y3.7447 I0 J-0.0312
G1 X0.0325 Y3.5322
G3 X0.0637 Y3.5009 I0.0313 J0
G1 X0.1164 Y3.5009
G1 Z-0.01 F30
G1 X0.1789 Y3.5009 F60
G1 Z-0.016 F30
G1 X0.2575 Y3.5009 F60
G1 X0.2575 Y2.8822
G3 X0.2888 Y2.8509 I0.0313 J0
G1 X0.4888 Y2.8509
G3 X0.52 Y2.8822 I0 J0.0313
G1 X0.52 Y3.5009
G1 X0.5651 Y3.5009
G1 Z-0.01 F30
G1 X0.6276 Y3.5009 F60
G1 Z-0.016 F30
G1 X0.7138 Y3.5009 F60
G3 X0.745 Y3.5322 I0 J0.0313
G1 X0.745 Y3.7447
G3 X0.7138 Y3.7759 I-0.0312 J0
G0 Z0.125
G0 X0.7582 Y1.6792
G1 Z-0.016 F30
G1 X0.758 Y1.3454 F60
G1 Z-0.01 F30
G1 X0.758 Y1.2829 F60
G1 Z-0.016 F30
G1 X0.7579 Y1.1686 F60
G3 X0.7579 Y1.1664 I0.1826 J-0.0022
G3 X0.7713 Y1.0976 I0.1826 J0
G3 X0.8125 Y1.0335 I0.193 J0.0784
G3 X0.8734 Y0.9884 I0.154 J0.1446
G3 X0.9432 Y0.9697 I0.0828 J0.1688
G3 X0.9453 Y0.9696 I0.0022 J0.0312
G3 X1.008 Y0.9695 I0.075 J24.2517
G3 X1.1329 Y0.9695 I0.0486 J96.2347
G2 X1.2272 Y0.9695 I0.0979 J-123.5803
G2 X1.2735 Y0.9695 I0.0009 J-29.884
G3 X1.2746 Y0.9695 I0 J0.0312
G3 X1.3561 Y0.9904 I-0.0066 J0.1952
G3 X1.4275 Y1.0462 I-0.1055 J0.2088
G3 X1.4727 Y1.1249 I-0.1795 J0.1553
G3 X1.4837 Y1.1914 I-0.1952 J0.0665
G3 X1.483 Y1.2085 I-0.2062 J0
G1 X1.4824 Y1.6783
G3 X1.4823 Y1.6801 I-0.0312 J0
G3 X1.4643 Y1.7548 I-0.214 J-0.0121
G3 X1.4197 Y1.8219 I-0.2181 J-0.0968
G3 X1.4182 Y1.8235 I-0.1735 J-0.1637
G1 Z-0.01 F30
G3 X1.3695 Y1.8624 I-0.172 J-0.1654 F60
G1 Z-0.016 F30
G3 X1.3554 Y1.8702 I-0.1233 J-0.2042 F60
G3 X1.2817 Y1.8926 I-0.098 J-0.1905
G3 X1.2804 Y1.8927 I-0.0036 J-0.031
G3 X1.2447 Y1.8943 I-0.0471 J-0.6556
G3 X1.1757 Y1.8946 I-0.044 J-2.544
G2 X1.1354 Y1.8943 I-0.0414 J4.198
G2 X1.1157 Y1.8945 I-0.0003 J1.0233
G3 X1.1145 Y1.8945 I-0.0006 J-0.0312
G2 X1.0958 Y1.8943 I-0.0185 J0.8871
G2 X1.0573 Y1.8946 I0.0009 J3.6553
G3 X0.9912 Y1.8943 I-0.0239 J-2.2184
G3 X0.9568 Y1.8926 I0.011 J-0.5754
G3 X0.9551 Y1.8924 I0.0025 J-0.0312
G3 X0.8828 Y1.8692 I0.0286 J-0.2137
G3 X0.8199 Y1.8211 I0.1118 J-0.2111
G3 X0.7762 Y1.7549 I0.1744 J-0.1626
G3 X0.7583 Y1.6811 I0.1963 J-0.0868
G3 X0.7582 Y1.6792 I0.0312 J-0.0019
G0 Z0.125
G0 X0.7582 Y3.5613
G1 Z-0.016 F30
G1 X0.7581 Y3.3151 F60
G1 Z-0.01 F30
G1 X0.758 Y3.2526 F60
G1 Z-0.016 F30
G1 X0.7579 Y3.0507 F60
G3 X0.7579 Y3.0485 I0.1826 J-0.0022
G3 X0.7713 Y2.9797 I0.1826 J0
G3 X0.8125 Y2.9156 I0.193 J0.0784
G3 X0.8734 Y2.8705 I0.1539 J0.1445
G3 X0.9432 Y2.8518 I0.0827 J0.1687
G3 X0.9453 Y2.8517 I0.0022 J0.0312
G3 X1.0081 Y2.8516 I0.075 J24.2518
G3 X1.1332 Y2.8516 I0.0483 J96.233
G2 X1.2273 Y2.8516 I0.099 J-123.9897
G2 X1.2735 Y2.8516 I0.0012 J-29.9848
G3 X1.2747 Y2.8516 I0 J0.0312
G3 X1.3563 Y2.8727 I-0.0074 J0.1971
G3 X1.3786 Y2.8855 I-0.1053 J0.2084
G1 Z-0.01 F30
G3 X1.4257 Y2.9263 I-0.1276 J0.1956 F60
G1 Z-0.016 F30
G3 X1.4275 Y2.9283 I-0.1748 J0.1549 F60
G3 X1.4726 Y3.0068 I-0.1787 J0.1548
G3 X1.4836 Y3.0736 I-0.1962 J0.0668
G3 X1.483 Y3.0905 I-0.2073 J0
G1 X1.4826 Y3.5559
G3 X1.4826 Y3.557 I-0.0312 J0
G3 X1.4663 Y3.6322 I-0.2139 J-0.0071
G3 X1.4231 Y3.7002 I-0.2201 J-0.0918
G3 X1.3598 Y3.75 I-0.1771 J-0.1599
G3 X1.2867 Y3.774 I-0.1021 J-0.1883
G3 X1.2856 Y3.7741 I-0.0042 J-0.031
G3 X1.2523 Y3.7762 I-0.0443 J-0.4324
G3 X1.1889 Y3.7766 I-0.0414 J-1.6508
G2 X1.1532 Y3.7764 I-0.0368 J2.7655
G2 X1.136 Y3.7766 I-0.0003 J0.6651
G3 X1.1347 Y3.7766 I-0.0008 J-0.0312
G2 X1.1135 Y3.7764 I-0.0209 J1.3102
G2 X1.0701 Y3.7766 I0.0013 J5.3486
G3 X0.9971 Y3.7764 I-0.0273 J-3.2683
G3 X0.9596 Y3.775 I0.0117 J-0.8371
G3 X0.9577 Y3.7749 I0.0018 J-0.0312
G3 X0.8846 Y3.7523 I0.026 J-0.2135
G3 X0.8208 Y3.7041 I0.11 J-0.2121
G3 X0.7765 Y3.6375 I0.1736 J-0.1637
G3 X0.7583 Y3.5632 I0.1959 J-0.0873
G3 X0.7582 Y3.5613 I0.0312 J-0.0019
G0 Z0.125
G0 X1.4893 Y2.1467
G1 Z-0.016 F30
G1 X1.4892 Y2.58 F60
G3 X1.4895 Y2.5944 I-0.3123 J0.0143
G3 X1.4889 Y2.6136 I-0.3126 J0
G3 X1.4851 Y2.6449 I-0.258 J-0.0159
G3 X1.476 Y2.6791 I-0.2305 J-0.0428
G3 X1.4628 Y2.709 I-0.19 J-0.0661
G3 X1.4439 Y2.7394 I-0.1949 J-0.0999
G1 Z-0.01 F30
G3 X1.4261 Y2.7605 I-0.176 J-0.1303 F60
G3 X1.4002 Y2.7839 I-0.1709 J-0.1635
G1 Z-0.016 F30
G3 X1.3745 Y2.8012 I-0.145 J-0.1869 F60
G3 X1.3137 Y2.8262 I-0.1192 J-0.2042
G3 X1.2511 Y2.8328 I-0.054 J-0.2118
G1 X1.0765 Y2.8328
G3 X1.0753 Y2.8327 I0 J-0.0312
G2 X1.0623 Y2.8325 I-0.0128 J0.3332
G2 X1.0345 Y2.8328 I0.0006 J1.4412
G3 X0.9793 Y2.832 I-0.016 J-0.8121
G3 X0.9485 Y2.8284 I0.0109 J-0.2258
G3 X0.8803 Y2.8027 I0.041 J-0.2124
G3 X0.8404 Y2.7734 I0.1204 J-0.2057
G1 Z-0.01 F30
G3 X0.8217 Y2.7544 I0.1603 J-0.1764 F60
G3 X0.8001 Y2.7258 I0.1786 J-0.1572
G1 Z-0.016 F30
G3 X0.7813 Y2.6901 I0.2002 J-0.1286 F60
G3 X0.7646 Y2.6192 I0.1983 J-0.0841
G3 X0.7645 Y2.6173 I0.0312 J-0.0019
G1 X0.7642 Y2.195
G1 X0.7642 Y2.195
G1 X0.7642 Y2.194
G2 X0.7644 Y2.181 I-0.429 J-0.013
G1 X0.7644 Y2.1809
G2 X0.7642 Y2.1529 I-1.8219 J0.0008
G3 X0.7641 Y2.135 I1.1313 J-0.0179
G3 X0.7645 Y2.1039 I1.1315 J0
G3 X0.7664 Y2.0775 I0.3042 J0.0084
G3 X0.7665 Y2.0762 I0.031 J0.0036
G3 X0.788 Y2.0138 I0.1877 J0.0298
G3 X0.8306 Y1.96 I0.1834 J0.1016
G3 X0.8884 Y1.9229 I0.1407 J0.1553
G3 X0.9525 Y1.9077 I0.0752 J0.1744
G3 X0.9544 Y1.9077 I0.0018 J0.0312
G1 X1.2775 Y1.9078
G3 X1.2786 Y1.9078 I0 J0.0312
G3 X1.3616 Y1.9289 I-0.0073 J0.2029
G3 X1.4334 Y1.9843 I-0.1038 J0.2088
G3 X1.4788 Y2.0628 I-0.177 J0.1546
G3 X1.4899 Y2.1299 I-0.1959 J0.0671
G3 X1.4893 Y2.1467 I-0.2071 J0
G0 Z0.125
G0 X1.4893 Y0.2646
G1 Z-0.016 F30
G1 X1.4892 Y0.6979 F60
G3 X1.4895 Y0.7122 I-0.3125 J0.0143
G3 X1.4889 Y0.7315 I-0.3128 J0
G3 X1.4851 Y0.7628 I-0.2581 J-0.0159
G3 X1.476 Y0.797 I-0.2305 J-0.0429
G3 X1.4628 Y0.8269 I-0.1901 J-0.0661
G3 X1.4261 Y0.8784 I-0.195 J-0.1001
G3 X1.3745 Y0.9191 I-0.171 J-0.1636
G3 X1.3137 Y0.9441 I-0.1192 J-0.2041
G3 X1.2511 Y0.9507 I-0.054 J-0.2116
G1 X1.0767 Y0.9507
G3 X1.0755 Y0.9506 I0 J-0.0312
G2 X1.0625 Y0.9504 I-0.0129 J0.3291
G2 X1.0345 Y0.9507 I0.0006 J1.425
G3 X0.9793 Y0.9499 I-0.0162 J-0.8082
G3 X0.9485 Y0.9463 I0.0109 J-0.2247
G3 X0.8803 Y0.9206 I0.0411 J-0.2125
G3 X0.8559 Y0.9042 I0.1204 J-0.2058
G1 Z-0.01 F30
G3 X0.8217 Y0.8723 I0.1447 J-0.1894 F60
G3 X0.8118 Y0.8603 I0.1786 J-0.1572
G1 Z-0.016 F30
G3 X0.7813 Y0.808 I0.1886 J-0.1452 F60
G3 X0.7646 Y0.7371 I0.1983 J-0.0841
G3 X0.7645 Y0.7352 I0.0312 J-0.0019
G1 X0.7642 Y0.3233
G1 X0.7642 Y0.3233
G1 X0.7642 Y0.3225
G2 X0.7644 Y0.3082 I-0.5805 J-0.0143
G1 X0.7644 Y0.3081
G2 X0.7642 Y0.2775 I-2.4284 J0.0008
G3 X0.7641 Y0.258 I1.5158 J-0.0196
G3 X0.7644 Y0.2256 I1.5159 J0
G3 X0.766 Y0.1981 I0.3997 J0.0085
G3 X0.7662 Y0.1964 I0.0311 J0.0028
G3 X0.7871 Y0.1333 I0.1879 J0.0275
G3 X0.8298 Y0.0788 I0.1844 J0.1
G3 X0.8879 Y0.041 I0.1416 J0.1545
G3 X0.9525 Y0.0256 I0.0755 J0.1738
G3 X0.9544 Y0.0256 I0.0018 J0.0312
G2 X1.0442 Y0.0257 I0.1263 J-68.7747
G2 X1.2223 Y0.0257 I0.1434 J-270.4523
G3 X1.2608 Y0.0257 I0.1544 J1201.4456
G3 X1.2799 Y0.0257 I0.0285 J295.8819
G3 X1.2809 Y0.0257 I0 J0.0312
G3 X1.3623 Y0.0465 I-0.0064 J0.1945
G3 X1.3989 Y0.0695 I-0.1056 J0.209
G1 Z-0.01 F30
G3 X1.4338 Y0.1023 I-0.1423 J0.186 F60
G3 X1.443 Y0.1136 I-0.1797 J0.1555
G1 Z-0.016 F30
G3 X1.479 Y0.1812 I-0.1889 J0.1442 F60
G3 X1.49 Y0.2474 I-0.1945 J0.0663
G3 X1.4893 Y0.2646 I-0.2054 J0

(profile_inside)
G0 Z0.125
G0 X1.0332 Y2.4817
G1 Z-0.016 F30
G1 X1.033 Y2.2716 F60
G3 X1.0349 Y2.2598 I0.0877 J0.008
G3 X1.039 Y2.2468 I0.0911 J0.0211
G3 X1.0448 Y2.2345 I0.0886 J0.0347
G3 X1.0525 Y2.2229 I0.0824 J0.0467
G3 X1.072 Y2.2041 I0.0684 J0.0513
G3 X1.0985 Y2.1911 I0.0562 J0.0807
G3 X1.1277 Y2.1865 I0.0297 J0.0938
G3 X1.1545 Y2.1906 I0.0005 J0.0858
G1 X1.1552 Y2.1908
G3 X1.1785 Y2.2017 I-0.025 J0.0838
G3 X1.1991 Y2.22 I-0.0541 J0.0819
G3 X1.2138 Y2.2433 I-0.0745 J0.0633
G3 X1.2205 Y2.2662 I-0.0789 J0.0354
G1 X1.2205 Y2.4752
G3 X1.2189 Y2.4855 I-0.0938 J-0.0093
G3 X1.2157 Y2.4968 I-0.0926 J-0.0197
G3 X1.2112 Y2.5077 I-0.0885 J-0.0307
G3 X1.2054 Y2.5176 I-0.0804 J-0.0398
G1 X1.2051 Y2.5182
G3 X1.1869 Y2.5386 I-0.0719 J-0.0458
G3 X1.1611 Y2.5536 I-0.0619 J-0.0763
G3 X1.132 Y2.5603 I-0.0362 J-0.0916
G3 X1.1047 Y2.5579 I-0.0062 J-0.0855
G1 X1.104 Y2.5577
G3 X1.0791 Y2.5478 I0.0193 J-0.0846
G3 X1.0566 Y2.5295 I0.0501 J-0.0847
G3 X1.0404 Y2.5054 I0.072 J-0.0658
G3 X1.0332 Y2.4817 I0.0765 J-0.0362
G0 Z0.125
G0 X1.214 Y3.209
G1 Z-0.016 F30
G1 X1.2141 Y3.4191 F60
G3 X1.2126 Y3.4293 I-0.0879 J-0.0082
G3 X1.2094 Y3.4408 I-0.0916 J-0.0195
G3 X1.2048 Y3.4517 I-0.0896 J-0.0314
G3 X1.1986 Y3.4623 I-0.0843 J-0.042
G3 X1.1802 Y3.4827 I-0.0718 J-0.0462
G3 X1.1543 Y3.4977 I-0.0616 J-0.0768
G3 X1.125 Y3.5041 I-0.0356 J-0.0918
G3 X1.0977 Y3.5015 I-0.0055 J-0.0852
G1 X1.0969 Y3.5013
G3 X1.0722 Y3.4913 I0.0199 J-0.0842
G3 X1.05 Y3.473 I0.0505 J-0.0842
G3 X1.034 Y3.449 I0.0724 J-0.0656
G3 X1.0269 Y3.4255 I0.0772 J-0.0364
G1 X1.0267 Y3.2321
G2 X1.0266 Y3.2299 I-0.0312 J0
G3 X1.0264 Y3.2237 I0.0885 J-0.0062
G3 X1.027 Y3.2135 I0.0887 J0
G3 X1.0305 Y3.1968 I0.0926 J0.0107
G3 X1.0369 Y3.1811 I0.0894 J0.0274
G3 X1.0458 Y3.1672 I0.0795 J0.0414
G1 X1.0462 Y3.1667
G3 X1.0655 Y3.148 I0.0682 J0.0512
G3 X1.0918 Y3.135 I0.0563 J0.0804
G3 X1.1208 Y3.1303 I0.0302 J0.0939
G3 X1.1475 Y3.1342 I0.0011 J0.0866
G1 X1.1481 Y3.1343
G3 X1.1715 Y3.145 I-0.0244 J0.0843
G3 X1.1923 Y3.1632 I-0.0535 J0.0824
G3 X1.2072 Y3.1864 I-0.0738 J0.0639
G3 X1.214 Y3.209 I-0.0784 J0.0359
G0 Z0.125
G0 X1.0269 Y1.5434
G1 Z-0.016 F30
G1 X1.0267 Y1.3334 F60
G3 X1.0286 Y1.3215 I0.0895 J0.0084
G3 X1.0326 Y1.3085 I0.0916 J0.0212
G3 X1.0385 Y1.2962 I0.0883 J0.0345
G3 X1.0459 Y1.2851 I0.0811 J0.046
G1 X1.0462 Y1.2846
G3 X1.0657 Y1.2658 I0.0682 J0.0511
G3 X1.0922 Y1.2528 I0.0562 J0.0805
G3 X1.1214 Y1.2482 I0.0298 J0.094
G3 X1.1483 Y1.2523 I0.0005 J0.0862
G1 X1.1489 Y1.2525
G3 X1.172 Y1.2633 I-0.0251 J0.084
G3 X1.1925 Y1.2814 I-0.0539 J0.0819
G3 X1.2073 Y1.3044 I-0.0741 J0.0636
G3 X1.214 Y1.3269 I-0.0787 J0.0359
G1 X1.2142 Y1.5369
G3 X1.2125 Y1.5475 I-0.0903 J-0.0086
G3 X1.2092 Y1.5591 I-0.0918 J-0.0198
G3 X1.2045 Y1.5702 I-0.089 J-0.0316
G3 X1.1984 Y1.5804 I-0.0831 J-0.0421
G1 X1.1981 Y1.5809
G3 X1.1796 Y1.6011 I-0.0711 J-0.0465
G3 X1.1535 Y1.6158 I-0.0609 J-0.0772
G3 X1.1242 Y1.6221 I-0.0349 J-0.0923
G3 X1.0969 Y1.6192 I-0.0048 J-0.0856
G1 X1.0961 Y1.619
G3 X1.0717 Y1.6088 I0.0208 J-0.0843
G3 X1.0497 Y1.5906 I0.0511 J-0.0839
G3 X1.034 Y1.5668 I0.0727 J-0.0653
G3 X1.0269 Y1.5434 I0.0774 J-0.0363
G0 Z0.125
G0 X1.2205 Y0.3841
G1 Z-0.016 F30
G1 X1.2205 Y0.5931 F60
G3 X1.2189 Y0.6032 I-0.0939 J-0.0093
G3 X1.2158 Y0.6144 I-0.0929 J-0.0196
G3 X1.2114 Y0.6251 I-0.089 J-0.0305
G3 X1.2058 Y0.6349 I-0.0814 J-0.0396
G1 X1.2055 Y0.6355
G3 X1.1874 Y0.6561 I-0.0722 J-0.0452
G3 X1.1615 Y0.6714 I-0.0624 J-0.076
G3 X1.1321 Y0.6782 I-0.0366 J-0.0915
G3 X1.1047 Y0.6758 I-0.0063 J-0.0853
G1 X1.1039 Y0.6756
G3 X1.079 Y0.6657 I0.0193 J-0.0845
G3 X1.0565 Y0.6474 I0.0501 J-0.0846
G3 X1.0404 Y0.6233 I0.072 J-0.0658
G3 X1.0332 Y0.5997 I0.0765 J-0.0362
G1 X1.033 Y0.4062
G2 X1.0329 Y0.404 I-0.0312 J0
G3 X1.0327 Y0.3977 I0.088 J-0.0063
G3 X1.0333 Y0.3874 I0.0882 J0
G3 X1.0369 Y0.3706 I0.0925 J0.0109
G3 X1.0435 Y0.3547 I0.0894 J0.0278
G3 X1.0526 Y0.3407 I0.0795 J0.0419
G1 X1.053 Y0.3402
G3 X1.0726 Y0.3216 I0.0677 J0.0517
G3 X1.0993 Y0.3087 I0.0555 J0.081
G3 X1.1285 Y0.3044 I0.029 J0.0943
G3 X1.1553 Y0.3088 I-0.0002 J0.0862
G1 X1.156 Y0.309
G3 X1.179 Y0.3199 I-0.0256 J0.0834
G3 X1.1994 Y0.3382 I-0.0545 J0.0814
G3 X1.2139 Y0.3614 I-0.0748 J0.063
G3 X1.2205 Y0.3841 I-0.0793 J0.0353
G0 Z0.125
G0 X3.2205 Y3.3414
G1 Z-0.016 F30
G3 X3.2533 Y3.3265 I0.0546 J0.0767 F60
G3 X3.285 Y3.3257 I0.0177 J0.0747
G2 X3.2865 Y3.3259 I0.0057 J-0.0307
G3 X3.3162 Y3.3364 I-0.0104 J0.0765
G3 X3.3426 Y3.3604 I-0.0489 J0.0805
G3 X3.3582 Y3.3925 I-0.0751 J0.0564
G3 X3.3608 Y3.4123 I-0.0741 J0.0199
G3 X3.36 Y3.4238 I-0.0767 J0
G2 X3.3598 Y3.4253 I0.0309 J0.0047
G3 X3.3503 Y3.4553 I-0.0765 J-0.0078
G3 X3.3272 Y3.4825 I-0.082 J-0.0462
G3 X3.2956 Y3.4991 I-0.0588 J-0.0733
G3 X3.2643 Y3.5019 I-0.0222 J-0.0734
G2 X3.2627 Y3.5017 I-0.0037 J0.031
G3 X3.2326 Y3.4932 I0.0052 J-0.0766
G3 X3.2047 Y3.4711 I0.0432 J-0.0833
G3 X3.187 Y3.4402 I0.0713 J-0.0613
G3 X3.1829 Y3.4153 I0.0729 J-0.0249
G3 X3.1831 Y3.4097 I0.0771 J0
G1 X3.1846 Y3.3967
G3 X3.1956 Y3.3675 I0.0755 J0.0118
G3 X3.2205 Y3.3414 I0.0793 J0.0504
G0 Z0.125
G0 X3.3444 Y2.4106
G1 Z-0.016 F30
G3 X3.3582 Y2.4316 I-0.0687 J0.0601 F60
G3 X3.3657 Y2.4555 I-0.0831 J0.0394
G3 X3.3669 Y2.4693 I-0.0808 J0.0138
G3 X3.3663 Y2.4789 I-0.0819 J0
G1 X3.3663 Y2.4794
G3 X3.3616 Y2.4998 I-0.0828 J-0.0083
G3 X3.3514 Y2.5196 I-0.0855 J-0.0315
G3 X3.3368 Y2.5363 I-0.0752 J-0.0511
G3 X3.3196 Y2.5481 I-0.0549 J-0.0615
G1 X3.319 Y2.5484
G3 X3.2983 Y2.5561 I-0.0387 J-0.072
G3 X3.2747 Y2.5583 I-0.0201 J-0.089
G3 X3.2513 Y2.5543 I0.0035 J-0.0912
G3 X3.2313 Y2.545 I0.0241 J-0.0783
G1 X3.2307 Y2.5446
G3 X3.2132 Y2.5303 I0.0422 J-0.0691
G3 X3.1993 Y2.5104 I0.0672 J-0.0618
G3 X3.1911 Y2.4875 I0.0817 J-0.0422
G3 X3.1893 Y2.4702 I0.0808 J-0.0173
G3 X3.1895 Y2.4644 I0.0826 J0
G3 X3.1933 Y2.4432 I0.0841 J0.0044
G3 X3.2028 Y2.4227 I0.0869 J0.0277
G3 X3.2172 Y2.4051 I0.0769 J0.048
G3 X3.2344 Y2.3925 I0.0569 J0.0596
G1 X3.2349 Y2.3922
G3 X3.2563 Y2.3836 I0.0406 J0.0702
G3 X3.2809 Y2.381 I0.0217 J0.0888
G3 X3.3054 Y2.3852 I-0.003 J0.0914
G3 X3.3261 Y2.3951 I-0.0243 J0.0774
G1 X3.3268 Y2.3956
G3 X3.3444 Y2.4106 I-0.0428 J0.0679
G0 Z0.125
G0 X3.338 Y1.4722
G1 Z-0.016 F30
G3 X3.3518 Y1.4931 I-0.0688 J0.0604 F60
G3 X3.3594 Y1.5168 I-0.083 J0.0397
G3 X3.3606 Y1.5311 I-0.0807 J0.0142
G3 X3.3601 Y1.5405 I-0.082 J0
G3 X3.3553 Y1.5615 I-0.0831 J-0.008
G3 X3.3447 Y1.5819 I-0.0859 J-0.0319
G3 X3.3293 Y1.599 I-0.0748 J-0.0519
G3 X3.3114 Y1.6107 I-0.0533 J-0.0618
G1 X3.3107 Y1.611
G3 X3.2896 Y1.6183 I-0.0368 J-0.0723
G3 X3.2656 Y1.6198 I-0.0176 J-0.0895
G3 X3.242 Y1.6149 I0.0065 J-0.0916
G3 X3.2215 Y1.6045 I0.0271 J-0.0781
G3 X3.2051 Y1.5899 I0.046 J-0.0685
G3 X3.1922 Y1.5705 I0.0693 J-0.0599
G3 X3.1846 Y1.5483 I0.0822 J-0.0404
G3 X3.183 Y1.5318 I0.081 J-0.0165
G3 X3.1831 Y1.5268 I0.0827 J0
G1 X3.1834 Y1.5235
G3 X3.1882 Y1.5013 I0.081 J0.006
G3 X3.1998 Y1.4796 I0.0858 J0.0318
G3 X3.2166 Y1.4618 I0.0746 J0.0536
G3 X3.2366 Y1.4499 I0.0516 J0.0639
G3 X3.2569 Y1.4439 I0.0338 J0.0767
G3 X3.2792 Y1.443 I0.0147 J0.0903
G3 X3.3011 Y1.4476 I-0.0075 J0.0905
G3 X3.3199 Y1.4568 I-0.0265 J0.0774
G1 X3.3205 Y1.4572
G3 X3.338 Y1.4722 I-0.0432 J0.0683
G0 Z0.125
G0 X0.4608 Y2.4226
G1 Z-0.016 F30
G3 X0.4747 Y2.4433 I-0.0684 J0.0608 F60
G3 X0.4825 Y2.467 I-0.0826 J0.0402
G3 X0.4838 Y2.4817 I-0.0804 J0.0146
G3 X0.4834 Y2.4902 I-0.0817 J0
G1 X0.4833 Y2.4908
G3 X0.4785 Y2.5123 I-0.0822 J-0.0071
G3 X0.4675 Y2.5332 I-0.0859 J-0.0318
G3 X0.4515 Y2.5506 I-0.0747 J-0.0526
G3 X0.4329 Y2.5623 I-0.0527 J-0.0628
G1 X0.4324 Y2.5626
G3 X0.4112 Y2.5694 I-0.0356 J-0.0741
G3 X0.3875 Y2.5705 I-0.0161 J-0.0901
G3 X0.3643 Y2.5655 I0.0076 J-0.091
G3 X0.3447 Y2.5552 I0.0276 J-0.0771
G1 X0.3442 Y2.5549
G3 X0.328 Y2.5404 I0.0462 J-0.068
G3 X0.3153 Y2.521 I0.0693 J-0.0594
G3 X0.3078 Y2.499 I0.0822 J-0.0401
G3 X0.3062 Y2.4827 I0.081 J-0.0163
G3 X0.3063 Y2.4776 I0.0826 J0
G1 X0.3067 Y2.4737
G3 X0.3116 Y2.4516 I0.0805 J0.0063
G3 X0.3233 Y2.43 I0.0855 J0.0322
G3 X0.3402 Y2.4123 I0.0744 J0.0542
G3 X0.3603 Y2.4004 I0.0516 J0.0646
G3 X0.3804 Y2.3946 I0.0333 J0.0771
G3 X0.4024 Y2.3938 I0.0144 J0.0903
G3 X0.424 Y2.3983 I-0.0075 J0.0905
G3 X0.4426 Y2.4073 I-0.0264 J0.0777
G1 X0.4432 Y2.4077
G3 X0.4608 Y2.4226 I-0.0429 J0.0686
G0 Z0.125
G0 X0.4612 Y0.5409
G1 Z-0.016 F30
G3 X0.475 Y0.5617 I-0.0688 J0.0603 F60
G3 X0.4826 Y0.5855 I-0.0828 J0.0396
G3 X0.4838 Y0.5996 I-0.0803 J0.0141
G3 X0.4833 Y0.6086 I-0.0816 J0
G1 X0.4832 Y0.6092
G3 X0.4783 Y0.6306 I-0.082 J-0.0076
G3 X0.4673 Y0.6513 I-0.0856 J-0.0322
G3 X0.4514 Y0.6686 I-0.0745 J-0.0528
G3 X0.4329 Y0.6802 I-0.0526 J-0.0629
G1 X0.4323 Y0.6805
G3 X0.4113 Y0.6873 I-0.0355 J-0.0738
G3 X0.3875 Y0.6884 I-0.0161 J-0.0899
G3 X0.3644 Y0.6834 I0.0077 J-0.0911
G3 X0.3447 Y0.6731 I0.0277 J-0.0773
G1 X0.3442 Y0.6728
G3 X0.328 Y0.6583 I0.0462 J-0.068
G3 X0.3153 Y0.6389 I0.0693 J-0.0594
G3 X0.3078 Y0.6169 I0.0822 J-0.0401
G3 X0.3062 Y0.6006 I0.081 J-0.0163
G3 X0.3064 Y0.5947 I0.0827 J0
G3 X0.3103 Y0.5734 I0.083 J0.0042
G3 X0.32 Y0.5526 I0.0869 J0.028
G3 X0.3347 Y0.5349 I0.0768 J0.0486
G3 X0.3522 Y0.5224 I0.056 J0.0597
G1 X0.3528 Y0.522
G3 X0.374 Y0.5138 I0.0397 J0.0708
G3 X0.3984 Y0.5114 I0.0209 J0.089
G3 X0.4225 Y0.5156 I-0.0035 J0.0914
G3 X0.443 Y0.5255 I-0.0246 J0.0777
G1 X0.4437 Y0.5259
G3 X0.4612 Y0.5409 I-0.0432 J0.0683
G0 Z0.125
G0 X3.2963 Y0.6744
G1 Z-0.016 F30
G3 X3.2721 Y0.676 I-0.018 J-0.0895 F60
G3 X3.2484 Y0.6712 I0.0062 J-0.0917
G3 X3.2278 Y0.6607 I0.027 J-0.0783
G3 X3.2114 Y0.6462 I0.046 J-0.0684
G3 X3.1985 Y0.6267 I0.0693 J-0.0599
G3 X3.1909 Y0.6045 I0.0823 J-0.0404
G3 X3.1893 Y0.588 I0.0811 J-0.0165
G3 X3.1894 Y0.5831 I0.0827 J0
G1 X3.1901 Y0.576
G3 X3.1956 Y0.5546 I0.0813 J0.0096
G3 X3.2076 Y0.5338 I0.0847 J0.0347
G3 X3.2245 Y0.5167 I0.0727 J0.0555
G3 X3.244 Y0.5057 I0.0498 J0.0648
G1 X3.2446 Y0.5054
G3 X3.2654 Y0.4997 I0.0319 J0.0752
G3 X3.2886 Y0.4995 I0.0123 J0.0903
G3 X3.311 Y0.5052 I-0.0109 J0.0911
G3 X3.3305 Y0.5159 I-0.0303 J0.0777
G3 X3.3467 Y0.5312 I-0.0476 J0.0668
G3 X3.3591 Y0.5516 I-0.0712 J0.0575
G3 X3.3659 Y0.5745 I-0.0838 J0.0372
G3 X3.3669 Y0.5873 I-0.0812 J0.0128
G3 X3.3663 Y0.5973 I-0.0822 J0
G3 X3.3615 Y0.618 I-0.0827 J-0.0083
G3 X3.351 Y0.6381 I-0.0855 J-0.0319
G3 X3.3358 Y0.655 I-0.0746 J-0.0518
G3 X3.3181 Y0.6667 I-0.0536 J-0.0619
G1 X3.3175 Y0.667
G3 X3.2963 Y0.6744 I-0.0371 J-0.0719
G0 Z0.125
M5
M30
