(Generated by PartKam Version 0.05)

G20 G90 G40

(power_tower_outline)
G0 Z0.125
T0 M6
G17
M3
G0 X0.8381 Y0.7963
G1 Z-0.05 F10
G1 X0.8381 Y0.6274 F30
G0 Z0.125
G0 X0.6005 Y0.3837
G1 Z-0.05 F10
G1 X0.3818 Y0.3837 F30
G1 X0.3818 Y0.1899
G1 X0.1819 Y0.1899
G1 X0.1819 Y1.0588
G1 X0.6318 Y1.0588
G0 Z0.125
G0 X0.6006 Y0.3837
G1 Z-0.05 F10
G1 X0.6112 Y0.3862 F30
G1 X0.6219 Y0.3891
G1 X0.6322 Y0.3923
G1 X0.6425 Y0.3958
G1 X0.6527 Y0.3998
G1 X0.6628 Y0.4041
G1 X0.6727 Y0.4089
G1 X0.6825 Y0.4138
G1 X0.6919 Y0.4193
G1 X0.7012 Y0.425
G1 X0.7103 Y0.4309
G1 X0.7192 Y0.4373
G1 X0.7279 Y0.444
G1 X0.7363 Y0.451
G1 X0.7445 Y0.4583
G1 X0.7524 Y0.4658
G1 X0.76 Y0.4736
G1 X0.7674 Y0.4817
G1 X0.7744 Y0.4901
G1 X0.7813 Y0.4986
G1 X0.7877 Y0.5075
G1 X0.7937 Y0.5165
G1 X0.7995 Y0.5259
G1 X0.805 Y0.5353
G1 X0.8102 Y0.545
G1 X0.8149 Y0.5547
G1 X0.8193 Y0.5648
G1 X0.8235 Y0.575
G1 X0.827 Y0.5853
G1 X0.8305 Y0.5956
G1 X0.8333 Y0.6062
G1 X0.8359 Y0.6168
G1 X0.8382 Y0.6274
G0 Z0.125
G0 X0.8381 Y0.7962
G1 Z-0.05 F10
G1 X0.837 Y0.8069 F30
G1 X0.8357 Y0.8174
G1 X0.8338 Y0.8281
G1 X0.8317 Y0.8385
G1 X0.8292 Y0.849
G1 X0.8262 Y0.8594
G1 X0.8229 Y0.8696
G1 X0.8193 Y0.8797
G1 X0.8153 Y0.8895
G1 X0.811 Y0.8994
G1 X0.8063 Y0.9091
G1 X0.8013 Y0.9185
G1 X0.796 Y0.9277
G1 X0.7903 Y0.9368
G1 X0.7842 Y0.9457
G1 X0.7779 Y0.9545
G1 X0.7713 Y0.9628
G1 X0.7643 Y0.9711
G1 X0.7572 Y0.979
G1 X0.7496 Y0.9867
G1 X0.7419 Y0.9941
G1 X0.7339 Y1.0011
G1 X0.7256 Y1.0081
G1 X0.7171 Y1.0145
G1 X0.7084 Y1.0208
G1 X0.6994 Y1.0266
G1 X0.6903 Y1.0323
G1 X0.6809 Y1.0375
G1 X0.6714 Y1.0425
G1 X0.6617 Y1.047
G1 X0.652 Y1.0513
G1 X0.6419 Y1.0552
G1 X0.6317 Y1.0586
G0 Z0.125
G0 X0.3932 Y0.7268
G1 Z-0.05 F10
G1 X0.3931 Y0.7338 F30
G1 X0.3932 Y0.7407
G1 X0.3938 Y0.7476
G1 X0.3949 Y0.7543
G1 X0.3962 Y0.7612
G1 X0.3979 Y0.7678
G1 X0.4001 Y0.7745
G1 X0.4026 Y0.7809
G1 X0.4055 Y0.7872
G1 X0.4089 Y0.7932
G1 X0.4124 Y0.7992
G1 X0.4163 Y0.8049
G1 X0.4206 Y0.8103
G1 X0.4251 Y0.8155
G1 X0.43 Y0.8205
G1 X0.4352 Y0.8251
G1 X0.4405 Y0.8294
G1 X0.4462 Y0.8334
G1 X0.452 Y0.8371
G1 X0.4581 Y0.8404
G1 X0.4644 Y0.8435
G1 X0.4708 Y0.8461
G1 X0.4772 Y0.8483
G1 X0.4839 Y0.8502
G1 X0.4907 Y0.8517
G1 X0.4976 Y0.8528
G1 X0.5044 Y0.8535
G1 X0.5113 Y0.8538
G1 X0.5182 Y0.8537
G1 X0.5251 Y0.8531
G1 X0.532 Y0.8523
G1 X0.5387 Y0.851
G1 X0.5455 Y0.8493
G1 X0.5521 Y0.8473
G1 X0.5585 Y0.8448
G1 X0.5648 Y0.842
G1 X0.571 Y0.8389
G1 X0.5769 Y0.8353
G1 X0.5827 Y0.8314
G1 X0.5882 Y0.8273
G1 X0.5935 Y0.8228
G1 X0.5985 Y0.818
G1 X0.6032 Y0.8129
G1 X0.6076 Y0.8076
G1 X0.6118 Y0.8021
G1 X0.6156 Y0.7963
G1 X0.6189 Y0.7903
G1 X0.622 Y0.7841
G1 X0.6247 Y0.7777
G1 X0.6271 Y0.7712
G1 X0.629 Y0.7645
G1 X0.6306 Y0.7578
G1 X0.6318 Y0.751
G1 X0.6327 Y0.7441
G1 X0.633 Y0.7373
G1 X0.633 Y0.7303
G1 X0.6327 Y0.7234
G1 X0.6318 Y0.7166
G1 X0.6306 Y0.7097
G1 X0.629 Y0.703
G1 X0.6271 Y0.6963
G1 X0.6247 Y0.6898
G1 X0.622 Y0.6835
G1 X0.6189 Y0.6772
G1 X0.6156 Y0.6713
G1 X0.6118 Y0.6655
G1 X0.6076 Y0.6599
G1 X0.6032 Y0.6546
G1 X0.5985 Y0.6496
G1 X0.5935 Y0.6447
G1 X0.5882 Y0.6402
G1 X0.5827 Y0.6361
G1 X0.5769 Y0.6323
G1 X0.571 Y0.6286
G1 X0.5648 Y0.6255
G1 X0.5585 Y0.6228
G1 X0.5521 Y0.6203
G1 X0.5455 Y0.6183
G1 X0.5387 Y0.6165
G1 X0.532 Y0.6152
G1 X0.5251 Y0.6144
G1 X0.5182 Y0.6139
G1 X0.5113 Y0.6138
G1 X0.5044 Y0.614
G1 X0.4976 Y0.6147
G1 X0.4907 Y0.6159
G1 X0.4839 Y0.6174
G1 X0.4772 Y0.6192
G1 X0.4708 Y0.6215
G1 X0.4644 Y0.6241
G1 X0.4581 Y0.6271
G1 X0.452 Y0.6305
G1 X0.4462 Y0.6341
G1 X0.4405 Y0.6382
G1 X0.4352 Y0.6425
G1 X0.43 Y0.6471
G1 X0.4251 Y0.6521
G1 X0.4206 Y0.6573
G1 X0.4163 Y0.6627
G1 X0.4124 Y0.6683
G1 X0.4089 Y0.6743
G1 X0.4055 Y0.6803
G1 X0.4026 Y0.6867
G1 X0.4001 Y0.693
G1 X0.3979 Y0.6997
G1 X0.3962 Y0.7064
G1 X0.3949 Y0.7132
G1 X0.3938 Y0.7199
G1 X0.3932 Y0.7268
G0 Z0.125
G0 X1.3697 Y1.0532
G1 Z-0.05 F10
G1 X1.3785 Y1.0533 F30
G1 X1.3873 Y1.053
G1 X1.3959 Y1.0522
G1 X1.4046 Y1.0512
G1 X1.4132 Y1.0498
G1 X1.4218 Y1.048
G1 X1.4302 Y1.0457
G1 X1.4385 Y1.0432
G1 X1.4468 Y1.0404
G1 X1.4549 Y1.0371
G1 X1.4628 Y1.0335
G1 X1.4706 Y1.0295
G1 X1.4782 Y1.0252
G1 X1.4856 Y1.0206
G1 X1.4928 Y1.0157
G1 X1.4998 Y1.0104
G1 X1.5066 Y1.0049
G1 X1.513 Y0.999
G1 X1.5193 Y0.9928
G1 X1.5252 Y0.9864
G1 X1.5309 Y0.9799
G1 X1.5362 Y0.973
G1 X1.5413 Y0.9659
G1 X1.5461 Y0.9586
G1 X1.5506 Y0.9511
G1 X1.5546 Y0.9434
G1 X1.5584 Y0.9354
G1 X1.5618 Y0.9275
G1 X1.5649 Y0.9193
G1 X1.5677 Y0.911
G1 X1.5699 Y0.9026
G1 X1.5719 Y0.894
G1 X1.5735 Y0.8855
G1 X1.5748 Y0.8768
G1 X1.5755 Y0.8682
G1 X1.5761 Y0.8595
G1 X1.5761 Y0.397
G1 X1.5766 Y0.3882
G1 X1.5764 Y0.3796
G1 X1.5761 Y0.3709
G1 X1.5752 Y0.3621
G1 X1.5741 Y0.3536
G1 X1.5724 Y0.3449
G1 X1.5705 Y0.3365
G1 X1.5681 Y0.3281
G1 X1.5654 Y0.3198
G1 X1.5623 Y0.3117
G1 X1.5589 Y0.3037
G1 X1.5551 Y0.2957
G1 X1.5509 Y0.2881
G1 X1.5464 Y0.2807
G1 X1.5417 Y0.2734
G1 X1.5366 Y0.2664
G1 X1.531 Y0.2595
G1 X1.5253 Y0.253
G1 X1.5193 Y0.2467
G1 X1.513 Y0.2408
G1 X1.5063 Y0.2351
G1 X1.4996 Y0.2297
G1 X1.4925 Y0.2244
G1 X1.4851 Y0.2198
G1 X1.4778 Y0.2153
G1 X1.4701 Y0.2112
G1 X1.4621 Y0.2075
G1 X1.4542 Y0.204
G1 X1.446 Y0.201
G1 X1.4377 Y0.1982
G1 X1.4293 Y0.196
G1 X1.4207 Y0.1941
G1 X1.4122 Y0.1925
G1 X1.4035 Y0.1915
G1 X1.3949 Y0.1906
G0 Z0.125
G0 X1.401 Y0.1906
G1 Z-0.05 F10
G1 X1.101 Y0.1906 F30
G1 X1.0928 Y0.1902
G1 X1.0846 Y0.1899
G1 X1.0764 Y0.1902
G1 X1.0683 Y0.1909
G1 X1.0602 Y0.1918
G1 X1.052 Y0.1933
G1 X1.0439 Y0.195
G1 X1.036 Y0.1972
G1 X1.0283 Y0.1998
G1 X1.0206 Y0.2026
G1 X1.013 Y0.2058
G1 X1.0056 Y0.2095
G1 X0.9984 Y0.2134
G1 X0.9914 Y0.2178
G1 X0.9846 Y0.2224
G1 X0.9781 Y0.2274
G1 X0.9718 Y0.2326
G1 X0.9658 Y0.2382
G1 X0.96 Y0.2441
G1 X0.9544 Y0.2502
G1 X0.9492 Y0.2565
G1 X0.9444 Y0.2631
G1 X0.9398 Y0.2699
G1 X0.9355 Y0.277
G1 X0.9316 Y0.2842
G1 X0.9281 Y0.2916
G1 X0.9249 Y0.2992
G1 X0.922 Y0.3069
G1 X0.9197 Y0.3147
G1 X0.9175 Y0.3226
G1 X0.9159 Y0.3307
G1 X0.9144 Y0.3388
G1 X0.9135 Y0.347
G1 X0.9135 Y0.8407
G1 X0.9131 Y0.8493
G1 X0.9132 Y0.8582
G1 X0.9136 Y0.8669
G1 X0.9144 Y0.8755
G1 X0.9155 Y0.8843
G1 X0.9172 Y0.8928
G1 X0.9191 Y0.9014
G1 X0.9213 Y0.9099
G1 X0.9239 Y0.9182
G1 X0.9269 Y0.9264
G1 X0.9303 Y0.9345
G1 X0.934 Y0.9424
G1 X0.9382 Y0.9501
G1 X0.9425 Y0.9577
G1 X0.9473 Y0.965
G1 X0.9523 Y0.9722
G1 X0.9576 Y0.9791
G1 X0.9632 Y0.9858
G1 X0.9692 Y0.9921
G1 X0.9754 Y0.9984
G1 X0.9818 Y1.0043
G1 X0.9886 Y1.0099
G1 X0.9956 Y1.0151
G1 X1.0028 Y1.0202
G1 X1.0101 Y1.0247
G1 X1.0176 Y1.0291
G1 X1.0254 Y1.0331
G1 X1.0334 Y1.0368
G1 X1.0415 Y1.0401
G1 X1.0498 Y1.0432
G1 X1.0581 Y1.0457
G1 X1.0665 Y1.048
G1 X1.075 Y1.0499
G1 X1.0837 Y1.0514
G1 X1.0923 Y1.0525
G1 X1.101 Y1.0532
G1 X1.3698 Y1.0532
G0 Z0.125
G0 X1.1198 Y0.522
G1 Z-0.05 F10
G1 X1.1198 Y0.7345 F30
G1 X1.1209 Y0.7414
G1 X1.1225 Y0.748
G1 X1.1243 Y0.7548
G1 X1.1265 Y0.7613
G1 X1.1291 Y0.7677
G1 X1.1321 Y0.774
G1 X1.1354 Y0.7802
G1 X1.1389 Y0.7861
G1 X1.143 Y0.7918
G1 X1.1471 Y0.7973
G1 X1.1516 Y0.8025
G1 X1.1565 Y0.8075
G1 X1.1616 Y0.8122
G1 X1.1669 Y0.8166
G1 X1.1725 Y0.8206
G1 X1.1783 Y0.8244
G1 X1.1844 Y0.828
G1 X1.1904 Y0.8311
G1 X1.1968 Y0.8339
G1 X1.2033 Y0.8364
G1 X1.21 Y0.8384
G1 X1.2166 Y0.8402
G1 X1.2234 Y0.8415
G1 X1.2303 Y0.8424
G1 X1.2373 Y0.843
G1 X1.2441 Y0.8433
G1 X1.251 Y0.843
G1 X1.2579 Y0.8426
G1 X1.2649 Y0.8416
G1 X1.2716 Y0.8403
G1 X1.2783 Y0.8385
G1 X1.2849 Y0.8365
G1 X1.2915 Y0.8341
G1 X1.2979 Y0.8314
G1 X1.304 Y0.8282
G1 X1.3101 Y0.8248
G1 X1.3159 Y0.8211
G1 X1.3215 Y0.8169
G1 X1.3268 Y0.8126
G1 X1.3319 Y0.8078
G1 X1.3368 Y0.803
G1 X1.3414 Y0.7976
G1 X1.3456 Y0.7923
G1 X1.3496 Y0.7866
G1 X1.3532 Y0.7807
G1 X1.3566 Y0.7746
G1 X1.3595 Y0.7683
G1 X1.3621 Y0.7619
G1 X1.3644 Y0.7554
G1 X1.3663 Y0.7486
G1 X1.3678 Y0.742
G1 X1.369 Y0.7351
G1 X1.3697 Y0.7282
G0 Z0.125
G0 X1.3698 Y0.7281
G1 Z-0.05 F10
G1 X1.3698 Y0.5157 F30
G0 Z0.125
G0 X1.3697 Y0.5157
G1 Z-0.05 F10
G1 X1.3687 Y0.5087 F30
G1 X1.3671 Y0.5021
G1 X1.3652 Y0.4953
G1 X1.3631 Y0.4888
G1 X1.3605 Y0.4824
G1 X1.3575 Y0.4761
G1 X1.3542 Y0.4699
G1 X1.3506 Y0.4641
G1 X1.3466 Y0.4583
G1 X1.3424 Y0.4529
G1 X1.3379 Y0.4476
G1 X1.3331 Y0.4427
G1 X1.328 Y0.4379
G1 X1.3226 Y0.4335
G1 X1.3171 Y0.4295
G1 X1.3113 Y0.4257
G1 X1.3052 Y0.4221
G1 X1.2992 Y0.4191
G1 X1.2928 Y0.4163
G1 X1.2862 Y0.4137
G1 X1.2796 Y0.4117
G1 X1.2729 Y0.4099
G1 X1.2661 Y0.4086
G1 X1.2593 Y0.4077
G1 X1.2523 Y0.4071
G1 X1.2454 Y0.4068
G1 X1.2386 Y0.4071
G1 X1.2317 Y0.4076
G1 X1.2247 Y0.4086
G1 X1.2179 Y0.4099
G1 X1.2113 Y0.4116
G1 X1.2046 Y0.4136
G1 X1.1981 Y0.416
G1 X1.1917 Y0.4188
G1 X1.1855 Y0.4219
G1 X1.1795 Y0.4253
G1 X1.1737 Y0.429
G1 X1.1681 Y0.4332
G1 X1.1628 Y0.4376
G1 X1.1577 Y0.4423
G1 X1.1528 Y0.4472
G1 X1.1482 Y0.4525
G1 X1.1439 Y0.4578
G1 X1.14 Y0.4635
G1 X1.1363 Y0.4695
G1 X1.133 Y0.4756
G1 X1.13 Y0.4818
G1 X1.1274 Y0.4882
G1 X1.1252 Y0.4947
G1 X1.1233 Y0.5015
G1 X1.1217 Y0.5081
G1 X1.1206 Y0.5151
G1 X1.1198 Y0.5219
G0 Z0.125
G0 X1.9899 Y0.6706
G1 Z-0.05 F10
G1 X2.0451 Y0.6028 F30
G1 X2.0474 Y0.6005
G1 X2.0499 Y0.5985
G1 X2.0527 Y0.5967
G1 X2.0557 Y0.5955
G1 X2.0588 Y0.5943
G1 X2.062 Y0.5938
G1 X2.0652 Y0.5934
G1 X2.0684 Y0.5935
G1 X2.0716 Y0.5939
G1 X2.0748 Y0.5946
G1 X2.0779 Y0.5956
G1 X2.0807 Y0.5972
G1 X2.0834 Y0.5989
G1 X2.0859 Y0.601
G1 X2.0882 Y0.6032
G1 X2.0902 Y0.6057
G1 X2.092 Y0.6086
G1 X2.0933 Y0.6114
G1 X2.0943 Y0.6146
G1 X2.0949 Y0.6178
G1 X2.0953 Y0.621
G1 X2.0953 Y0.9871
G0 Z0.125
G0 X2.0954 Y0.9871
G1 Z-0.05 F10
G1 X2.0956 Y0.9915 F30
G1 X2.0961 Y0.9959
G1 X2.0971 Y1.0002
G1 X2.0984 Y1.0043
G1 X2.0998 Y1.0084
G1 X2.1018 Y1.0123
G1 X2.1041 Y1.0161
G1 X2.1066 Y1.0196
G1 X2.1094 Y1.0229
G1 X2.1124 Y1.0259
G1 X2.1158 Y1.0289
G1 X2.1194 Y1.0314
G1 X2.1232 Y1.0336
G1 X2.1271 Y1.0355
G1 X2.1311 Y1.0371
G1 X2.1353 Y1.0384
G1 X2.1395 Y1.0393
G1 X2.1438 Y1.0398
G1 X2.1482 Y1.04
G1 X2.2425 Y1.04
G1 X2.2471 Y1.0396
G1 X2.2517 Y1.0387
G1 X2.2562 Y1.0374
G1 X2.2605 Y1.036
G1 X2.2648 Y1.034
G1 X2.2688 Y1.0317
G1 X2.2726 Y1.0291
G1 X2.2763 Y1.0263
G1 X2.2796 Y1.0231
G1 X2.2827 Y1.0196
G1 X2.2854 Y1.016
G1 X2.2879 Y1.012
G1 X2.2901 Y1.008
G1 X2.2919 Y1.0036
G1 X2.2933 Y0.9992
G1 X2.2944 Y0.9947
G1 X2.2951 Y0.9902
G1 X2.2955 Y0.9856
G1 X2.2954 Y0.981
G1 X2.2954 Y0.2674
G0 Z0.125
G0 X2.1469 Y0.1901
G1 Z-0.05 F10
G1 X2.2305 Y0.1901 F30
G1 X2.2356 Y0.1906
G1 X2.2406 Y0.1917
G1 X2.2456 Y0.193
G1 X2.2503 Y0.1947
G1 X2.255 Y0.1967
G1 X2.2595 Y0.1991
G1 X2.2638 Y0.2018
G1 X2.2681 Y0.2046
G1 X2.2719 Y0.208
G1 X2.2756 Y0.2115
G1 X2.2789 Y0.2153
G1 X2.2821 Y0.2192
G1 X2.2849 Y0.2235
G1 X2.2874 Y0.228
G1 X2.2897 Y0.2325
G1 X2.2916 Y0.2373
G1 X2.293 Y0.2421
G1 X2.2942 Y0.2471
G1 X2.295 Y0.2521
G1 X2.2955 Y0.2572
G1 X2.2956 Y0.2623
G1 X2.2954 Y0.2673
G0 Z0.125
G0 X1.9846 Y0.3445
G1 Z-0.05 F10
G1 X2.0811 Y0.2294 F30
G1 X2.0847 Y0.2246
G1 X2.0888 Y0.2201
G1 X2.0932 Y0.2159
G1 X2.0977 Y0.2119
G1 X2.1024 Y0.2082
G1 X2.1074 Y0.2048
G1 X2.1126 Y0.2017
G1 X2.1179 Y0.1988
G1 X2.1235 Y0.1963
G1 X2.1291 Y0.1943
G1 X2.1349 Y0.1924
G1 X2.1408 Y0.1911
G1 X2.1468 Y0.1901
G0 Z0.125
G0 X1.9848 Y0.3446
G1 Z-0.05 F10
G1 X1.9837 Y0.3453 F30
G1 X1.9826 Y0.3459
G1 X1.9814 Y0.3462
G1 X1.9803 Y0.3464
G0 Z0.125
G0 X1.8007 Y0.1899
G1 Z-0.05 F10
G1 X1.807 Y0.191 F30
G1 X1.8133 Y0.1924
G1 X1.8193 Y0.1941
G1 X1.8255 Y0.1961
G1 X1.8313 Y0.1985
G1 X1.8371 Y0.2012
G1 X1.8427 Y0.2042
G1 X1.8481 Y0.2075
G1 X1.8535 Y0.211
G1 X1.8585 Y0.2151
G1 X1.8632 Y0.2192
G1 X1.8678 Y0.2237
G1 X1.8721 Y0.2284
G1 X1.8761 Y0.2333
G1 X1.9677 Y0.3436
G1 X1.9696 Y0.3448
G1 X1.9716 Y0.3456
G1 X1.9737 Y0.3462
G1 X1.976 Y0.3466
G1 X1.9781 Y0.3466
G1 X1.9803 Y0.3462
G0 Z0.125
G0 X1.8007 Y0.1901
G1 Z-0.05 F10
G1 X1.7254 Y0.1901 F30
G1 X1.7199 Y0.1905
G1 X1.7145 Y0.1912
G1 X1.7091 Y0.1924
G1 X1.7038 Y0.1941
G1 X1.6987 Y0.196
G1 X1.6937 Y0.1982
G1 X1.689 Y0.201
G1 X1.6844 Y0.2039
G1 X1.68 Y0.2072
G1 X1.6758 Y0.2109
G1 X1.6719 Y0.2147
G1 X1.6683 Y0.219
G1 X1.665 Y0.2234
G1 X1.6622 Y0.228
G1 X1.6596 Y0.2329
G1 X1.6572 Y0.2378
G1 X1.6553 Y0.2429
G1 X1.6539 Y0.2483
G1 X1.6527 Y0.2536
G1 X1.652 Y0.2591
G1 X1.6515 Y0.2645
G1 X1.6516 Y0.2701
G1 X1.6516 Y0.9858
G1 X1.6519 Y0.9903
G1 X1.6523 Y0.9947
G1 X1.6533 Y0.9992
G1 X1.6545 Y1.0035
G1 X1.6563 Y1.0075
G1 X1.6581 Y1.0116
G1 X1.6604 Y1.0155
G1 X1.663 Y1.019
G1 X1.666 Y1.0225
G1 X1.6692 Y1.0257
G1 X1.6725 Y1.0285
G1 X1.6762 Y1.0311
G1 X1.68 Y1.0335
G1 X1.684 Y1.0354
G1 X1.6882 Y1.0371
G1 X1.6924 Y1.0382
G1 X1.6968 Y1.0393
G1 X1.7012 Y1.0398
G1 X1.7057 Y1.04
G1 X1.7996 Y1.04
G1 X1.8043 Y1.0397
G1 X1.8088 Y1.0387
G1 X1.8132 Y1.0377
G1 X1.8174 Y1.0361
G1 X1.8216 Y1.0342
G1 X1.8255 Y1.032
G1 X1.8293 Y1.0294
G1 X1.8328 Y1.0266
G1 X1.8362 Y1.0234
G1 X1.8392 Y1.02
G1 X1.842 Y1.0164
G1 X1.8443 Y1.0125
G1 X1.8465 Y1.0085
G1 X1.8483 Y1.0043
G1 X1.8497 Y0.9998
G1 X1.8507 Y0.9954
G1 X1.8515 Y0.9909
G1 X1.8517 Y0.9864
G1 X1.8516 Y0.9819
G1 X1.8516 Y0.6337
G1 X1.8515 Y0.6302
G1 X1.8516 Y0.6266
G1 X1.8522 Y0.623
G1 X1.8532 Y0.6196
G1 X1.8545 Y0.6163
G1 X1.8561 Y0.6131
G1 X1.8581 Y0.6101
G1 X1.8605 Y0.6073
G1 X1.863 Y0.6047
G1 X1.8657 Y0.6025
G1 X1.8688 Y0.6005
G1 X1.8719 Y0.5987
G1 X1.8752 Y0.5974
G1 X1.8786 Y0.5965
G1 X1.8822 Y0.5959
G1 X1.8859 Y0.5955
G1 X1.8894 Y0.5956
G1 X1.893 Y0.5961
G1 X1.8964 Y0.597
G1 X1.8998 Y0.5981
G1 X1.9032 Y0.5998
G1 X1.9061 Y0.6016
G1 X1.909 Y0.6038
G1 X1.9633 Y0.6706
G1 X1.9653 Y0.6724
G1 X1.9677 Y0.6738
G1 X1.9701 Y0.6749
G1 X1.9727 Y0.6757
G1 X1.9753 Y0.6761
G1 X1.9779 Y0.6761
G1 X1.9806 Y0.6757
G1 X1.9832 Y0.6749
G1 X1.9856 Y0.6738
G1 X1.988 Y0.6724
G1 X1.99 Y0.6706
G0 Z0.125
G0 X2.9671 Y0.1899
G1 Z-0.05 F10
G1 X2.9703 Y0.1902 F30
G1 X2.9735 Y0.1906
G1 X2.9766 Y0.1916
G1 X2.9797 Y0.1929
G1 X2.9824 Y0.1943
G1 X2.9851 Y0.1962
G1 X2.9875 Y0.1984
G1 X2.9896 Y0.2007
G1 X2.9915 Y0.2035
G1 X2.9931 Y0.2063
G1 X2.9944 Y0.2093
G1 X2.9952 Y0.2123
G1 X2.9957 Y0.2155
G1 X2.9959 Y0.2188
G1 X2.9959 Y0.3426
G0 Z0.125
G0 X2.9958 Y0.3424
G1 Z-0.05 F10
G1 X2.9953 Y0.3458 F30
G1 X2.9945 Y0.3491
G1 X2.9933 Y0.3522
G1 X2.9919 Y0.3551
G1 X2.99 Y0.358
G1 X2.988 Y0.3606
G1 X2.9856 Y0.363
G1 X2.983 Y0.3652
G1 X2.9803 Y0.367
G1 X2.9772 Y0.3684
G1 X2.9741 Y0.3697
G1 X2.9709 Y0.3707
G1 X2.9677 Y0.3711
G1 X2.9642 Y0.3714
G1 X2.9609 Y0.3711
G0 Z0.125
G0 X2.9609 Y0.3713
G1 Z-0.05 F10
G1 X2.6271 Y0.3713 F30
G1 X2.6234 Y0.3711
G1 X2.6196 Y0.3714
G1 X2.6159 Y0.372
G1 X2.6124 Y0.3729
G1 X2.6087 Y0.3742
G1 X2.6054 Y0.3758
G1 X2.6021 Y0.3776
G1 X2.5991 Y0.3798
G1 X2.5961 Y0.3823
G1 X2.5935 Y0.385
G1 X2.5911 Y0.3879
G1 X2.5891 Y0.391
G1 X2.5873 Y0.3943
G1 X2.5858 Y0.3978
G1 X2.5847 Y0.4014
G1 X2.5839 Y0.4049
G1 X2.5834 Y0.4087
G1 X2.5834 Y0.5213
G1 X2.5839 Y0.5245
G1 X2.5849 Y0.5275
G1 X2.586 Y0.5304
G1 X2.5876 Y0.5331
G1 X2.5894 Y0.5358
G1 X2.5915 Y0.5381
G1 X2.5939 Y0.5403
G1 X2.5965 Y0.542
G1 X2.5992 Y0.5437
G1 X2.6022 Y0.5449
G1 X2.6053 Y0.5457
G1 X2.6083 Y0.5463
G1 X2.6115 Y0.5464
G1 X2.6146 Y0.5463
G1 X2.761 Y0.5463
G0 Z0.125
G0 X2.761 Y0.5464
G1 Z-0.05 F10
G1 X2.7641 Y0.5462 F30
G1 X2.7671 Y0.5464
G1 X2.7702 Y0.5469
G1 X2.7732 Y0.5479
G1 X2.776 Y0.549
G1 X2.7786 Y0.5508
G1 X2.7811 Y0.5527
G1 X2.7834 Y0.5549
G1 X2.7853 Y0.5572
G1 X2.7868 Y0.56
G1 X2.7881 Y0.5628
G1 X2.7891 Y0.5658
G1 X2.7897 Y0.5688
G0 Z0.125
G0 X2.7897 Y0.5687
G1 Z-0.05 F10
G1 X2.7897 Y0.6487 F30
G0 Z0.125
G0 X2.7896 Y0.6487
G1 Z-0.05 F10
G1 X2.7897 Y0.652 F30
G1 X2.7896 Y0.6554
G1 X2.789 Y0.6586
G1 X2.7881 Y0.6618
G1 X2.7868 Y0.665
G1 X2.7853 Y0.6681
G1 X2.7834 Y0.6708
G1 X2.7814 Y0.6734
G1 X2.7789 Y0.6758
G1 X2.7763 Y0.6778
G1 X2.7734 Y0.6796
G1 X2.7705 Y0.6812
G1 X2.7674 Y0.6823
G1 X2.7641 Y0.6832
G1 X2.7607 Y0.6836
G0 Z0.125
G0 X2.7609 Y0.6838
G1 Z-0.05 F10
G1 X2.6073 Y0.6838 F30
G0 Z0.125
G0 X2.6073 Y0.6839
G1 Z-0.05 F10
G1 X2.6043 Y0.6844 F30
G1 X2.6013 Y0.6853
G1 X2.5985 Y0.6864
G1 X2.5959 Y0.6879
G1 X2.5934 Y0.6897
G1 X2.5911 Y0.6917
G1 X2.5891 Y0.694
G1 X2.5873 Y0.6965
G1 X2.5859 Y0.6992
G1 X2.5847 Y0.702
G1 X2.5839 Y0.7049
G1 X2.5834 Y0.7078
G1 X2.5832 Y0.7109
G1 X2.5834 Y0.714
G1 X2.5834 Y0.8187
G1 X2.5837 Y0.8226
G1 X2.5843 Y0.8266
G1 X2.5851 Y0.8303
G1 X2.5864 Y0.834
G1 X2.5882 Y0.8377
G1 X2.5901 Y0.841
G1 X2.5926 Y0.8442
G1 X2.5952 Y0.8471
G1 X2.598 Y0.8497
G1 X2.6012 Y0.8521
G1 X2.6045 Y0.8541
G1 X2.6081 Y0.8557
G1 X2.6118 Y0.857
G1 X2.6156 Y0.858
G1 X2.6195 Y0.8586
G1 X2.6234 Y0.8588
G1 X2.9232 Y0.8588
G1 X2.9287 Y0.8595
G1 X2.9339 Y0.8608
G1 X2.9391 Y0.8625
G1 X2.9442 Y0.8645
G1 X2.9492 Y0.8668
G1 X2.9538 Y0.8695
G1 X2.9584 Y0.8725
G1 X2.9627 Y0.8759
G1 X2.9667 Y0.8794
G1 X2.9705 Y0.8834
G1 X2.9741 Y0.8876
G1 X2.9772 Y0.892
G1 X2.9801 Y0.8966
G1 X2.9827 Y0.9015
G1 X2.9849 Y0.9065
G1 X2.9868 Y0.9116
G1 X2.9881 Y0.9169
G1 X2.9893 Y0.9221
G1 X2.99 Y0.9276
G1 X2.9902 Y0.9331
G1 X2.9901 Y0.9385
G1 X2.9896 Y0.944
G1 X2.9896 Y0.96
G1 X2.99 Y0.9652
G1 X2.9899 Y0.9705
G1 X2.9894 Y0.9757
G1 X2.9884 Y0.981
G1 X2.9873 Y0.9861
G1 X2.9856 Y0.9912
G1 X2.9836 Y0.996
G1 X2.9813 Y1.0009
G1 X2.9787 Y1.0054
G1 X2.9757 Y1.0098
G1 X2.9724 Y1.0139
G1 X2.969 Y1.0178
G1 X2.9651 Y1.0215
G1 X2.961 Y1.0248
G1 X2.9568 Y1.0279
G1 X2.9523 Y1.0308
G1 X2.9475 Y1.0331
G1 X2.9427 Y1.0353
G1 X2.9377 Y1.0369
G1 X2.9326 Y1.0384
G1 X2.9274 Y1.0393
G1 X2.922 Y1.04
G1 X2.4334 Y1.04
G1 X2.4282 Y1.0393
G1 X2.4232 Y1.0382
G1 X2.4182 Y1.0368
G1 X2.4135 Y1.035
G1 X2.4087 Y1.033
G1 X2.4042 Y1.0304
G1 X2.3998 Y1.0277
G1 X2.3957 Y1.0246
G1 X2.3919 Y1.0211
G1 X2.3883 Y1.0174
G1 X2.385 Y1.0135
G1 X2.3821 Y1.0093
G1 X2.3793 Y1.0048
G1 X2.3771 Y1.0002
G1 X2.3751 Y0.9954
G1 X2.3734 Y0.9906
G1 X2.3721 Y0.9856
G1 X2.3713 Y0.9805
G1 X2.3707 Y0.9754
G1 X2.3707 Y0.9702
G1 X2.3709 Y0.9651
G1 X2.3709 Y0.2651
G1 X2.3711 Y0.2597
G1 X2.3717 Y0.2543
G1 X2.3727 Y0.2492
G1 X2.3739 Y0.244
G1 X2.3757 Y0.2389
G1 X2.3778 Y0.2339
G1 X2.3802 Y0.2292
G1 X2.3829 Y0.2246
G1 X2.386 Y0.2202
G1 X2.3892 Y0.216
G1 X2.393 Y0.2121
G1 X2.3969 Y0.2083
G1 X2.401 Y0.2051
G1 X2.4054 Y0.202
G1 X2.41 Y0.1993
G1 X2.4147 Y0.1969
G1 X2.4198 Y0.1948
G1 X2.4249 Y0.193
G1 X2.43 Y0.1918
G1 X2.4352 Y0.1909
G1 X2.4405 Y0.1903
G1 X2.446 Y0.1901
G1 X2.9671 Y0.1901
G0 Z0.125
G0 X3.0991 Y0.1899
G1 Z-0.05 F10
G1 X3.2316 Y0.1899 F30
G1 X3.2355 Y0.1905
G1 X3.2394 Y0.1912
G1 X3.2432 Y0.1924
G1 X3.2467 Y0.194
G1 X3.2502 Y0.1959
G1 X3.2535 Y0.1981
G1 X3.2566 Y0.2005
G1 X3.2595 Y0.2032
G1 X3.2622 Y0.2063
G1 X3.2643 Y0.2095
G1 X3.2663 Y0.2128
G1 X3.2681 Y0.2165
G1 X3.2693 Y0.2202
G1 X3.2703 Y0.224
G1 X3.2709 Y0.2279
G1 X3.2712 Y0.2319
G1 X3.2712 Y0.2358
G1 X3.2712 Y0.3529
G1 X3.2713 Y0.3575
G1 X3.2719 Y0.362
G1 X3.2728 Y0.3665
G1 X3.2741 Y0.371
G1 X3.2758 Y0.3754
G1 X3.2778 Y0.3794
G1 X3.2802 Y0.3835
G1 X3.2829 Y0.3872
G1 X3.2859 Y0.3907
G1 X3.2891 Y0.3939
G1 X3.2928 Y0.397
G1 X3.2964 Y0.3997
G1 X3.3005 Y0.4021
G1 X3.3045 Y0.4041
G1 X3.3089 Y0.4058
G1 X3.3133 Y0.4071
G1 X3.3178 Y0.408
G1 X3.3224 Y0.4086
G1 X3.327 Y0.4087
G1 X3.356 Y0.4087
G1 X3.3606 Y0.4086
G1 X3.3652 Y0.408
G1 X3.3697 Y0.4071
G1 X3.3742 Y0.4057
G1 X3.3786 Y0.404
G1 X3.3828 Y0.4019
G1 X3.3867 Y0.3995
G1 X3.3905 Y0.3968
G1 X3.394 Y0.3938
G1 X3.3974 Y0.3904
G1 X3.4003 Y0.3869
G0 Z0.125
G0 X3.4003 Y0.3868
G1 Z-0.05 F10
G1 X3.5307 Y0.2165 F30
G0 Z0.125
G0 X3.5716 Y0.1899
G1 Z-0.05 F10
G1 X3.6732 Y0.1899 F30
G1 X3.6769 Y0.1902
G1 X3.6807 Y0.1908
G1 X3.6841 Y0.1917
G1 X3.6877 Y0.193
G1 X3.6909 Y0.1947
G1 X3.6941 Y0.1968
G1 X3.6969 Y0.1991
G1 X3.6995 Y0.2017
G1 X3.7018 Y0.2045
G1 X3.7039 Y0.2077
G1 X3.7056 Y0.2109
G1 X3.7069 Y0.2145
G1 X3.7078 Y0.2179
G1 X3.7084 Y0.2217
G1 X3.7087 Y0.2254
G1 X3.7087 Y0.293
G1 X3.7086 Y0.3001
G1 X3.7081 Y0.3072
G1 X3.7075 Y0.3142
G1 X3.7062 Y0.3213
G1 X3.7048 Y0.3282
G1 X3.703 Y0.3352
G1 X3.7006 Y0.342
G1 X3.6981 Y0.3487
G1 X3.6952 Y0.3551
G1 X3.6919 Y0.3614
G1 X3.6883 Y0.3677
G1 X3.6845 Y0.3736
G1 X3.6802 Y0.3793
G1 X3.6757 Y0.385
G1 X3.671 Y0.3901
G1 X3.6662 Y0.3952
G1 X3.6622 Y0.4001
G1 X3.6584 Y0.4052
G1 X3.6551 Y0.4105
G1 X3.652 Y0.416
G1 X3.6491 Y0.4217
G1 X3.6468 Y0.4275
G1 X3.6446 Y0.4334
G1 X3.643 Y0.4395
G1 X3.6417 Y0.4456
G1 X3.6407 Y0.4519
G1 X3.6401 Y0.4582
G1 X3.6399 Y0.4645
G1 X3.64 Y0.471
G1 X3.6406 Y0.4775
G1 X3.6415 Y0.4839
G1 X3.6428 Y0.4905
G1 X3.6444 Y0.4967
G1 X3.6463 Y0.503
G1 X3.6487 Y0.5092
G1 X3.6512 Y0.5151
G1 X3.654 Y0.5211
G1 X3.6572 Y0.5267
G1 X3.6608 Y0.5323
G1 X3.6644 Y0.5377
G1 X3.6686 Y0.5429
G1 X3.6729 Y0.5477
G1 X3.6774 Y0.5525
G0 Z0.125
G0 X3.2448 Y1.0463
G1 Z-0.05 F10
G1 X3.2368 Y1.0462 F30
G1 X3.2286 Y1.0457
G1 X3.2205 Y1.045
G1 X3.2126 Y1.0438
G1 X3.2045 Y1.0422
G1 X3.1966 Y1.0401
G1 X3.1889 Y1.0379
G1 X3.1813 Y1.0352
G1 X3.1737 Y1.0321
G1 X3.1663 Y1.0286
G1 X3.1591 Y1.025
G1 X3.1521 Y1.0208
G1 X3.1452 Y1.0164
G1 X3.1387 Y1.0117
G1 X3.1323 Y1.0066
G1 X3.1262 Y1.0012
G1 X3.1203 Y0.9956
G1 X3.1149 Y0.9896
G1 X3.1095 Y0.9836
G1 X3.1045 Y0.9771
G1 X3.0998 Y0.9705
G1 X3.0955 Y0.9635
G1 X3.0914 Y0.9565
G1 X3.0878 Y0.9493
G1 X3.0844 Y0.9418
G1 X3.0814 Y0.9344
G1 X3.0788 Y0.9266
G1 X3.0767 Y0.9188
G1 X3.0748 Y0.911
G1 X3.0732 Y0.9029
G1 X3.0722 Y0.8949
G1 X3.0715 Y0.8868
G1 X3.071 Y0.8786
G0 Z0.125
G0 X3.0711 Y0.8786
G1 Z-0.05 F10
G1 X3.0711 Y0.2242 F30
G1 X3.071 Y0.221
G1 X3.0711 Y0.2177
G1 X3.0716 Y0.2145
G1 X3.0725 Y0.2113
G1 X3.0737 Y0.2083
G1 X3.0753 Y0.2053
G1 X3.0769 Y0.2026
G1 X3.079 Y0.2001
G1 X3.0813 Y0.1978
G1 X3.0839 Y0.1957
G1 X3.0866 Y0.194
G1 X3.0895 Y0.1924
G1 X3.0927 Y0.1914
G1 X3.0959 Y0.1905
G1 X3.0991 Y0.1901
G0 Z0.125
G0 X3.5716 Y0.1901
G1 Z-0.05 F10
G1 X3.5671 Y0.1908 F30
G1 X3.5627 Y0.1918
G1 X3.5582 Y0.1933
G1 X3.554 Y0.1952
G1 X3.55 Y0.1973
G1 X3.5461 Y0.1998
G1 X3.5425 Y0.2026
G1 X3.5391 Y0.2057
G1 X3.536 Y0.209
G1 X3.5333 Y0.2127
G1 X3.5308 Y0.2165
G0 Z0.125
G0 X3.7087 Y0.8338
G1 Z-0.05 F10
G1 X3.7087 Y0.628 F30
G1 X3.7084 Y0.6216
G1 X3.7078 Y0.6151
G1 X3.7069 Y0.6088
G1 X3.7056 Y0.6025
G1 X3.7038 Y0.5962
G1 X3.7017 Y0.5902
G1 X3.6992 Y0.5841
G1 X3.6965 Y0.5783
G1 X3.6933 Y0.5728
G1 X3.6897 Y0.5674
G1 X3.6859 Y0.5622
G1 X3.6819 Y0.5572
G1 X3.6775 Y0.5525
G0 Z0.125
G0 X3.7086 Y0.8338
G1 Z-0.05 F10
G1 X3.7083 Y0.8402 F30
G1 X3.7077 Y0.8465
G1 X3.7068 Y0.8528
G1 X3.7055 Y0.859
G1 X3.7037 Y0.8652
G1 X3.7017 Y0.8711
G1 X3.6992 Y0.8771
G1 X3.6965 Y0.8829
G1 X3.6934 Y0.8883
G1 X3.6898 Y0.8938
G1 X3.686 Y0.8989
G1 X3.682 Y0.9038
G1 X3.6776 Y0.9085
G1 X3.5841 Y1.002
G1 X3.5787 Y1.0071
G1 X3.5731 Y1.0119
G1 X3.5673 Y1.0164
G1 X3.5613 Y1.0208
G1 X3.555 Y1.0247
G1 X3.5486 Y1.0284
G1 X3.5418 Y1.0317
G1 X3.5352 Y1.0348
G1 X3.5282 Y1.0374
G1 X3.5212 Y1.0398
G1 X3.5139 Y1.0418
G1 X3.5067 Y1.0433
G1 X3.4995 Y1.0447
G1 X3.492 Y1.0456
G1 X3.4846 Y1.0461
G1 X3.4772 Y1.0463
G1 X3.245 Y1.0463
G0 Z0.125
G0 X3.2763 Y0.7144
G1 Z-0.05 F10
G1 X3.2762 Y0.7212 F30
G1 X3.2763 Y0.7281
G1 X3.277 Y0.7351
G1 X3.2779 Y0.7419
G1 X3.2794 Y0.7486
G1 X3.281 Y0.7554
G1 X3.2833 Y0.7619
G1 X3.2858 Y0.7683
G1 X3.2886 Y0.7747
G1 X3.2919 Y0.7808
G1 X3.2955 Y0.7867
G1 X3.2994 Y0.7924
G1 X3.3038 Y0.7977
G1 X3.3082 Y0.803
G1 X3.3132 Y0.8079
G1 X3.3183 Y0.8126
G1 X3.3236 Y0.8168
G1 X3.3293 Y0.821
G1 X3.3351 Y0.8245
G1 X3.3413 Y0.828
G1 X3.3474 Y0.8309
G1 X3.3538 Y0.8336
G1 X3.3604 Y0.8358
G1 X3.367 Y0.8377
G1 X3.3739 Y0.8391
G1 X3.3806 Y0.8403
G1 X3.3875 Y0.841
G1 X3.3944 Y0.8413
G1 X3.4013 Y0.8411
G1 X3.4083 Y0.8407
G1 X3.415 Y0.8397
G1 X3.4218 Y0.8384
G1 X3.4285 Y0.8368
G1 X3.4352 Y0.8347
G1 X3.4416 Y0.8322
G1 X3.4479 Y0.8295
G1 X3.4542 Y0.8263
G1 X3.46 Y0.8228
G1 X3.4658 Y0.819
G1 X3.4714 Y0.8148
G1 X3.4766 Y0.8103
G1 X3.4817 Y0.8054
G1 X3.4863 Y0.8005
G1 X3.4907 Y0.7951
G1 X3.4948 Y0.7896
G1 X3.4986 Y0.7837
G1 X3.5021 Y0.7778
G1 X3.5052 Y0.7715
G1 X3.5079 Y0.7651
G1 X3.5101 Y0.7587
G1 X3.5122 Y0.7521
G1 X3.5137 Y0.7453
G1 X3.5149 Y0.7384
G1 X3.5157 Y0.7317
G1 X3.5161 Y0.7248
G1 X3.5161 Y0.7178
G1 X3.5157 Y0.7109
G1 X3.5149 Y0.704
G1 X3.5137 Y0.6973
G1 X3.5122 Y0.6905
G1 X3.5101 Y0.6839
G1 X3.5079 Y0.6774
G1 X3.5052 Y0.671
G1 X3.5021 Y0.6648
G1 X3.4986 Y0.6587
G1 X3.4948 Y0.6529
G1 X3.4907 Y0.6475
G1 X3.4863 Y0.642
G1 X3.4817 Y0.637
G1 X3.4766 Y0.6323
G1 X3.4714 Y0.6278
G1 X3.4658 Y0.6235
G1 X3.46 Y0.6197
G1 X3.4542 Y0.6162
G1 X3.4479 Y0.6131
G1 X3.4416 Y0.6102
G1 X3.4352 Y0.6077
G1 X3.4285 Y0.6057
G1 X3.4218 Y0.6041
G1 X3.415 Y0.6028
G1 X3.4083 Y0.6018
G1 X3.4013 Y0.6013
G1 X3.3944 Y0.6012
G1 X3.3875 Y0.6016
G1 X3.3806 Y0.6023
G1 X3.3739 Y0.6034
G1 X3.367 Y0.6049
G1 X3.3604 Y0.6068
G1 X3.3538 Y0.6089
G1 X3.3474 Y0.6115
G1 X3.3413 Y0.6146
G1 X3.3351 Y0.6179
G1 X3.3293 Y0.6216
G1 X3.3236 Y0.6257
G1 X3.3183 Y0.6299
G1 X3.3132 Y0.6345
G1 X3.3082 Y0.6395
G1 X3.3038 Y0.6447
G1 X3.2994 Y0.6502
G1 X3.2955 Y0.6559
G1 X3.2919 Y0.6618
G1 X3.2886 Y0.6679
G1 X3.2858 Y0.6742
G1 X3.2833 Y0.6806
G1 X3.281 Y0.6872
G1 X3.2794 Y0.6938
G1 X3.2779 Y0.7007
G1 X3.277 Y0.7075
G1 X3.2763 Y0.7144
G0 Z0.125
G0 X0.4068 Y1.7837
G1 Z-0.05 F10
G1 X0.4068 Y1.1337 F30
G1 X0.6068 Y1.1337
G1 X0.6068 Y1.7837
G1 X0.8318 Y1.7837
G1 X0.8318 Y1.9963
G1 X0.1819 Y1.9963
G1 X0.1819 Y1.7837
G1 X0.4068 Y1.7837
G0 Z0.125
G0 X1.3634 Y1.997
G1 Z-0.05 F10
G1 X1.3722 Y1.9971 F30
G1 X1.3809 Y1.9967
G1 X1.3896 Y1.996
G1 X1.3983 Y1.995
G1 X1.407 Y1.9935
G1 X1.4154 Y1.9918
G1 X1.4239 Y1.9896
G1 X1.4322 Y1.987
G1 X1.4405 Y1.9842
G1 X1.4486 Y1.9808
G1 X1.4565 Y1.9773
G1 X1.4644 Y1.9733
G1 X1.472 Y1.969
G1 X1.4793 Y1.9644
G1 X1.4865 Y1.9595
G1 X1.4935 Y1.9542
G1 X1.5002 Y1.9487
G1 X1.5067 Y1.9428
G1 X1.513 Y1.9367
G1 X1.5189 Y1.9303
G1 X1.5246 Y1.9237
G1 X1.5299 Y1.9168
G1 X1.535 Y1.9097
G1 X1.5398 Y1.9023
G1 X1.5442 Y1.8949
G1 X1.5483 Y1.8872
G1 X1.5521 Y1.8793
G1 X1.5556 Y1.8713
G1 X1.5586 Y1.8631
G1 X1.5614 Y1.8548
G1 X1.5636 Y1.8464
G1 X1.5656 Y1.8378
G1 X1.5672 Y1.8293
G1 X1.5684 Y1.8206
G1 X1.5692 Y1.812
G1 X1.5697 Y1.8033
G1 X1.5697 Y1.3408
G0 Z0.125
G0 X1.5698 Y1.3408
G1 Z-0.05 F10
G1 X1.5703 Y1.3321 F30
G1 X1.5702 Y1.3234
G1 X1.5697 Y1.3147
G1 X1.569 Y1.3059
G1 X1.5678 Y1.2974
G1 X1.5661 Y1.2887
G1 X1.5642 Y1.2803
G1 X1.5618 Y1.2719
G1 X1.5591 Y1.2636
G1 X1.556 Y1.2555
G1 X1.5526 Y1.2475
G1 X1.5488 Y1.2396
G1 X1.5447 Y1.2319
G1 X1.5401 Y1.2244
G1 X1.5353 Y1.2172
G1 X1.5302 Y1.2102
G1 X1.5247 Y1.2033
G1 X1.519 Y1.1969
G1 X1.513 Y1.1905
G1 X1.5066 Y1.1846
G1 X1.5001 Y1.1789
G1 X1.4932 Y1.1734
G1 X1.4862 Y1.1682
G1 X1.4788 Y1.1636
G1 X1.4715 Y1.1591
G1 X1.4638 Y1.1549
G1 X1.4558 Y1.1513
G1 X1.4479 Y1.1478
G1 X1.4396 Y1.1447
G1 X1.4313 Y1.142
G1 X1.423 Y1.1398
G1 X1.4144 Y1.1379
G1 X1.4058 Y1.1363
G1 X1.3972 Y1.1353
G1 X1.3886 Y1.1344
G0 Z0.125
G0 X1.3947 Y1.1344
G1 Z-0.05 F10
G1 X1.0947 Y1.1344 F30
G1 X1.0865 Y1.134
G1 X1.0783 Y1.1337
G1 X1.0702 Y1.134
G1 X1.062 Y1.1347
G1 X1.0538 Y1.1356
G1 X1.0457 Y1.137
G1 X1.0377 Y1.1388
G1 X1.0297 Y1.141
G1 X1.0219 Y1.1436
G1 X1.0142 Y1.1465
G1 X1.0067 Y1.1497
G1 X0.9993 Y1.1533
G1 X0.9921 Y1.1573
G1 X0.9851 Y1.1616
G1 X0.9784 Y1.1663
G1 X0.9718 Y1.1712
G1 X0.9655 Y1.1765
G1 X0.9594 Y1.182
G1 X0.9536 Y1.1879
G1 X0.9481 Y1.194
G1 X0.9429 Y1.2003
G1 X0.9382 Y1.2069
G1 X0.9335 Y1.2137
G1 X0.9293 Y1.2208
G1 X0.9253 Y1.228
G1 X0.9218 Y1.2354
G1 X0.9186 Y1.2429
G1 X0.9157 Y1.2507
G1 X0.9134 Y1.2585
G1 X0.9112 Y1.2664
G1 X0.9096 Y1.2745
G1 X0.9081 Y1.2826
G1 X0.9072 Y1.2907
G1 X0.9072 Y1.7845
G1 X0.9068 Y1.7932
G1 X0.907 Y1.802
G1 X0.9073 Y1.8107
G1 X0.9081 Y1.8193
G1 X0.9092 Y1.8281
G1 X0.9109 Y1.8366
G1 X0.9128 Y1.8452
G1 X0.915 Y1.8537
G1 X0.9176 Y1.862
G1 X0.9206 Y1.8702
G1 X0.924 Y1.8783
G1 X0.9277 Y1.8862
G1 X0.9319 Y1.8939
G1 X0.9363 Y1.9015
G1 X0.9409 Y1.9087
G1 X0.946 Y1.916
G1 X0.9513 Y1.9229
G1 X0.9569 Y1.9296
G1 X0.9629 Y1.936
G1 X0.9691 Y1.9422
G1 X0.9755 Y1.9481
G1 X0.9823 Y1.9537
G1 X0.9893 Y1.959
G1 X0.9964 Y1.964
G1 X1.0039 Y1.9685
G1 X1.0113 Y1.973
G1 X1.0192 Y1.9769
G1 X1.027 Y1.9807
G1 X1.0352 Y1.9839
G1 X1.0435 Y1.987
G1 X1.0518 Y1.9896
G1 X1.0602 Y1.9918
G1 X1.0687 Y1.9937
G1 X1.0774 Y1.9952
G1 X1.086 Y1.9963
G1 X1.0947 Y1.997
G1 X1.3636 Y1.997
G0 Z0.125
G0 X1.1136 Y1.4658
G1 Z-0.05 F10
G1 X1.1136 Y1.6783 F30
G1 X1.1146 Y1.6852
G1 X1.1162 Y1.6918
G1 X1.1181 Y1.6986
G1 X1.1202 Y1.7052
G1 X1.1228 Y1.7115
G1 X1.1258 Y1.7179
G1 X1.129 Y1.724
G1 X1.1327 Y1.7299
G1 X1.1367 Y1.7356
G1 X1.1408 Y1.741
G1 X1.1453 Y1.7463
G1 X1.1502 Y1.7512
G1 X1.1553 Y1.756
G1 X1.1606 Y1.7604
G1 X1.1662 Y1.7645
G1 X1.172 Y1.7683
G1 X1.1781 Y1.7718
G1 X1.1841 Y1.7748
G1 X1.1905 Y1.7777
G1 X1.197 Y1.7802
G1 X1.2036 Y1.7823
G1 X1.2103 Y1.784
G1 X1.2171 Y1.7853
G1 X1.224 Y1.7862
G1 X1.231 Y1.7868
G1 X1.2378 Y1.7871
G1 X1.2447 Y1.7868
G1 X1.2516 Y1.7864
G1 X1.2585 Y1.7854
G1 X1.2654 Y1.7841
G1 X1.272 Y1.7823
G1 X1.2786 Y1.7804
G1 X1.2852 Y1.7779
G1 X1.2916 Y1.7752
G1 X1.2977 Y1.7721
G1 X1.3038 Y1.7686
G1 X1.3095 Y1.7649
G1 X1.3152 Y1.7607
G1 X1.3205 Y1.7563
G1 X1.3256 Y1.7517
G1 X1.3305 Y1.7467
G1 X1.335 Y1.7415
G1 X1.3394 Y1.7361
G1 X1.3433 Y1.7304
G1 X1.347 Y1.7244
G1 X1.3503 Y1.7184
G1 X1.3532 Y1.7122
G1 X1.3558 Y1.7058
G1 X1.3581 Y1.6992
G1 X1.36 Y1.6924
G1 X1.3615 Y1.6858
G1 X1.3627 Y1.6789
G1 X1.3634 Y1.672
G0 Z0.125
G0 X1.3636 Y1.672
G1 Z-0.05 F10
G1 X1.3636 Y1.4595 F30
G0 Z0.125
G0 X1.3634 Y1.4595
G1 Z-0.05 F10
G1 X1.3624 Y1.4526 F30
G1 X1.3608 Y1.4459
G1 X1.3589 Y1.4392
G1 X1.3567 Y1.4326
G1 X1.3542 Y1.4262
G1 X1.3512 Y1.4199
G1 X1.3479 Y1.4137
G1 X1.3443 Y1.4079
G1 X1.3403 Y1.4022
G1 X1.3362 Y1.3966
G1 X1.3317 Y1.3914
G1 X1.3267 Y1.3864
G1 X1.3216 Y1.3818
G1 X1.3164 Y1.3773
G1 X1.3108 Y1.3733
G1 X1.305 Y1.3695
G1 X1.2989 Y1.3659
G1 X1.2929 Y1.3628
G1 X1.2865 Y1.3601
G1 X1.2799 Y1.3576
G1 X1.2733 Y1.3555
G1 X1.2667 Y1.3538
G1 X1.2598 Y1.3525
G1 X1.253 Y1.3515
G1 X1.246 Y1.3509
G1 X1.2391 Y1.3506
G1 X1.2323 Y1.3509
G1 X1.2253 Y1.3513
G1 X1.2184 Y1.3524
G1 X1.2116 Y1.3537
G1 X1.2049 Y1.3554
G1 X1.1984 Y1.3574
G1 X1.1918 Y1.3598
G1 X1.1854 Y1.3626
G1 X1.1793 Y1.3657
G1 X1.1732 Y1.3691
G1 X1.1674 Y1.3729
G1 X1.1618 Y1.377
G1 X1.1565 Y1.3813
G1 X1.1513 Y1.3861
G1 X1.1465 Y1.391
G1 X1.1419 Y1.3963
G1 X1.1376 Y1.4016
G1 X1.1337 Y1.4073
G1 X1.13 Y1.4132
G1 X1.1267 Y1.4194
G1 X1.1238 Y1.4256
G1 X1.1211 Y1.432
G1 X1.1188 Y1.4386
G1 X1.1169 Y1.4453
G1 X1.1155 Y1.452
G1 X1.1143 Y1.4589
G1 X1.1136 Y1.4657
G0 Z0.125
G0 X1.6994 Y1.9839
G1 Z-0.05 F10
G1 X1.7933 Y1.9839 F30
G1 X1.798 Y1.9835
G1 X1.8025 Y1.9826
G1 X1.8069 Y1.9814
G1 X1.8111 Y1.9799
G1 X1.8153 Y1.978
G1 X1.8192 Y1.9757
G1 X1.823 Y1.9731
G1 X1.8266 Y1.9704
G1 X1.8299 Y1.9672
G1 X1.833 Y1.9638
G1 X1.8357 Y1.9602
G1 X1.8381 Y1.9563
G1 X1.8402 Y1.9523
G1 X1.842 Y1.9481
G1 X1.8433 Y1.9437
G1 X1.8445 Y1.9392
G1 X1.8452 Y1.9347
G1 X1.8454 Y1.9302
G1 X1.8453 Y1.9257
G1 X1.8453 Y1.5776
G0 Z0.125
G0 X1.8452 Y1.5776
G1 Z-0.05 F10
G1 X1.8452 Y1.5739 F30
G1 X1.8453 Y1.5704
G1 X1.8459 Y1.5668
G1 X1.847 Y1.5634
G1 X1.8483 Y1.5601
G1 X1.8498 Y1.5569
G1 X1.8518 Y1.5539
G1 X1.8542 Y1.5511
G1 X1.8567 Y1.5484
G1 X1.8594 Y1.5463
G1 X1.8624 Y1.5443
G1 X1.8656 Y1.5425
G1 X1.8689 Y1.5413
G1 X1.8723 Y1.5403
G1 X1.8759 Y1.5397
G1 X1.8796 Y1.5393
G1 X1.8831 Y1.5394
G1 X1.8867 Y1.54
G1 X1.8901 Y1.5407
G1 X1.8936 Y1.5419
G1 X1.8969 Y1.5436
G1 X1.8998 Y1.5454
G1 X1.9027 Y1.5476
G1 X1.957 Y1.6144
G1 X1.959 Y1.6162
G1 X1.9613 Y1.6176
G1 X1.9638 Y1.6187
G1 X1.9664 Y1.6195
G1 X1.969 Y1.6198
G1 X1.9716 Y1.6198
G1 X1.9743 Y1.6195
G1 X1.9769 Y1.6187
G1 X1.9793 Y1.6176
G1 X1.9817 Y1.6162
G1 X1.9836 Y1.6144
G1 X2.0388 Y1.5465
G1 X2.0411 Y1.5443
G1 X2.0436 Y1.5423
G1 X2.0464 Y1.5406
G1 X2.0493 Y1.5393
G1 X2.0525 Y1.5381
G1 X2.0557 Y1.5375
G1 X2.0589 Y1.5372
G1 X2.0621 Y1.5373
G1 X2.0653 Y1.5377
G1 X2.0684 Y1.5384
G1 X2.0716 Y1.5394
G1 X2.0744 Y1.541
G1 X2.0771 Y1.5426
G1 X2.0796 Y1.5448
G1 X2.0819 Y1.547
G1 X2.0839 Y1.5495
G1 X2.0857 Y1.5524
G1 X2.0869 Y1.5553
G1 X2.0881 Y1.5584
G1 X2.0887 Y1.5616
G1 X2.089 Y1.5648
G1 X2.089 Y1.9309
G0 Z0.125
G0 X2.0891 Y1.9309
G1 Z-0.05 F10
G1 X2.0894 Y1.9354 F30
G1 X2.0898 Y1.9397
G1 X2.0908 Y1.944
G1 X2.092 Y1.9481
G1 X2.0935 Y1.9521
G1 X2.0955 Y1.9561
G1 X2.0978 Y1.9599
G1 X2.1003 Y1.9634
G1 X2.1031 Y1.9667
G1 X2.1061 Y1.9698
G1 X2.1095 Y1.9727
G1 X2.1131 Y1.9752
G1 X2.1169 Y1.9774
G1 X2.1207 Y1.9794
G1 X2.1248 Y1.9808
G1 X2.129 Y1.9822
G1 X2.1332 Y1.9831
G1 X2.1375 Y1.9836
G1 X2.1419 Y1.9838
G0 Z0.125
G0 X2.1419 Y1.9839
G1 Z-0.05 F10
G1 X2.2362 Y1.9839 F30
G0 Z0.125
G0 X2.2362 Y1.9838
G1 Z-0.05 F10
G1 X2.2408 Y1.9833 F30
G1 X2.2454 Y1.9825
G1 X2.2499 Y1.9813
G1 X2.2542 Y1.9798
G1 X2.2585 Y1.9778
G1 X2.2625 Y1.9756
G1 X2.2663 Y1.973
G1 X2.27 Y1.9701
G1 X2.2733 Y1.9669
G1 X2.2764 Y1.9634
G1 X2.2791 Y1.9597
G1 X2.2816 Y1.9558
G1 X2.2839 Y1.9518
G1 X2.2856 Y1.9475
G1 X2.2871 Y1.943
G1 X2.2881 Y1.9386
G1 X2.2888 Y1.934
G1 X2.2891 Y1.9294
G1 X2.2891 Y1.9248
G1 X2.2891 Y1.2112
G0 Z0.125
G0 X1.9784 Y1.2882
G1 Z-0.05 F10
G1 X2.0748 Y1.1732 F30
G1 X2.0785 Y1.1683
G1 X2.0825 Y1.1638
G1 X2.0869 Y1.1597
G1 X2.0914 Y1.1557
G1 X2.0961 Y1.152
G1 X2.1011 Y1.1485
G1 X2.1063 Y1.1455
G1 X2.1117 Y1.1427
G1 X2.1172 Y1.1401
G1 X2.1228 Y1.1381
G1 X2.1286 Y1.1363
G1 X2.1345 Y1.1349
G1 X2.1405 Y1.1338
G1 X2.2242 Y1.1338
G1 X2.2293 Y1.1344
G1 X2.2343 Y1.1355
G1 X2.2393 Y1.1368
G1 X2.244 Y1.1385
G1 X2.2488 Y1.1405
G1 X2.2533 Y1.1428
G1 X2.2575 Y1.1456
G1 X2.2617 Y1.1484
G1 X2.2656 Y1.1517
G1 X2.2693 Y1.1553
G1 X2.2726 Y1.1591
G1 X2.2758 Y1.1631
G1 X2.2786 Y1.1673
G1 X2.2811 Y1.1718
G1 X2.2834 Y1.1763
G1 X2.2853 Y1.181
G1 X2.2867 Y1.1859
G1 X2.2879 Y1.1909
G1 X2.2887 Y1.1959
G1 X2.2892 Y1.201
G1 X2.2893 Y1.2061
G1 X2.2891 Y1.211
G0 Z0.125
G0 X1.9785 Y1.2884
G1 Z-0.05 F10
G1 X1.9774 Y1.2891 F30
G1 X1.9763 Y1.2897
G1 X1.9752 Y1.29
G1 X1.974 Y1.2901
G0 Z0.125
G0 X1.7944 Y1.1337
G1 Z-0.05 F10
G1 X1.8007 Y1.1348 F30
G1 X1.807 Y1.1362
G1 X1.813 Y1.1379
G1 X1.8191 Y1.1399
G1 X1.825 Y1.1423
G1 X1.8308 Y1.145
G1 X1.8364 Y1.1479
G1 X1.8419 Y1.1513
G1 X1.8471 Y1.1548
G1 X1.8522 Y1.1589
G1 X1.8569 Y1.1631
G1 X1.8615 Y1.1675
G1 X1.8658 Y1.1721
G1 X1.8698 Y1.1771
G1 X1.9614 Y1.2874
G1 X1.9633 Y1.2886
G1 X1.9653 Y1.2894
G1 X1.9674 Y1.29
G1 X1.9696 Y1.2904
G1 X1.9718 Y1.2904
G1 X1.974 Y1.29
G0 Z0.125
G0 X1.7944 Y1.1338
G1 Z-0.05 F10
G1 X1.7191 Y1.1338 F30
G1 X1.7136 Y1.1343
G1 X1.7082 Y1.135
G1 X1.7029 Y1.1363
G1 X1.6975 Y1.1379
G1 X1.6924 Y1.1398
G1 X1.6874 Y1.142
G1 X1.6826 Y1.1447
G1 X1.6781 Y1.1478
G1 X1.6737 Y1.151
G1 X1.6695 Y1.1547
G1 X1.6656 Y1.1586
G1 X1.6621 Y1.1628
G1 X1.6587 Y1.1672
G1 X1.6558 Y1.1718
G1 X1.6533 Y1.1766
G1 X1.6509 Y1.1816
G1 X1.649 Y1.1867
G1 X1.6475 Y1.1921
G1 X1.6464 Y1.1975
G1 X1.6456 Y1.2029
G1 X1.6452 Y1.2083
G1 X1.6453 Y1.2139
G1 X1.6453 Y1.9296
G1 X1.6456 Y1.9341
G1 X1.6461 Y1.9386
G1 X1.647 Y1.943
G1 X1.6482 Y1.9473
G1 X1.65 Y1.9513
G1 X1.6519 Y1.9553
G1 X1.6541 Y1.9593
G1 X1.6567 Y1.9628
G1 X1.6596 Y1.9663
G1 X1.6628 Y1.9695
G1 X1.6662 Y1.9724
G1 X1.6698 Y1.9749
G1 X1.6737 Y1.9773
G1 X1.6777 Y1.9792
G1 X1.6819 Y1.9808
G1 X1.6861 Y1.982
G1 X1.6905 Y1.9831
G1 X1.6949 Y1.9836
G1 X1.6994 Y1.9838
G0 Z0.125
G0 X2.9608 Y1.1337
G1 Z-0.05 F10
G1 X2.964 Y1.134 F30
G1 X2.9672 Y1.1344
G1 X2.9703 Y1.1354
G1 X2.9734 Y1.1367
G1 X2.9761 Y1.1382
G1 X2.9788 Y1.1401
G1 X2.9812 Y1.1421
G1 X2.9833 Y1.1446
G1 X2.9852 Y1.1472
G1 X2.9868 Y1.1501
G1 X2.9881 Y1.153
G1 X2.9889 Y1.1561
G1 X2.9894 Y1.1593
G1 X2.9896 Y1.1625
G1 X2.9896 Y1.2864
G0 Z0.125
G0 X2.9895 Y1.2862
G1 Z-0.05 F10
G1 X2.989 Y1.2896 F30
G1 X2.9882 Y1.2929
G1 X2.987 Y1.296
G1 X2.9855 Y1.2989
G1 X2.9837 Y1.3018
G1 X2.9817 Y1.3044
G1 X2.9793 Y1.3067
G1 X2.9767 Y1.309
G1 X2.974 Y1.3108
G1 X2.9709 Y1.3123
G1 X2.9678 Y1.3136
G1 X2.9646 Y1.3145
G1 X2.9613 Y1.3149
G1 X2.958 Y1.3152
G1 X2.9546 Y1.3149
G0 Z0.125
G0 X2.9546 Y1.3151
G1 Z-0.05 F10
G1 X2.6208 Y1.3151 F30
G1 X2.6171 Y1.3149
G1 X2.6133 Y1.3152
G1 X2.6096 Y1.3158
G1 X2.6061 Y1.3167
G1 X2.6024 Y1.318
G1 X2.5991 Y1.3196
G1 X2.5958 Y1.3213
G1 X2.5927 Y1.3236
G1 X2.5898 Y1.3261
G1 X2.5872 Y1.3288
G1 X2.5849 Y1.3317
G1 X2.5828 Y1.3347
G1 X2.5811 Y1.3381
G1 X2.5795 Y1.3416
G1 X2.5785 Y1.3452
G1 X2.5776 Y1.3487
G1 X2.5771 Y1.3525
G1 X2.5771 Y1.4651
G1 X2.5776 Y1.4683
G1 X2.5786 Y1.4712
G1 X2.5798 Y1.4742
G1 X2.5812 Y1.4769
G1 X2.5831 Y1.4795
G1 X2.5852 Y1.4819
G1 X2.5876 Y1.484
G1 X2.5901 Y1.4858
G1 X2.5929 Y1.4875
G1 X2.5959 Y1.4887
G1 X2.599 Y1.4896
G1 X2.6021 Y1.4901
G1 X2.6053 Y1.4902
G1 X2.6083 Y1.4901
G1 X2.7547 Y1.4901
G0 Z0.125
G0 X2.7547 Y1.4902
G1 Z-0.05 F10
G1 X2.7578 Y1.49 F30
G1 X2.7609 Y1.4902
G1 X2.7639 Y1.4907
G1 X2.7668 Y1.4916
G1 X2.7697 Y1.4928
G1 X2.7724 Y1.4946
G1 X2.7748 Y1.4965
G1 X2.777 Y1.4986
G1 X2.7789 Y1.5011
G1 X2.7805 Y1.5037
G1 X2.7818 Y1.5066
G1 X2.7827 Y1.5095
G1 X2.7834 Y1.5126
G1 X2.7834 Y1.5924
G0 Z0.125
G0 X2.7833 Y1.5924
G1 Z-0.05 F10
G1 X2.7834 Y1.5958 F30
G1 X2.7833 Y1.5992
G1 X2.7827 Y1.6025
G1 X2.7818 Y1.6057
G1 X2.7805 Y1.6089
G1 X2.779 Y1.6119
G1 X2.7771 Y1.6146
G1 X2.7751 Y1.6172
G1 X2.7726 Y1.6196
G1 X2.77 Y1.6216
G1 X2.7671 Y1.6235
G1 X2.7642 Y1.6249
G1 X2.761 Y1.6261
G1 X2.7578 Y1.627
G1 X2.7544 Y1.6274
G0 Z0.125
G0 X2.7546 Y1.6276
G1 Z-0.05 F10
G1 X2.601 Y1.6276 F30
G0 Z0.125
G0 X2.601 Y1.6277
G1 Z-0.05 F10
G1 X2.598 Y1.6281 F30
G1 X2.5951 Y1.6291
G1 X2.5922 Y1.6302
G1 X2.5896 Y1.6317
G1 X2.5871 Y1.6335
G1 X2.5849 Y1.6355
G1 X2.5828 Y1.6378
G1 X2.5811 Y1.6402
G1 X2.5796 Y1.643
G1 X2.5785 Y1.6458
G1 X2.5776 Y1.6487
G1 X2.5771 Y1.6516
G1 X2.5769 Y1.6548
G1 X2.5771 Y1.6578
G1 X2.5771 Y1.7626
G1 X2.5774 Y1.7664
G1 X2.578 Y1.7703
G1 X2.5788 Y1.7741
G1 X2.5801 Y1.7779
G1 X2.5818 Y1.7815
G1 X2.5838 Y1.7848
G1 X2.5863 Y1.788
G1 X2.5888 Y1.7909
G1 X2.5917 Y1.7935
G1 X2.5949 Y1.7958
G1 X2.5983 Y1.7979
G1 X2.6018 Y1.7995
G1 X2.6055 Y1.8008
G1 X2.6093 Y1.8018
G1 X2.6132 Y1.8024
G1 X2.6171 Y1.8026
G1 X2.9169 Y1.8026
G1 X2.9224 Y1.8034
G1 X2.9276 Y1.8046
G1 X2.9328 Y1.8063
G1 X2.9379 Y1.8083
G1 X2.9428 Y1.8105
G1 X2.9475 Y1.8133
G1 X2.9521 Y1.8162
G1 X2.9564 Y1.8197
G1 X2.9604 Y1.8232
G1 X2.9642 Y1.8271
G1 X2.9677 Y1.8314
G1 X2.9709 Y1.8358
G1 X2.9739 Y1.8404
G1 X2.9765 Y1.8453
G1 X2.9785 Y1.8503
G1 X2.9804 Y1.8554
G1 X2.9818 Y1.8607
G1 X2.983 Y1.8659
G1 X2.9836 Y1.8714
G1 X2.9839 Y1.8768
G1 X2.9838 Y1.8823
G1 X2.9833 Y1.8878
G1 X2.9833 Y1.9038
G1 X2.9836 Y1.909
G1 X2.9836 Y1.9143
G1 X2.983 Y1.9195
G1 X2.9822 Y1.9248
G1 X2.981 Y1.9299
G1 X2.9793 Y1.935
G1 X2.9773 Y1.9398
G1 X2.975 Y1.9447
G1 X2.9724 Y1.9492
G1 X2.9695 Y1.9536
G1 X2.9661 Y1.9577
G1 X2.9626 Y1.9616
G1 X2.9588 Y1.9654
G1 X2.9548 Y1.9686
G1 X2.9505 Y1.9717
G1 X2.946 Y1.9746
G1 X2.9412 Y1.9769
G1 X2.9364 Y1.9791
G1 X2.9313 Y1.9807
G1 X2.9262 Y1.9822
G1 X2.9211 Y1.9832
G1 X2.9157 Y1.9838
G0 Z0.125
G0 X2.9157 Y1.9839
G1 Z-0.05 F10
G1 X2.4271 Y1.9839 F30
G0 Z0.125
G0 X2.4271 Y1.9838
G1 Z-0.05 F10
G1 X2.4219 Y1.9832 F30
G1 X2.4169 Y1.982
G1 X2.4119 Y1.9807
G1 X2.4071 Y1.9788
G1 X2.4025 Y1.9768
G1 X2.3979 Y1.9743
G1 X2.3936 Y1.9715
G1 X2.3894 Y1.9684
G1 X2.3856 Y1.9648
G1 X2.3821 Y1.9612
G1 X2.3787 Y1.9572
G1 X2.3758 Y1.9531
G1 X2.373 Y1.9486
G1 X2.3707 Y1.944
G1 X2.3688 Y1.9392
G1 X2.3671 Y1.9344
G1 X2.3658 Y1.9294
G1 X2.365 Y1.9243
G1 X2.3644 Y1.9192
G1 X2.3644 Y1.914
G1 X2.3646 Y1.9089
G1 X2.3646 Y1.2089
G1 X2.3649 Y1.2035
G1 X2.3655 Y1.1981
G1 X2.3663 Y1.193
G1 X2.3676 Y1.1878
G1 X2.3694 Y1.1827
G1 X2.3714 Y1.1777
G1 X2.3739 Y1.173
G1 X2.3765 Y1.1683
G1 X2.3797 Y1.164
G1 X2.3829 Y1.1598
G1 X2.3867 Y1.1559
G1 X2.3905 Y1.1522
G1 X2.3947 Y1.1489
G1 X2.3991 Y1.1458
G1 X2.4038 Y1.1431
G1 X2.4084 Y1.1407
G1 X2.4135 Y1.1386
G1 X2.4186 Y1.1369
G1 X2.4237 Y1.1356
G1 X2.4289 Y1.1347
G1 X2.4342 Y1.1341
G1 X2.4396 Y1.1338
G1 X2.9608 Y1.1338
G0 Z0.125
G0 X3.0927 Y1.1337
G1 Z-0.05 F10
G1 X3.2253 Y1.1337 F30
G1 X3.2292 Y1.1343
G1 X3.233 Y1.135
G1 X3.2368 Y1.1363
G1 X3.2405 Y1.1378
G1 X3.2439 Y1.1396
G1 X3.2472 Y1.1419
G1 X3.2503 Y1.1443
G1 X3.2533 Y1.1471
G1 X3.2559 Y1.1501
G1 X3.258 Y1.1533
G1 X3.26 Y1.1567
G1 X3.2617 Y1.1603
G1 X3.263 Y1.164
G1 X3.2641 Y1.1678
G1 X3.2646 Y1.1717
G1 X3.2649 Y1.1757
G1 X3.2649 Y1.1796
G1 X3.2649 Y1.2967
G1 X3.265 Y1.3013
G1 X3.2656 Y1.3059
G1 X3.2665 Y1.3104
G1 X3.2678 Y1.3148
G1 X3.2695 Y1.3192
G1 X3.2715 Y1.3232
G1 X3.2739 Y1.3273
G1 X3.2766 Y1.3309
G1 X3.2796 Y1.3346
G1 X3.2828 Y1.3378
G1 X3.2865 Y1.3408
G1 X3.2901 Y1.3435
G1 X3.2942 Y1.3459
G1 X3.2982 Y1.3479
G1 X3.3025 Y1.3496
G1 X3.307 Y1.3509
G1 X3.3115 Y1.3518
G1 X3.3161 Y1.3524
G1 X3.3207 Y1.3525
G1 X3.3497 Y1.3525
G1 X3.3543 Y1.3524
G1 X3.3589 Y1.3518
G1 X3.3634 Y1.3509
G1 X3.3679 Y1.3494
G1 X3.3723 Y1.3478
G1 X3.3765 Y1.3456
G1 X3.3804 Y1.3433
G1 X3.3842 Y1.3405
G1 X3.3878 Y1.3376
G1 X3.3911 Y1.3341
G1 X3.394 Y1.3307
G0 Z0.125
G0 X3.394 Y1.3306
G1 Z-0.05 F10
G1 X3.5244 Y1.1603 F30
G1 X3.527 Y1.1565
G1 X3.5297 Y1.1529
G1 X3.5328 Y1.1495
G1 X3.5362 Y1.1464
G1 X3.5398 Y1.1436
G1 X3.5437 Y1.1411
G1 X3.5477 Y1.1389
G1 X3.5519 Y1.137
G1 X3.5563 Y1.1356
G1 X3.5608 Y1.1345
G1 X3.5653 Y1.1338
G0 Z0.125
G0 X3.5653 Y1.1337
G1 Z-0.05 F10
G1 X3.6669 Y1.1337 F30
G1 X3.6706 Y1.134
G1 X3.6743 Y1.1345
G1 X3.6778 Y1.1355
G1 X3.6813 Y1.1369
G1 X3.6846 Y1.1385
G1 X3.6877 Y1.1406
G1 X3.6906 Y1.1428
G1 X3.6933 Y1.1455
G1 X3.6955 Y1.1484
G1 X3.6976 Y1.1515
G1 X3.6992 Y1.1548
G1 X3.7006 Y1.1583
G1 X3.7016 Y1.1618
G1 X3.7021 Y1.1655
G1 X3.7024 Y1.1692
G1 X3.7024 Y1.2368
G1 X3.7023 Y1.2439
G1 X3.7018 Y1.251
G1 X3.7011 Y1.2581
G1 X3.6999 Y1.2651
G1 X3.6985 Y1.2721
G1 X3.6966 Y1.279
G1 X3.6943 Y1.2858
G1 X3.6918 Y1.2925
G1 X3.6889 Y1.2989
G1 X3.6857 Y1.3053
G1 X3.682 Y1.3115
G1 X3.6781 Y1.3174
G1 X3.6739 Y1.3231
G1 X3.6694 Y1.3288
G1 X3.6647 Y1.334
G0 Z0.125
G0 X3.6642 Y1.3345
G1 Z-0.05 F10
G1 X3.6599 Y1.3391 F30
G1 X3.6558 Y1.3439
G1 X3.6521 Y1.349
G1 X3.6488 Y1.3543
G1 X3.6456 Y1.3598
G1 X3.6428 Y1.3655
G1 X3.6405 Y1.3713
G1 X3.6383 Y1.3772
G1 X3.6367 Y1.3832
G1 X3.6354 Y1.3895
G1 X3.6344 Y1.3957
G1 X3.6338 Y1.402
G1 X3.6336 Y1.4083
G0 Z0.125
G0 X3.2386 Y1.9901
G1 Z-0.05 F10
G1 X3.2304 Y1.99 F30
G1 X3.2223 Y1.9896
G1 X3.2142 Y1.9888
G1 X3.2062 Y1.9876
G1 X3.1982 Y1.9859
G1 X3.1903 Y1.9839
G1 X3.1826 Y1.9817
G1 X3.1749 Y1.979
G1 X3.1673 Y1.9759
G1 X3.16 Y1.9724
G1 X3.1528 Y1.9688
G1 X3.1458 Y1.9647
G1 X3.1389 Y1.9602
G1 X3.1324 Y1.9555
G1 X3.126 Y1.9504
G1 X3.12 Y1.945
G1 X3.114 Y1.9393
G1 X3.1086 Y1.9335
G1 X3.1032 Y1.9274
G1 X3.0983 Y1.9208
G1 X3.0935 Y1.9143
G1 X3.0892 Y1.9073
G1 X3.0851 Y1.9003
G1 X3.0815 Y1.8931
G1 X3.0781 Y1.8856
G1 X3.0751 Y1.8781
G1 X3.0725 Y1.8704
G1 X3.0704 Y1.8627
G1 X3.0684 Y1.8548
G1 X3.0669 Y1.8467
G1 X3.0659 Y1.8387
G1 X3.0652 Y1.8306
G1 X3.0647 Y1.8225
G0 Z0.125
G0 X3.0648 Y1.8225
G1 Z-0.05 F10
G1 X3.0648 Y1.168 F30
G1 X3.0646 Y1.1648
G1 X3.0648 Y1.1615
G1 X3.0653 Y1.1583
G1 X3.0662 Y1.1551
G1 X3.0674 Y1.1521
G1 X3.069 Y1.1491
G1 X3.0706 Y1.1464
G1 X3.0728 Y1.1439
G1 X3.075 Y1.1415
G1 X3.0776 Y1.1395
G1 X3.0803 Y1.1378
G1 X3.0832 Y1.1363
G1 X3.0863 Y1.1351
G1 X3.0895 Y1.1344
G1 X3.0927 Y1.1338
G0 Z0.125
G0 X3.6335 Y1.4083
G1 Z-0.05 F10
G1 X3.6337 Y1.4148 F30
G1 X3.6343 Y1.4214
G1 X3.6353 Y1.4277
G1 X3.6366 Y1.4342
G1 X3.6381 Y1.4405
G1 X3.64 Y1.4469
G1 X3.6424 Y1.453
G1 X3.6449 Y1.459
G1 X3.6477 Y1.4648
G1 X3.6509 Y1.4705
G1 X3.6545 Y1.4762
G1 X3.6581 Y1.4814
G1 X3.6622 Y1.4867
G1 X3.6666 Y1.4915
G1 X3.6711 Y1.4963
G1 X3.6756 Y1.501
G1 X3.6796 Y1.506
G1 X3.6834 Y1.5112
G1 X3.687 Y1.5165
G1 X3.6902 Y1.5221
G1 X3.6929 Y1.5279
G1 X3.6954 Y1.534
G1 X3.6975 Y1.54
G1 X3.6992 Y1.5463
G1 X3.7006 Y1.5526
G1 X3.7016 Y1.5589
G1 X3.7021 Y1.5654
G1 X3.7024 Y1.5718
G1 X3.7024 Y1.7776
G0 Z0.125
G0 X3.7023 Y1.7776
G1 Z-0.05 F10
G1 X3.702 Y1.784 F30
G1 X3.7014 Y1.7903
G1 X3.7005 Y1.7965
G1 X3.6992 Y1.8028
G1 X3.6974 Y1.809
G1 X3.6954 Y1.8149
G1 X3.6929 Y1.8209
G1 X3.6902 Y1.8267
G1 X3.6871 Y1.8321
G1 X3.6835 Y1.8376
G1 X3.6797 Y1.8427
G1 X3.6756 Y1.8475
G1 X3.6713 Y1.8523
G1 X3.5779 Y1.9457
G1 X3.5724 Y1.9508
G1 X3.5668 Y1.9558
G1 X3.561 Y1.9603
G1 X3.555 Y1.9646
G1 X3.5487 Y1.9685
G1 X3.5423 Y1.9722
G1 X3.5355 Y1.9756
G1 X3.5289 Y1.9786
G1 X3.5219 Y1.9813
G1 X3.5149 Y1.9836
G1 X3.5077 Y1.9856
G1 X3.5004 Y1.9871
G1 X3.4932 Y1.9884
G1 X3.4857 Y1.9894
G1 X3.4784 Y1.9899
G1 X3.4709 Y1.9901
G1 X3.2387 Y1.9901
G0 Z0.125
G0 X3.27 Y1.6581
G1 Z-0.05 F10
G1 X3.2699 Y1.665 F30
G1 X3.27 Y1.672
G1 X3.2706 Y1.6789
G1 X3.2716 Y1.6857
G1 X3.2731 Y1.6924
G1 X3.2747 Y1.6992
G1 X3.277 Y1.7058
G1 X3.2795 Y1.7122
G1 X3.2823 Y1.7185
G1 X3.2856 Y1.7246
G1 X3.2892 Y1.7305
G1 X3.2931 Y1.7362
G1 X3.2974 Y1.7415
G1 X3.3019 Y1.7467
G1 X3.3069 Y1.7517
G1 X3.312 Y1.7563
G1 X3.3173 Y1.7606
G1 X3.323 Y1.7648
G1 X3.3288 Y1.7683
G1 X3.335 Y1.7718
G1 X3.3411 Y1.7747
G1 X3.3475 Y1.7773
G1 X3.3541 Y1.7796
G1 X3.3607 Y1.7815
G1 X3.3675 Y1.783
G1 X3.3743 Y1.7841
G1 X3.3812 Y1.7848
G1 X3.3881 Y1.785
G1 X3.395 Y1.7849
G1 X3.402 Y1.7845
G1 X3.4087 Y1.7836
G1 X3.4155 Y1.7823
G1 X3.4223 Y1.7805
G1 X3.4289 Y1.7785
G1 X3.4353 Y1.776
G1 X3.4416 Y1.7733
G1 X3.4479 Y1.7702
G1 X3.4537 Y1.7665
G1 X3.4595 Y1.7628
G1 X3.4651 Y1.7586
G1 X3.4703 Y1.7541
G1 X3.4753 Y1.7492
G1 X3.48 Y1.7442
G1 X3.4844 Y1.7389
G1 X3.4886 Y1.7333
G1 X3.4924 Y1.7275
G1 X3.4957 Y1.7216
G1 X3.4989 Y1.7154
G1 X3.5015 Y1.709
G1 X3.5039 Y1.7025
G1 X3.5059 Y1.6959
G1 X3.5074 Y1.6891
G1 X3.5086 Y1.6822
G1 X3.5094 Y1.6755
G1 X3.5098 Y1.6686
G1 X3.5098 Y1.6616
G1 X3.5094 Y1.6547
G1 X3.5086 Y1.6478
G1 X3.5074 Y1.6411
G1 X3.5059 Y1.6343
G1 X3.5039 Y1.6277
G1 X3.5015 Y1.6211
G1 X3.4989 Y1.6147
G1 X3.4957 Y1.6086
G1 X3.4924 Y1.6025
G1 X3.4886 Y1.5967
G1 X3.4844 Y1.5913
G1 X3.48 Y1.5859
G1 X3.4753 Y1.5808
G1 X3.4703 Y1.5761
G1 X3.4651 Y1.5716
G1 X3.4595 Y1.5674
G1 X3.4537 Y1.5636
G1 X3.4479 Y1.56
G1 X3.4416 Y1.5569
G1 X3.4353 Y1.554
G1 X3.4289 Y1.5515
G1 X3.4223 Y1.5495
G1 X3.4155 Y1.5479
G1 X3.4087 Y1.5465
G1 X3.402 Y1.5457
G1 X3.395 Y1.5451
G1 X3.3881 Y1.5451
G1 X3.3812 Y1.5454
G1 X3.3743 Y1.5461
G1 X3.3675 Y1.5471
G1 X3.3607 Y1.5487
G1 X3.3541 Y1.5506
G1 X3.3475 Y1.5527
G1 X3.3411 Y1.5553
G1 X3.335 Y1.5584
G1 X3.3288 Y1.5617
G1 X3.323 Y1.5654
G1 X3.3173 Y1.5694
G1 X3.312 Y1.5738
G1 X3.3069 Y1.5783
G1 X3.3019 Y1.5833
G1 X3.2974 Y1.5885
G1 X3.2931 Y1.594
G1 X3.2892 Y1.5997
G1 X3.2856 Y1.6056
G1 X3.2823 Y1.6117
G1 X3.2795 Y1.6179
G1 X3.277 Y1.6243
G1 X3.2747 Y1.631
G1 X3.2731 Y1.6376
G1 X3.2716 Y1.6445
G1 X3.2706 Y1.6513
G1 X3.27 Y1.6581
G0 Z0.125
G0 X0.8381 Y2.6784
G1 Z-0.05 F10
G1 X0.8381 Y2.5095 F30
G0 Z0.125
G0 X0.6005 Y2.2658
G1 Z-0.05 F10
G1 X0.3818 Y2.2658 F30
G1 X0.3818 Y2.072
G1 X0.1819 Y2.072
G1 X0.1819 Y2.9409
G1 X0.6318 Y2.9409
G0 Z0.125
G0 X0.6006 Y2.2658
G1 Z-0.05 F10
G1 X0.6112 Y2.2683 F30
G1 X0.6219 Y2.2712
G1 X0.6322 Y2.2744
G1 X0.6425 Y2.2779
G1 X0.6527 Y2.282
G1 X0.6628 Y2.2862
G1 X0.6727 Y2.291
G1 X0.6825 Y2.296
G1 X0.6919 Y2.3014
G1 X0.7012 Y2.3071
G1 X0.7103 Y2.313
G1 X0.7192 Y2.3194
G1 X0.7279 Y2.3261
G1 X0.7363 Y2.3331
G1 X0.7445 Y2.3404
G1 X0.7524 Y2.3479
G1 X0.76 Y2.3557
G1 X0.7674 Y2.3638
G1 X0.7744 Y2.3722
G1 X0.7813 Y2.3808
G1 X0.7877 Y2.3895
G1 X0.7937 Y2.3987
G1 X0.7995 Y2.408
G1 X0.805 Y2.4174
G1 X0.8102 Y2.4271
G1 X0.8149 Y2.4368
G1 X0.8193 Y2.4469
G1 X0.8235 Y2.4571
G1 X0.827 Y2.4673
G1 X0.8305 Y2.4778
G1 X0.8333 Y2.4883
G1 X0.8359 Y2.4989
G1 X0.8382 Y2.5095
G0 Z0.125
G0 X0.8381 Y2.6783
G1 Z-0.05 F10
G1 X0.837 Y2.689 F30
G1 X0.8357 Y2.6995
G1 X0.8338 Y2.7102
G1 X0.8317 Y2.7206
G1 X0.8292 Y2.7311
G1 X0.8262 Y2.7415
G1 X0.8229 Y2.7517
G1 X0.8193 Y2.7618
G1 X0.8153 Y2.7716
G1 X0.811 Y2.7815
G1 X0.8063 Y2.7912
G1 X0.8013 Y2.8006
G1 X0.796 Y2.8098
G1 X0.7903 Y2.819
G1 X0.7842 Y2.8279
G1 X0.7779 Y2.8365
G1 X0.7713 Y2.8449
G1 X0.7643 Y2.8531
G1 X0.7572 Y2.8611
G1 X0.7496 Y2.8688
G1 X0.7419 Y2.8761
G1 X0.7339 Y2.8832
G1 X0.7256 Y2.8901
G1 X0.7171 Y2.8966
G1 X0.7084 Y2.9029
G1 X0.6994 Y2.9087
G1 X0.6903 Y2.9143
G1 X0.6809 Y2.9197
G1 X0.6714 Y2.9245
G1 X0.6617 Y2.9291
G1 X0.652 Y2.9334
G1 X0.6419 Y2.9373
G1 X0.6317 Y2.9408
G0 Z0.125
G0 X0.3932 Y2.6089
G1 Z-0.05 F10
G1 X0.3931 Y2.6159 F30
G1 X0.3932 Y2.6228
G1 X0.3938 Y2.6297
G1 X0.3949 Y2.6364
G1 X0.3962 Y2.6433
G1 X0.3979 Y2.65
G1 X0.4001 Y2.6566
G1 X0.4026 Y2.663
G1 X0.4055 Y2.6693
G1 X0.4089 Y2.6753
G1 X0.4124 Y2.6813
G1 X0.4163 Y2.687
G1 X0.4206 Y2.6924
G1 X0.4251 Y2.6975
G1 X0.43 Y2.7026
G1 X0.4352 Y2.7071
G1 X0.4405 Y2.7115
G1 X0.4462 Y2.7155
G1 X0.452 Y2.7192
G1 X0.4581 Y2.7225
G1 X0.4644 Y2.7256
G1 X0.4708 Y2.7281
G1 X0.4772 Y2.7304
G1 X0.4839 Y2.7323
G1 X0.4907 Y2.7338
G1 X0.4976 Y2.7349
G1 X0.5044 Y2.7356
G1 X0.5113 Y2.7358
G1 X0.5182 Y2.7358
G1 X0.5251 Y2.7352
G1 X0.532 Y2.7344
G1 X0.5387 Y2.7331
G1 X0.5455 Y2.7313
G1 X0.5521 Y2.7294
G1 X0.5585 Y2.7268
G1 X0.5648 Y2.7241
G1 X0.571 Y2.721
G1 X0.5769 Y2.7173
G1 X0.5827 Y2.7135
G1 X0.5882 Y2.7094
G1 X0.5935 Y2.7049
G1 X0.5985 Y2.7001
G1 X0.6032 Y2.695
G1 X0.6076 Y2.6897
G1 X0.6118 Y2.6841
G1 X0.6156 Y2.6784
G1 X0.6189 Y2.6724
G1 X0.622 Y2.6662
G1 X0.6247 Y2.6598
G1 X0.6271 Y2.6533
G1 X0.629 Y2.6466
G1 X0.6306 Y2.6399
G1 X0.6318 Y2.6331
G1 X0.6327 Y2.6262
G1 X0.633 Y2.6194
G1 X0.633 Y2.6124
G1 X0.6327 Y2.6055
G1 X0.6318 Y2.5987
G1 X0.6306 Y2.5919
G1 X0.629 Y2.5851
G1 X0.6271 Y2.5785
G1 X0.6247 Y2.5719
G1 X0.622 Y2.5655
G1 X0.6189 Y2.5594
G1 X0.6156 Y2.5534
G1 X0.6118 Y2.5476
G1 X0.6076 Y2.542
G1 X0.6032 Y2.5367
G1 X0.5985 Y2.5317
G1 X0.5935 Y2.5269
G1 X0.5882 Y2.5224
G1 X0.5827 Y2.5182
G1 X0.5769 Y2.5144
G1 X0.571 Y2.5107
G1 X0.5648 Y2.5077
G1 X0.5585 Y2.5049
G1 X0.5521 Y2.5023
G1 X0.5455 Y2.5004
G1 X0.5387 Y2.4986
G1 X0.532 Y2.4973
G1 X0.5251 Y2.4965
G1 X0.5182 Y2.496
G1 X0.5113 Y2.4959
G1 X0.5044 Y2.4961
G1 X0.4976 Y2.4969
G1 X0.4907 Y2.4979
G1 X0.4839 Y2.4995
G1 X0.4772 Y2.5014
G1 X0.4708 Y2.5036
G1 X0.4644 Y2.5062
G1 X0.4581 Y2.5092
G1 X0.452 Y2.5126
G1 X0.4462 Y2.5162
G1 X0.4405 Y2.5202
G1 X0.4352 Y2.5246
G1 X0.43 Y2.5291
G1 X0.4251 Y2.5342
G1 X0.4206 Y2.5393
G1 X0.4163 Y2.5448
G1 X0.4124 Y2.5505
G1 X0.4089 Y2.5564
G1 X0.4055 Y2.5624
G1 X0.4026 Y2.5687
G1 X0.4001 Y2.5751
G1 X0.3979 Y2.5818
G1 X0.3962 Y2.5884
G1 X0.3949 Y2.5953
G1 X0.3938 Y2.6021
G1 X0.3932 Y2.6089
G0 Z0.125
G0 X1.3697 Y2.9353
G1 Z-0.05 F10
G1 X1.3785 Y2.9354 F30
G1 X1.3873 Y2.9351
G1 X1.3959 Y2.9344
G1 X1.4046 Y2.9333
G1 X1.4132 Y2.9319
G1 X1.4218 Y2.9301
G1 X1.4302 Y2.9278
G1 X1.4385 Y2.9253
G1 X1.4468 Y2.9225
G1 X1.4549 Y2.9192
G1 X1.4628 Y2.9156
G1 X1.4706 Y2.9116
G1 X1.4782 Y2.9073
G1 X1.4856 Y2.9027
G1 X1.4928 Y2.8978
G1 X1.4998 Y2.8925
G1 X1.5066 Y2.8869
G1 X1.513 Y2.8811
G1 X1.5193 Y2.8749
G1 X1.5252 Y2.8685
G1 X1.5309 Y2.862
G1 X1.5362 Y2.855
G1 X1.5413 Y2.848
G1 X1.5461 Y2.8407
G1 X1.5506 Y2.8332
G1 X1.5546 Y2.8255
G1 X1.5584 Y2.8175
G1 X1.5618 Y2.8096
G1 X1.5649 Y2.8014
G1 X1.5677 Y2.7931
G1 X1.5699 Y2.7847
G1 X1.5719 Y2.7762
G1 X1.5735 Y2.7676
G1 X1.5748 Y2.759
G1 X1.5755 Y2.7503
G1 X1.5761 Y2.7415
G1 X1.5761 Y2.2791
G1 X1.5766 Y2.2703
G1 X1.5764 Y2.2617
G1 X1.5761 Y2.253
G1 X1.5752 Y2.2442
G1 X1.5741 Y2.2357
G1 X1.5724 Y2.2271
G1 X1.5705 Y2.2185
G1 X1.5681 Y2.2102
G1 X1.5654 Y2.2019
G1 X1.5623 Y2.1937
G1 X1.5589 Y2.1858
G1 X1.5551 Y2.1778
G1 X1.5509 Y2.1702
G1 X1.5464 Y2.1628
G1 X1.5417 Y2.1554
G1 X1.5366 Y2.1484
G1 X1.531 Y2.1417
G1 X1.5253 Y2.1351
G1 X1.5193 Y2.1289
G1 X1.513 Y2.1229
G1 X1.5063 Y2.1171
G1 X1.4996 Y2.1118
G1 X1.4925 Y2.1066
G1 X1.4851 Y2.1018
G1 X1.4778 Y2.0974
G1 X1.4701 Y2.0933
G1 X1.4621 Y2.0896
G1 X1.4542 Y2.0862
G1 X1.446 Y2.0831
G1 X1.4377 Y2.0803
G1 X1.4293 Y2.0781
G1 X1.4207 Y2.0762
G1 X1.4122 Y2.0747
G1 X1.4035 Y2.0736
G1 X1.3949 Y2.0728
G0 Z0.125
G0 X1.401 Y2.0728
G1 Z-0.05 F10
G1 X1.101 Y2.0728 F30
G1 X1.0928 Y2.0723
G1 X1.0846 Y2.072
G1 X1.0764 Y2.0723
G1 X1.0683 Y2.073
G1 X1.0602 Y2.0739
G1 X1.052 Y2.0754
G1 X1.0439 Y2.0771
G1 X1.036 Y2.0793
G1 X1.0283 Y2.0819
G1 X1.0206 Y2.0847
G1 X1.013 Y2.0879
G1 X1.0056 Y2.0916
G1 X0.9984 Y2.0955
G1 X0.9914 Y2.0999
G1 X0.9846 Y2.1045
G1 X0.9781 Y2.1095
G1 X0.9718 Y2.1147
G1 X0.9658 Y2.1203
G1 X0.96 Y2.1261
G1 X0.9544 Y2.1323
G1 X0.9492 Y2.1386
G1 X0.9444 Y2.1452
G1 X0.9398 Y2.152
G1 X0.9355 Y2.1591
G1 X0.9316 Y2.1663
G1 X0.9281 Y2.1737
G1 X0.9249 Y2.1813
G1 X0.922 Y2.189
G1 X0.9197 Y2.1968
G1 X0.9175 Y2.2048
G1 X0.9159 Y2.2128
G1 X0.9144 Y2.2209
G1 X0.9135 Y2.2291
G1 X0.9135 Y2.7228
G1 X0.9131 Y2.7314
G1 X0.9132 Y2.7402
G1 X0.9136 Y2.749
G1 X0.9144 Y2.7577
G1 X0.9155 Y2.7664
G1 X0.9172 Y2.775
G1 X0.9191 Y2.7835
G1 X0.9213 Y2.7919
G1 X0.9239 Y2.8002
G1 X0.9269 Y2.8085
G1 X0.9303 Y2.8166
G1 X0.934 Y2.8244
G1 X0.9382 Y2.8321
G1 X0.9425 Y2.8397
G1 X0.9473 Y2.8471
G1 X0.9523 Y2.8543
G1 X0.9576 Y2.8612
G1 X0.9632 Y2.8678
G1 X0.9692 Y2.8742
G1 X0.9754 Y2.8805
G1 X0.9818 Y2.8863
G1 X0.9886 Y2.892
G1 X0.9956 Y2.8972
G1 X1.0028 Y2.9022
G1 X1.0101 Y2.9068
G1 X1.0176 Y2.9112
G1 X1.0254 Y2.9153
G1 X1.0334 Y2.9189
G1 X1.0415 Y2.9223
G1 X1.0498 Y2.9252
G1 X1.0581 Y2.9278
G1 X1.0665 Y2.9301
G1 X1.075 Y2.932
G1 X1.0837 Y2.9335
G1 X1.0923 Y2.9346
G1 X1.101 Y2.9353
G1 X1.3698 Y2.9353
G0 Z0.125
G0 X1.1198 Y2.4041
G1 Z-0.05 F10
G1 X1.1198 Y2.6165 F30
G1 X1.1209 Y2.6235
G1 X1.1225 Y2.6302
G1 X1.1243 Y2.6369
G1 X1.1265 Y2.6434
G1 X1.1291 Y2.6498
G1 X1.1321 Y2.6561
G1 X1.1354 Y2.6623
G1 X1.1389 Y2.6682
G1 X1.143 Y2.6739
G1 X1.1471 Y2.6794
G1 X1.1516 Y2.6846
G1 X1.1565 Y2.6896
G1 X1.1616 Y2.6943
G1 X1.1669 Y2.6987
G1 X1.1725 Y2.7027
G1 X1.1783 Y2.7065
G1 X1.1844 Y2.7101
G1 X1.1904 Y2.7132
G1 X1.1968 Y2.716
G1 X1.2033 Y2.7185
G1 X1.21 Y2.7205
G1 X1.2166 Y2.7223
G1 X1.2234 Y2.7236
G1 X1.2303 Y2.7246
G1 X1.2373 Y2.7252
G1 X1.2441 Y2.7254
G1 X1.251 Y2.7252
G1 X1.2579 Y2.7247
G1 X1.2649 Y2.7237
G1 X1.2716 Y2.7224
G1 X1.2783 Y2.7206
G1 X1.2849 Y2.7186
G1 X1.2915 Y2.7163
G1 X1.2979 Y2.7134
G1 X1.304 Y2.7103
G1 X1.3101 Y2.7069
G1 X1.3159 Y2.7032
G1 X1.3215 Y2.6991
G1 X1.3268 Y2.6947
G1 X1.3319 Y2.6899
G1 X1.3368 Y2.6851
G1 X1.3414 Y2.6797
G1 X1.3456 Y2.6744
G1 X1.3496 Y2.6687
G1 X1.3532 Y2.6628
G1 X1.3566 Y2.6567
G1 X1.3595 Y2.6504
G1 X1.3621 Y2.644
G1 X1.3644 Y2.6375
G1 X1.3663 Y2.6308
G1 X1.3678 Y2.6241
G1 X1.369 Y2.6171
G1 X1.3697 Y2.6104
G0 Z0.125
G0 X1.3698 Y2.6102
G1 Z-0.05 F10
G1 X1.3698 Y2.3978 F30
G0 Z0.125
G0 X1.3697 Y2.3978
G1 Z-0.05 F10
G1 X1.3687 Y2.3908 F30
G1 X1.3671 Y2.3842
G1 X1.3652 Y2.3774
G1 X1.3631 Y2.3709
G1 X1.3605 Y2.3645
G1 X1.3575 Y2.3582
G1 X1.3542 Y2.3521
G1 X1.3506 Y2.3461
G1 X1.3466 Y2.3404
G1 X1.3424 Y2.335
G1 X1.3379 Y2.3298
G1 X1.3331 Y2.3248
G1 X1.328 Y2.32
G1 X1.3226 Y2.3156
G1 X1.3171 Y2.3116
G1 X1.3113 Y2.3078
G1 X1.3052 Y2.3043
G1 X1.2992 Y2.3012
G1 X1.2928 Y2.2983
G1 X1.2862 Y2.2958
G1 X1.2796 Y2.2938
G1 X1.2729 Y2.292
G1 X1.2661 Y2.2907
G1 X1.2593 Y2.2898
G1 X1.2523 Y2.2892
G1 X1.2454 Y2.289
G1 X1.2386 Y2.2892
G1 X1.2317 Y2.2897
G1 X1.2247 Y2.2906
G1 X1.2179 Y2.2919
G1 X1.2113 Y2.2937
G1 X1.2046 Y2.2957
G1 X1.1981 Y2.2981
G1 X1.1917 Y2.3008
G1 X1.1855 Y2.304
G1 X1.1795 Y2.3075
G1 X1.1737 Y2.3111
G1 X1.1681 Y2.3153
G1 X1.1628 Y2.3197
G1 X1.1577 Y2.3244
G1 X1.1528 Y2.3293
G1 X1.1482 Y2.3346
G1 X1.1439 Y2.34
G1 X1.14 Y2.3456
G1 X1.1363 Y2.3516
G1 X1.133 Y2.3576
G1 X1.13 Y2.3639
G1 X1.1274 Y2.3703
G1 X1.1252 Y2.3768
G1 X1.1233 Y2.3836
G1 X1.1217 Y2.3902
G1 X1.1206 Y2.3971
G1 X1.1198 Y2.404
G0 Z0.125
G0 X1.7057 Y2.9221
G1 Z-0.05 F10
G1 X1.7996 Y2.9221 F30
G1 X1.8043 Y2.9218
G1 X1.8088 Y2.9208
G1 X1.8132 Y2.9198
G1 X1.8174 Y2.9182
G1 X1.8216 Y2.9163
G1 X1.8255 Y2.9141
G1 X1.8293 Y2.9115
G1 X1.8328 Y2.9086
G1 X1.8362 Y2.9054
G1 X1.8392 Y2.9021
G1 X1.842 Y2.8984
G1 X1.8443 Y2.8946
G1 X1.8465 Y2.8906
G1 X1.8483 Y2.8863
G1 X1.8497 Y2.8819
G1 X1.8507 Y2.8776
G1 X1.8515 Y2.873
G1 X1.8517 Y2.8684
G1 X1.8516 Y2.864
G1 X1.8516 Y2.5158
G1 X1.8515 Y2.5123
G1 X1.8516 Y2.5087
G1 X1.8522 Y2.5052
G1 X1.8532 Y2.5017
G1 X1.8545 Y2.4984
G1 X1.8561 Y2.4952
G1 X1.8581 Y2.4921
G1 X1.8605 Y2.4894
G1 X1.863 Y2.4868
G1 X1.8657 Y2.4845
G1 X1.8688 Y2.4826
G1 X1.8719 Y2.4808
G1 X1.8752 Y2.4795
G1 X1.8786 Y2.4786
G1 X1.8822 Y2.478
G1 X1.8859 Y2.4776
G1 X1.8894 Y2.4778
G1 X1.893 Y2.4782
G1 X1.8964 Y2.4791
G1 X1.8998 Y2.4803
G1 X1.9032 Y2.4819
G1 X1.9061 Y2.4837
G1 X1.909 Y2.4858
G1 X1.9633 Y2.5527
G1 X1.9653 Y2.5545
G1 X1.9677 Y2.5559
G1 X1.9701 Y2.557
G1 X1.9727 Y2.5578
G1 X1.9753 Y2.5582
G1 X1.9779 Y2.5582
G1 X1.9806 Y2.5578
G1 X1.9832 Y2.557
G1 X1.9856 Y2.5559
G1 X1.988 Y2.5545
G1 X1.99 Y2.5527
G0 Z0.125
G0 X1.9899 Y2.5527
G1 Z-0.05 F10
G1 X2.0451 Y2.4849 F30
G1 X2.0474 Y2.4826
G1 X2.0499 Y2.4806
G1 X2.0527 Y2.4788
G1 X2.0557 Y2.4775
G1 X2.0588 Y2.4765
G1 X2.062 Y2.4759
G1 X2.0652 Y2.4755
G1 X2.0684 Y2.4756
G1 X2.0716 Y2.476
G1 X2.0748 Y2.4767
G1 X2.0779 Y2.4778
G1 X2.0807 Y2.4793
G1 X2.0834 Y2.481
G1 X2.0859 Y2.4831
G1 X2.0882 Y2.4854
G1 X2.0902 Y2.4878
G1 X2.092 Y2.4907
G1 X2.0933 Y2.4935
G1 X2.0943 Y2.4966
G1 X2.0949 Y2.4998
G1 X2.0953 Y2.503
G1 X2.0953 Y2.8692
G0 Z0.125
G0 X2.0954 Y2.8692
G1 Z-0.05 F10
G1 X2.0956 Y2.8736 F30
G1 X2.0961 Y2.878
G1 X2.0971 Y2.8823
G1 X2.0984 Y2.8863
G1 X2.0998 Y2.8905
G1 X2.1018 Y2.8944
G1 X2.1041 Y2.8982
G1 X2.1066 Y2.9016
G1 X2.1094 Y2.9051
G1 X2.1124 Y2.908
G1 X2.1158 Y2.911
G1 X2.1194 Y2.9135
G1 X2.1232 Y2.9156
G1 X2.1271 Y2.9176
G1 X2.1311 Y2.9192
G1 X2.1353 Y2.9205
G1 X2.1395 Y2.9214
G1 X2.1438 Y2.9219
G1 X2.1482 Y2.922
G0 Z0.125
G0 X2.1482 Y2.9221
G1 Z-0.05 F10
G1 X2.2425 Y2.9221 F30
G0 Z0.125
G0 X2.2425 Y2.922
G1 Z-0.05 F10
G1 X2.2471 Y2.9217 F30
G1 X2.2517 Y2.9207
G1 X2.2562 Y2.9195
G1 X2.2605 Y2.9181
G1 X2.2648 Y2.9161
G1 X2.2688 Y2.9138
G1 X2.2726 Y2.9112
G1 X2.2763 Y2.9084
G1 X2.2796 Y2.9052
G1 X2.2827 Y2.9017
G1 X2.2854 Y2.8981
G1 X2.2879 Y2.8942
G1 X2.2901 Y2.8901
G1 X2.2919 Y2.8857
G1 X2.2933 Y2.8813
G1 X2.2944 Y2.8768
G1 X2.2951 Y2.8722
G1 X2.2955 Y2.8677
G1 X2.2954 Y2.8631
G1 X2.2954 Y2.1495
G0 Z0.125
G0 X2.1469 Y2.0722
G1 Z-0.05 F10
G1 X2.2305 Y2.0722 F30
G1 X2.2356 Y2.0728
G1 X2.2406 Y2.0738
G1 X2.2456 Y2.0751
G1 X2.2503 Y2.0768
G1 X2.255 Y2.0788
G1 X2.2595 Y2.0812
G1 X2.2638 Y2.0839
G1 X2.2681 Y2.0868
G1 X2.2719 Y2.0901
G1 X2.2756 Y2.0935
G1 X2.2789 Y2.0974
G1 X2.2821 Y2.1013
G1 X2.2849 Y2.1056
G1 X2.2874 Y2.1101
G1 X2.2897 Y2.1146
G1 X2.2916 Y2.1194
G1 X2.293 Y2.1242
G1 X2.2942 Y2.1292
G1 X2.295 Y2.1342
G1 X2.2955 Y2.1393
G1 X2.2956 Y2.1444
G1 X2.2954 Y2.1494
G0 Z0.125
G0 X1.9846 Y2.2266
G1 Z-0.05 F10
G1 X2.0811 Y2.1114 F30
G1 X2.0847 Y2.1067
G1 X2.0888 Y2.1022
G1 X2.0932 Y2.098
G1 X2.0977 Y2.094
G1 X2.1024 Y2.0903
G1 X2.1074 Y2.0869
G1 X2.1126 Y2.0838
G1 X2.1179 Y2.0809
G1 X2.1235 Y2.0785
G1 X2.1291 Y2.0763
G1 X2.1349 Y2.0745
G1 X2.1408 Y2.0731
G1 X2.1468 Y2.0722
G0 Z0.125
G0 X1.9848 Y2.2267
G1 Z-0.05 F10
G1 X1.9837 Y2.2274 F30
G1 X1.9826 Y2.228
G1 X1.9814 Y2.2284
G1 X1.9803 Y2.2285
G0 Z0.125
G0 X1.8007 Y2.072
G1 Z-0.05 F10
G1 X1.807 Y2.0731 F30
G1 X1.8133 Y2.0744
G1 X1.8193 Y2.0762
G1 X1.8255 Y2.0782
G1 X1.8313 Y2.0806
G1 X1.8371 Y2.0833
G1 X1.8427 Y2.0863
G1 X1.8481 Y2.0896
G1 X1.8535 Y2.0932
G1 X1.8585 Y2.0972
G1 X1.8632 Y2.1013
G1 X1.8678 Y2.1057
G1 X1.8721 Y2.1105
G1 X1.8761 Y2.1155
G1 X1.9677 Y2.2257
G1 X1.9696 Y2.2268
G1 X1.9716 Y2.2278
G1 X1.9737 Y2.2284
G1 X1.976 Y2.2287
G1 X1.9781 Y2.2287
G1 X1.9803 Y2.2284
G0 Z0.125
G0 X1.8007 Y2.0722
G1 Z-0.05 F10
G1 X1.7254 Y2.0722 F30
G1 X1.7199 Y2.0725
G1 X1.7145 Y2.0734
G1 X1.7091 Y2.0745
G1 X1.7038 Y2.0762
G1 X1.6987 Y2.0781
G1 X1.6937 Y2.0803
G1 X1.689 Y2.0831
G1 X1.6844 Y2.086
G1 X1.68 Y2.0894
G1 X1.6758 Y2.0929
G1 X1.6719 Y2.0968
G1 X1.6683 Y2.1011
G1 X1.665 Y2.1055
G1 X1.6622 Y2.1101
G1 X1.6596 Y2.115
G1 X1.6572 Y2.12
G1 X1.6553 Y2.1251
G1 X1.6539 Y2.1304
G1 X1.6527 Y2.1357
G1 X1.652 Y2.1412
G1 X1.6515 Y2.1466
G1 X1.6516 Y2.1522
G1 X1.6516 Y2.8679
G1 X1.6519 Y2.8725
G1 X1.6523 Y2.8768
G1 X1.6533 Y2.8812
G1 X1.6545 Y2.8856
G1 X1.6563 Y2.8896
G1 X1.6581 Y2.8937
G1 X1.6604 Y2.8976
G1 X1.663 Y2.9012
G1 X1.666 Y2.9046
G1 X1.6692 Y2.9078
G1 X1.6725 Y2.9106
G1 X1.6762 Y2.9132
G1 X1.68 Y2.9156
G1 X1.684 Y2.9175
G1 X1.6882 Y2.9192
G1 X1.6924 Y2.9204
G1 X1.6968 Y2.9214
G1 X1.7012 Y2.9219
G1 X1.7057 Y2.922
G0 Z0.125
G0 X2.9671 Y2.072
G1 Z-0.05 F10
G1 X2.9703 Y2.0723 F30
G1 X2.9735 Y2.0728
G1 X2.9766 Y2.0737
G1 X2.9797 Y2.075
G1 X2.9824 Y2.0764
G1 X2.9851 Y2.0783
G1 X2.9875 Y2.0805
G1 X2.9896 Y2.0828
G1 X2.9915 Y2.0856
G1 X2.9931 Y2.0884
G1 X2.9944 Y2.0914
G1 X2.9952 Y2.0945
G1 X2.9957 Y2.0977
G1 X2.9959 Y2.1009
G1 X2.9959 Y2.2247
G0 Z0.125
G0 X2.9958 Y2.2246
G1 Z-0.05 F10
G1 X2.9953 Y2.2279 F30
G1 X2.9945 Y2.2312
G1 X2.9933 Y2.2343
G1 X2.9919 Y2.2373
G1 X2.99 Y2.2401
G1 X2.988 Y2.2427
G1 X2.9856 Y2.2451
G1 X2.983 Y2.2472
G1 X2.9803 Y2.2491
G1 X2.9772 Y2.2505
G1 X2.9741 Y2.2518
G1 X2.9709 Y2.2528
G1 X2.9677 Y2.2533
G1 X2.9642 Y2.2535
G1 X2.9609 Y2.2533
G0 Z0.125
G0 X2.9609 Y2.2534
G1 Z-0.05 F10
G1 X2.6271 Y2.2534 F30
G1 X2.6234 Y2.2533
G1 X2.6196 Y2.2535
G1 X2.6159 Y2.2541
G1 X2.6124 Y2.2549
G1 X2.6087 Y2.2562
G1 X2.6054 Y2.2579
G1 X2.6021 Y2.2597
G1 X2.5991 Y2.2619
G1 X2.5961 Y2.2644
G1 X2.5935 Y2.267
G1 X2.5911 Y2.27
G1 X2.5891 Y2.2731
G1 X2.5873 Y2.2764
G1 X2.5858 Y2.2798
G1 X2.5847 Y2.2835
G1 X2.5839 Y2.2871
G1 X2.5834 Y2.2909
G1 X2.5834 Y2.4034
G1 X2.5839 Y2.4066
G1 X2.5849 Y2.4096
G1 X2.586 Y2.4124
G1 X2.5876 Y2.4153
G1 X2.5894 Y2.4179
G1 X2.5915 Y2.4202
G1 X2.5939 Y2.4224
G1 X2.5965 Y2.4242
G1 X2.5992 Y2.4258
G1 X2.6022 Y2.427
G1 X2.6053 Y2.4278
G1 X2.6083 Y2.4284
G1 X2.6115 Y2.4285
G1 X2.6146 Y2.4284
G1 X2.761 Y2.4284
G1 X2.7641 Y2.4283
G1 X2.7671 Y2.4284
G1 X2.7702 Y2.429
G1 X2.7732 Y2.43
G1 X2.776 Y2.4312
G1 X2.7786 Y2.4328
G1 X2.7811 Y2.4347
G1 X2.7834 Y2.437
G1 X2.7853 Y2.4393
G1 X2.7868 Y2.4421
G1 X2.7881 Y2.4449
G1 X2.7891 Y2.4479
G1 X2.7897 Y2.451
G0 Z0.125
G0 X2.7897 Y2.4508
G1 Z-0.05 F10
G1 X2.7897 Y2.5308 F30
G0 Z0.125
G0 X2.7896 Y2.5308
G1 Z-0.05 F10
G1 X2.7897 Y2.5341 F30
G1 X2.7896 Y2.5374
G1 X2.789 Y2.5407
G1 X2.7881 Y2.5439
G1 X2.7868 Y2.5471
G1 X2.7853 Y2.5502
G1 X2.7834 Y2.553
G1 X2.7814 Y2.5556
G1 X2.7789 Y2.5578
G1 X2.7763 Y2.56
G1 X2.7734 Y2.5617
G1 X2.7705 Y2.5633
G1 X2.7674 Y2.5645
G1 X2.7641 Y2.5653
G1 X2.7607 Y2.5658
G0 Z0.125
G0 X2.7609 Y2.5659
G1 Z-0.05 F10
G1 X2.6073 Y2.5659 F30
G0 Z0.125
G0 X2.6073 Y2.566
G1 Z-0.05 F10
G1 X2.6043 Y2.5665 F30
G1 X2.6013 Y2.5674
G1 X2.5985 Y2.5685
G1 X2.5959 Y2.57
G1 X2.5934 Y2.5718
G1 X2.5911 Y2.5738
G1 X2.5891 Y2.5761
G1 X2.5873 Y2.5786
G1 X2.5859 Y2.5813
G1 X2.5847 Y2.584
G1 X2.5839 Y2.587
G1 X2.5834 Y2.59
G1 X2.5832 Y2.593
G1 X2.5834 Y2.5961
G1 X2.5834 Y2.7008
G1 X2.5837 Y2.7048
G1 X2.5843 Y2.7087
G1 X2.5851 Y2.7125
G1 X2.5864 Y2.7161
G1 X2.5882 Y2.7198
G1 X2.5901 Y2.723
G1 X2.5926 Y2.7262
G1 X2.5952 Y2.7292
G1 X2.598 Y2.7318
G1 X2.6012 Y2.7342
G1 X2.6045 Y2.7362
G1 X2.6081 Y2.7378
G1 X2.6118 Y2.7391
G1 X2.6156 Y2.7401
G1 X2.6195 Y2.7407
G1 X2.6234 Y2.7409
G1 X2.9232 Y2.7409
G1 X2.9287 Y2.7416
G1 X2.9339 Y2.7429
G1 X2.9391 Y2.7446
G1 X2.9442 Y2.7466
G1 X2.9492 Y2.7489
G1 X2.9538 Y2.7516
G1 X2.9584 Y2.7546
G1 X2.9627 Y2.758
G1 X2.9667 Y2.7616
G1 X2.9705 Y2.7655
G1 X2.9741 Y2.7696
G1 X2.9772 Y2.774
G1 X2.9801 Y2.7788
G1 X2.9827 Y2.7836
G1 X2.9849 Y2.7886
G1 X2.9868 Y2.7937
G1 X2.9881 Y2.7989
G1 X2.9893 Y2.8043
G1 X2.99 Y2.8097
G1 X2.9902 Y2.8152
G1 X2.9901 Y2.8206
G1 X2.9896 Y2.8261
G1 X2.9896 Y2.8421
G1 X2.99 Y2.8473
G1 X2.9899 Y2.8525
G1 X2.9894 Y2.8579
G1 X2.9884 Y2.8631
G1 X2.9873 Y2.8682
G1 X2.9856 Y2.8733
G1 X2.9836 Y2.8781
G1 X2.9813 Y2.883
G1 X2.9787 Y2.8875
G1 X2.9757 Y2.8919
G1 X2.9724 Y2.8961
G1 X2.969 Y2.9
G1 X2.9651 Y2.9036
G1 X2.961 Y2.907
G1 X2.9568 Y2.91
G1 X2.9523 Y2.9129
G1 X2.9475 Y2.9153
G1 X2.9427 Y2.9174
G1 X2.9377 Y2.9191
G1 X2.9326 Y2.9205
G1 X2.9274 Y2.9214
G1 X2.922 Y2.922
G0 Z0.125
G0 X2.922 Y2.9221
G1 Z-0.05 F10
G1 X2.4334 Y2.9221 F30
G0 Z0.125
G0 X2.4334 Y2.922
G1 Z-0.05 F10
G1 X2.4282 Y2.9214 F30
G1 X2.4232 Y2.9204
G1 X2.4182 Y2.9189
G1 X2.4135 Y2.9172
G1 X2.4087 Y2.915
G1 X2.4042 Y2.9125
G1 X2.3998 Y2.9098
G1 X2.3957 Y2.9067
G1 X2.3919 Y2.9032
G1 X2.3883 Y2.8995
G1 X2.385 Y2.8956
G1 X2.3821 Y2.8914
G1 X2.3793 Y2.8869
G1 X2.3771 Y2.8823
G1 X2.3751 Y2.8776
G1 X2.3734 Y2.8727
G1 X2.3721 Y2.8677
G1 X2.3713 Y2.8626
G1 X2.3707 Y2.8575
G1 X2.3707 Y2.8523
G1 X2.3709 Y2.8472
G1 X2.3709 Y2.1471
G1 X2.3711 Y2.1418
G1 X2.3717 Y2.1364
G1 X2.3727 Y2.1312
G1 X2.3739 Y2.1261
G1 X2.3757 Y2.121
G1 X2.3778 Y2.1159
G1 X2.3802 Y2.1113
G1 X2.3829 Y2.1067
G1 X2.386 Y2.1023
G1 X2.3892 Y2.098
G1 X2.393 Y2.0942
G1 X2.3969 Y2.0904
G1 X2.401 Y2.0872
G1 X2.4054 Y2.084
G1 X2.41 Y2.0814
G1 X2.4147 Y2.0789
G1 X2.4198 Y2.0769
G1 X2.4249 Y2.0751
G1 X2.43 Y2.0738
G1 X2.4352 Y2.073
G1 X2.4405 Y2.0724
G1 X2.446 Y2.0722
G1 X2.9671 Y2.0722
G0 Z0.125
G0 X3.0991 Y2.072
G1 Z-0.05 F10
G1 X3.2316 Y2.072 F30
G1 X3.2355 Y2.0725
G1 X3.2394 Y2.0734
G1 X3.2432 Y2.0745
G1 X3.2467 Y2.0761
G1 X3.2502 Y2.078
G1 X3.2535 Y2.0802
G1 X3.2566 Y2.0826
G1 X3.2595 Y2.0853
G1 X3.2622 Y2.0884
G1 X3.2643 Y2.0916
G1 X3.2663 Y2.0949
G1 X3.2681 Y2.0986
G1 X3.2693 Y2.1023
G1 X3.2703 Y2.1061
G1 X3.2709 Y2.11
G1 X3.2712 Y2.114
G1 X3.2712 Y2.1178
G1 X3.2712 Y2.235
G1 X3.2713 Y2.2396
G1 X3.2719 Y2.2441
G1 X3.2728 Y2.2486
G1 X3.2741 Y2.2531
G1 X3.2758 Y2.2575
G1 X3.2778 Y2.2616
G1 X3.2802 Y2.2656
G1 X3.2829 Y2.2693
G1 X3.2859 Y2.2728
G1 X3.2891 Y2.276
G1 X3.2928 Y2.2791
G1 X3.2964 Y2.2817
G1 X3.3005 Y2.2842
G1 X3.3045 Y2.2862
G1 X3.3089 Y2.2879
G1 X3.3133 Y2.2892
G1 X3.3178 Y2.29
G1 X3.3224 Y2.2906
G1 X3.327 Y2.2909
G1 X3.356 Y2.2909
G1 X3.3606 Y2.2906
G1 X3.3652 Y2.29
G1 X3.3697 Y2.2892
G1 X3.3742 Y2.2878
G1 X3.3786 Y2.2861
G1 X3.3828 Y2.284
G1 X3.3867 Y2.2816
G1 X3.3905 Y2.2789
G1 X3.394 Y2.2759
G1 X3.3974 Y2.2725
G1 X3.4003 Y2.2689
G1 X3.5307 Y2.0986
G0 Z0.125
G0 X3.5716 Y2.072
G1 Z-0.05 F10
G1 X3.6732 Y2.072 F30
G1 X3.6769 Y2.0723
G1 X3.6807 Y2.0729
G1 X3.6841 Y2.0738
G1 X3.6877 Y2.0751
G1 X3.6909 Y2.0768
G1 X3.6941 Y2.0789
G1 X3.6969 Y2.0812
G1 X3.6995 Y2.0838
G1 X3.7018 Y2.0866
G1 X3.7039 Y2.0897
G1 X3.7056 Y2.093
G1 X3.7069 Y2.0966
G1 X3.7078 Y2.1
G1 X3.7084 Y2.1038
G1 X3.7087 Y2.1075
G1 X3.7087 Y2.1751
G1 X3.7086 Y2.1822
G1 X3.7081 Y2.1892
G1 X3.7075 Y2.1963
G1 X3.7062 Y2.2035
G1 X3.7048 Y2.2103
G1 X3.703 Y2.2173
G1 X3.7006 Y2.2241
G1 X3.6981 Y2.2307
G1 X3.6952 Y2.2373
G1 X3.6919 Y2.2435
G1 X3.6883 Y2.2498
G1 X3.6845 Y2.2558
G1 X3.6802 Y2.2614
G1 X3.6757 Y2.267
G1 X3.671 Y2.2722
G1 X3.6662 Y2.2773
G1 X3.6622 Y2.2822
G1 X3.6584 Y2.2873
G1 X3.6551 Y2.2925
G1 X3.652 Y2.2981
G1 X3.6491 Y2.3038
G1 X3.6468 Y2.3096
G1 X3.6446 Y2.3155
G1 X3.643 Y2.3216
G1 X3.6417 Y2.3277
G1 X3.6407 Y2.334
G1 X3.6401 Y2.3403
G1 X3.6399 Y2.3466
G1 X3.64 Y2.3531
G1 X3.6406 Y2.3596
G1 X3.6415 Y2.366
G1 X3.6428 Y2.3726
G1 X3.6444 Y2.3789
G1 X3.6463 Y2.3851
G1 X3.6487 Y2.3913
G1 X3.6512 Y2.3972
G1 X3.654 Y2.4032
G1 X3.6572 Y2.4089
G1 X3.6608 Y2.4144
G1 X3.6644 Y2.4198
G1 X3.6686 Y2.425
G1 X3.6729 Y2.4299
G1 X3.6774 Y2.4346
G0 Z0.125
G0 X3.2448 Y2.9284
G1 Z-0.05 F10
G1 X3.2368 Y2.9283 F30
G1 X3.2286 Y2.9278
G1 X3.2205 Y2.9271
G1 X3.2126 Y2.9258
G1 X3.2045 Y2.9243
G1 X3.1966 Y2.9223
G1 X3.1889 Y2.92
G1 X3.1813 Y2.9173
G1 X3.1737 Y2.9142
G1 X3.1663 Y2.9108
G1 X3.1591 Y2.9071
G1 X3.1521 Y2.9029
G1 X3.1452 Y2.8984
G1 X3.1387 Y2.8938
G1 X3.1323 Y2.8887
G1 X3.1262 Y2.8834
G1 X3.1203 Y2.8777
G1 X3.1149 Y2.8717
G1 X3.1095 Y2.8657
G1 X3.1045 Y2.8592
G1 X3.0998 Y2.8525
G1 X3.0955 Y2.8456
G1 X3.0914 Y2.8387
G1 X3.0878 Y2.8314
G1 X3.0844 Y2.8239
G1 X3.0814 Y2.8165
G1 X3.0788 Y2.8088
G1 X3.0767 Y2.8009
G1 X3.0748 Y2.7931
G1 X3.0732 Y2.785
G1 X3.0722 Y2.777
G1 X3.0715 Y2.7689
G1 X3.071 Y2.7607
G0 Z0.125
G0 X3.0711 Y2.7607
G1 Z-0.05 F10
G1 X3.0711 Y2.1063 F30
G1 X3.071 Y2.1031
G1 X3.0711 Y2.0998
G1 X3.0716 Y2.0966
G1 X3.0725 Y2.0934
G1 X3.0737 Y2.0904
G1 X3.0753 Y2.0875
G1 X3.0769 Y2.0846
G1 X3.079 Y2.0821
G1 X3.0813 Y2.0799
G1 X3.0839 Y2.0779
G1 X3.0866 Y2.0761
G1 X3.0895 Y2.0745
G1 X3.0927 Y2.0735
G1 X3.0959 Y2.0726
G1 X3.0991 Y2.0722
G0 Z0.125
G0 X3.5716 Y2.0722
G1 Z-0.05 F10
G1 X3.5671 Y2.0729 F30
G1 X3.5627 Y2.0739
G1 X3.5582 Y2.0754
G1 X3.554 Y2.0773
G1 X3.55 Y2.0794
G1 X3.5461 Y2.0819
G1 X3.5425 Y2.0846
G1 X3.5391 Y2.0878
G1 X3.536 Y2.0911
G1 X3.5333 Y2.0948
G1 X3.5308 Y2.0986
G0 Z0.125
G0 X3.7087 Y2.7159
G1 Z-0.05 F10
G1 X3.7087 Y2.51 F30
G1 X3.7084 Y2.5036
G1 X3.7078 Y2.4972
G1 X3.7069 Y2.4909
G1 X3.7056 Y2.4845
G1 X3.7038 Y2.4784
G1 X3.7017 Y2.4723
G1 X3.6992 Y2.4663
G1 X3.6965 Y2.4604
G1 X3.6933 Y2.4549
G1 X3.6897 Y2.4494
G1 X3.6859 Y2.4443
G1 X3.6819 Y2.4392
G1 X3.6775 Y2.4346
G0 Z0.125
G0 X3.7086 Y2.7159
G1 Z-0.05 F10
G1 X3.7083 Y2.7223 F30
G1 X3.7077 Y2.7286
G1 X3.7068 Y2.7349
G1 X3.7055 Y2.7412
G1 X3.7037 Y2.7472
G1 X3.7017 Y2.7533
G1 X3.6992 Y2.7592
G1 X3.6965 Y2.765
G1 X3.6934 Y2.7705
G1 X3.6898 Y2.7759
G1 X3.686 Y2.781
G1 X3.682 Y2.7859
G1 X3.6776 Y2.7906
G1 X3.5841 Y2.8841
G1 X3.5787 Y2.8892
G1 X3.5731 Y2.894
G1 X3.5673 Y2.8985
G1 X3.5613 Y2.9029
G1 X3.555 Y2.9068
G1 X3.5486 Y2.9105
G1 X3.5418 Y2.9138
G1 X3.5352 Y2.9169
G1 X3.5282 Y2.9195
G1 X3.5212 Y2.9219
G1 X3.5139 Y2.9239
G1 X3.5067 Y2.9255
G1 X3.4995 Y2.9268
G1 X3.492 Y2.9277
G1 X3.4846 Y2.9282
G1 X3.4772 Y2.9284
G1 X3.245 Y2.9284
G0 Z0.125
G0 X3.2763 Y2.5965
G1 Z-0.05 F10
G1 X3.2762 Y2.6034 F30
G1 X3.2763 Y2.6102
G1 X3.277 Y2.6171
G1 X3.2779 Y2.624
G1 X3.2794 Y2.6308
G1 X3.281 Y2.6375
G1 X3.2833 Y2.644
G1 X3.2858 Y2.6504
G1 X3.2886 Y2.6567
G1 X3.2919 Y2.6629
G1 X3.2955 Y2.6688
G1 X3.2994 Y2.6745
G1 X3.3038 Y2.6799
G1 X3.3082 Y2.6851
G1 X3.3132 Y2.6901
G1 X3.3183 Y2.6947
G1 X3.3236 Y2.6989
G1 X3.3293 Y2.7031
G1 X3.3351 Y2.7067
G1 X3.3413 Y2.7101
G1 X3.3474 Y2.7131
G1 X3.3538 Y2.7157
G1 X3.3604 Y2.7179
G1 X3.367 Y2.7198
G1 X3.3739 Y2.7212
G1 X3.3806 Y2.7224
G1 X3.3875 Y2.723
G1 X3.3944 Y2.7234
G1 X3.4013 Y2.7233
G1 X3.4083 Y2.7228
G1 X3.415 Y2.7218
G1 X3.4218 Y2.7205
G1 X3.4285 Y2.7189
G1 X3.4352 Y2.7169
G1 X3.4416 Y2.7144
G1 X3.4479 Y2.7115
G1 X3.4542 Y2.7084
G1 X3.46 Y2.7049
G1 X3.4658 Y2.7011
G1 X3.4714 Y2.6969
G1 X3.4766 Y2.6924
G1 X3.4817 Y2.6876
G1 X3.4863 Y2.6826
G1 X3.4907 Y2.6771
G1 X3.4948 Y2.6717
G1 X3.4986 Y2.6659
G1 X3.5021 Y2.6599
G1 X3.5052 Y2.6536
G1 X3.5079 Y2.6472
G1 X3.5101 Y2.6407
G1 X3.5122 Y2.6342
G1 X3.5137 Y2.6273
G1 X3.5149 Y2.6206
G1 X3.5157 Y2.6138
G1 X3.5161 Y2.6069
G1 X3.5161 Y2.5999
G1 X3.5157 Y2.5929
G1 X3.5149 Y2.5862
G1 X3.5137 Y2.5794
G1 X3.5122 Y2.5725
G1 X3.5101 Y2.566
G1 X3.5079 Y2.5595
G1 X3.5052 Y2.5531
G1 X3.5021 Y2.5469
G1 X3.4986 Y2.5409
G1 X3.4948 Y2.535
G1 X3.4907 Y2.5296
G1 X3.4863 Y2.5241
G1 X3.4817 Y2.5192
G1 X3.4766 Y2.5144
G1 X3.4714 Y2.5099
G1 X3.4658 Y2.5056
G1 X3.46 Y2.5018
G1 X3.4542 Y2.4983
G1 X3.4479 Y2.4952
G1 X3.4416 Y2.4924
G1 X3.4352 Y2.4899
G1 X3.4285 Y2.4878
G1 X3.4218 Y2.4862
G1 X3.415 Y2.4849
G1 X3.4083 Y2.4839
G1 X3.4013 Y2.4835
G1 X3.3944 Y2.4833
G1 X3.3875 Y2.4837
G1 X3.3806 Y2.4844
G1 X3.3739 Y2.4855
G1 X3.367 Y2.487
G1 X3.3604 Y2.4889
G1 X3.3538 Y2.491
G1 X3.3474 Y2.4937
G1 X3.3413 Y2.4966
G1 X3.3351 Y2.5001
G1 X3.3293 Y2.5036
G1 X3.3236 Y2.5078
G1 X3.3183 Y2.512
G1 X3.3132 Y2.5167
G1 X3.3082 Y2.5216
G1 X3.3038 Y2.5269
G1 X3.2994 Y2.5323
G1 X3.2955 Y2.538
G1 X3.2919 Y2.5438
G1 X3.2886 Y2.55
G1 X3.2858 Y2.5563
G1 X3.2833 Y2.5627
G1 X3.281 Y2.5693
G1 X3.2794 Y2.576
G1 X3.2779 Y2.5827
G1 X3.277 Y2.5896
G1 X3.2763 Y2.5965
G0 Z0.125
G0 X0.4068 Y3.6659
G1 Z-0.05 F10
G1 X0.4068 Y3.0158 F30
G1 X0.6068 Y3.0158
G1 X0.6068 Y3.6659
G1 X0.8318 Y3.6659
G1 X0.8318 Y3.8784
G1 X0.1819 Y3.8784
G1 X0.1819 Y3.6659
G1 X0.4068 Y3.6659
G0 Z0.125
G0 X1.3634 Y3.8791
G1 Z-0.05 F10
G1 X1.3722 Y3.8792 F30
G1 X1.3809 Y3.8789
G1 X1.3896 Y3.8781
G1 X1.3983 Y3.8771
G1 X1.407 Y3.8757
G1 X1.4154 Y3.8739
G1 X1.4239 Y3.8716
G1 X1.4322 Y3.8691
G1 X1.4405 Y3.8663
G1 X1.4486 Y3.863
G1 X1.4565 Y3.8594
G1 X1.4644 Y3.8554
G1 X1.472 Y3.8511
G1 X1.4793 Y3.8465
G1 X1.4865 Y3.8416
G1 X1.4935 Y3.8363
G1 X1.5002 Y3.8308
G1 X1.5067 Y3.8249
G1 X1.513 Y3.8187
G1 X1.5189 Y3.8123
G1 X1.5246 Y3.8058
G1 X1.5299 Y3.7989
G1 X1.535 Y3.7918
G1 X1.5398 Y3.7845
G1 X1.5442 Y3.777
G1 X1.5483 Y3.7693
G1 X1.5521 Y3.7613
G1 X1.5556 Y3.7534
G1 X1.5586 Y3.7452
G1 X1.5614 Y3.7369
G1 X1.5636 Y3.7285
G1 X1.5656 Y3.7199
G1 X1.5672 Y3.7114
G1 X1.5684 Y3.7027
G1 X1.5692 Y3.6941
G1 X1.5697 Y3.6854
G1 X1.5697 Y3.2229
G0 Z0.125
G0 X1.5698 Y3.2229
G1 Z-0.05 F10
G1 X1.5703 Y3.2141 F30
G1 X1.5702 Y3.2055
G1 X1.5697 Y3.1968
G1 X1.569 Y3.188
G1 X1.5678 Y3.1795
G1 X1.5661 Y3.1708
G1 X1.5642 Y3.1624
G1 X1.5618 Y3.154
G1 X1.5591 Y3.1457
G1 X1.556 Y3.1376
G1 X1.5526 Y3.1296
G1 X1.5488 Y3.1216
G1 X1.5447 Y3.114
G1 X1.5401 Y3.1066
G1 X1.5353 Y3.0993
G1 X1.5302 Y3.0923
G1 X1.5247 Y3.0854
G1 X1.519 Y3.0789
G1 X1.513 Y3.0726
G1 X1.5066 Y3.0667
G1 X1.5001 Y3.061
G1 X1.4932 Y3.0556
G1 X1.4862 Y3.0503
G1 X1.4788 Y3.0457
G1 X1.4715 Y3.0412
G1 X1.4638 Y3.0371
G1 X1.4558 Y3.0334
G1 X1.4479 Y3.0299
G1 X1.4396 Y3.0269
G1 X1.4313 Y3.0241
G1 X1.423 Y3.0219
G1 X1.4144 Y3.02
G1 X1.4058 Y3.0184
G1 X1.3972 Y3.0174
G1 X1.3886 Y3.0165
G0 Z0.125
G0 X1.3947 Y3.0165
G1 Z-0.05 F10
G1 X1.0947 Y3.0165 F30
G1 X1.0865 Y3.0161
G1 X1.0783 Y3.0158
G1 X1.0702 Y3.0161
G1 X1.062 Y3.0168
G1 X1.0538 Y3.0177
G1 X1.0457 Y3.0192
G1 X1.0377 Y3.0209
G1 X1.0297 Y3.0231
G1 X1.0219 Y3.0257
G1 X1.0142 Y3.0285
G1 X1.0067 Y3.0317
G1 X0.9993 Y3.0354
G1 X0.9921 Y3.0393
G1 X0.9851 Y3.0437
G1 X0.9784 Y3.0483
G1 X0.9718 Y3.0533
G1 X0.9655 Y3.0585
G1 X0.9594 Y3.0641
G1 X0.9536 Y3.07
G1 X0.9481 Y3.0761
G1 X0.9429 Y3.0824
G1 X0.9382 Y3.089
G1 X0.9335 Y3.0958
G1 X0.9293 Y3.1029
G1 X0.9253 Y3.1101
G1 X0.9218 Y3.1175
G1 X0.9186 Y3.1251
G1 X0.9157 Y3.1328
G1 X0.9134 Y3.1406
G1 X0.9112 Y3.1485
G1 X0.9096 Y3.1566
G1 X0.9081 Y3.1647
G1 X0.9072 Y3.1729
G1 X0.9072 Y3.6666
G1 X0.9068 Y3.6752
G1 X0.907 Y3.6841
G1 X0.9073 Y3.6928
G1 X0.9081 Y3.7014
G1 X0.9092 Y3.7102
G1 X0.9109 Y3.7188
G1 X0.9128 Y3.7273
G1 X0.915 Y3.7358
G1 X0.9176 Y3.7441
G1 X0.9206 Y3.7523
G1 X0.924 Y3.7604
G1 X0.9277 Y3.7683
G1 X0.9319 Y3.7759
G1 X0.9363 Y3.7836
G1 X0.9409 Y3.7909
G1 X0.946 Y3.7981
G1 X0.9513 Y3.805
G1 X0.9569 Y3.8117
G1 X0.9629 Y3.818
G1 X0.9691 Y3.8243
G1 X0.9755 Y3.8302
G1 X0.9823 Y3.8358
G1 X0.9893 Y3.841
G1 X0.9964 Y3.8461
G1 X1.0039 Y3.8506
G1 X1.0113 Y3.855
G1 X1.0192 Y3.859
G1 X1.027 Y3.8627
G1 X1.0352 Y3.866
G1 X1.0435 Y3.8691
G1 X1.0518 Y3.8716
G1 X1.0602 Y3.8739
G1 X1.0687 Y3.8758
G1 X1.0774 Y3.8773
G1 X1.086 Y3.8784
G1 X1.0947 Y3.8791
G1 X1.3636 Y3.8791
G0 Z0.125
G0 X1.1136 Y3.3479
G1 Z-0.05 F10
G1 X1.1136 Y3.5604 F30
G1 X1.1146 Y3.5673
G1 X1.1162 Y3.5739
G1 X1.1181 Y3.5807
G1 X1.1202 Y3.5872
G1 X1.1228 Y3.5936
G1 X1.1258 Y3.5999
G1 X1.129 Y3.6061
G1 X1.1327 Y3.612
G1 X1.1367 Y3.6177
G1 X1.1408 Y3.6232
G1 X1.1453 Y3.6284
G1 X1.1502 Y3.6334
G1 X1.1553 Y3.6381
G1 X1.1606 Y3.6425
G1 X1.1662 Y3.6465
G1 X1.172 Y3.6503
G1 X1.1781 Y3.6539
G1 X1.1841 Y3.657
G1 X1.1905 Y3.6598
G1 X1.197 Y3.6623
G1 X1.2036 Y3.6643
G1 X1.2103 Y3.6661
G1 X1.2171 Y3.6674
G1 X1.224 Y3.6683
G1 X1.231 Y3.6689
G1 X1.2378 Y3.6692
G1 X1.2447 Y3.6689
G1 X1.2516 Y3.6685
G1 X1.2585 Y3.6675
G1 X1.2654 Y3.6662
G1 X1.272 Y3.6644
G1 X1.2786 Y3.6624
G1 X1.2852 Y3.66
G1 X1.2916 Y3.6573
G1 X1.2977 Y3.6541
G1 X1.3038 Y3.6507
G1 X1.3095 Y3.647
G1 X1.3152 Y3.6428
G1 X1.3205 Y3.6385
G1 X1.3256 Y3.6337
G1 X1.3305 Y3.6289
G1 X1.335 Y3.6235
G1 X1.3394 Y3.6182
G1 X1.3433 Y3.6125
G1 X1.347 Y3.6066
G1 X1.3503 Y3.6005
G1 X1.3532 Y3.5942
G1 X1.3558 Y3.5878
G1 X1.3581 Y3.5813
G1 X1.36 Y3.5745
G1 X1.3615 Y3.5679
G1 X1.3627 Y3.561
G1 X1.3634 Y3.5541
G0 Z0.125
G0 X1.3636 Y3.554
G1 Z-0.05 F10
G1 X1.3636 Y3.3416 F30
G0 Z0.125
G0 X1.3634 Y3.3416
G1 Z-0.05 F10
G1 X1.3624 Y3.3346 F30
G1 X1.3608 Y3.328
G1 X1.3589 Y3.3212
G1 X1.3567 Y3.3147
G1 X1.3542 Y3.3083
G1 X1.3512 Y3.302
G1 X1.3479 Y3.2958
G1 X1.3443 Y3.29
G1 X1.3403 Y3.2842
G1 X1.3362 Y3.2788
G1 X1.3317 Y3.2735
G1 X1.3267 Y3.2686
G1 X1.3216 Y3.2638
G1 X1.3164 Y3.2594
G1 X1.3108 Y3.2554
G1 X1.305 Y3.2516
G1 X1.2989 Y3.248
G1 X1.2929 Y3.245
G1 X1.2865 Y3.2421
G1 X1.2799 Y3.2396
G1 X1.2733 Y3.2376
G1 X1.2667 Y3.2358
G1 X1.2598 Y3.2345
G1 X1.253 Y3.2336
G1 X1.246 Y3.233
G1 X1.2391 Y3.2327
G1 X1.2323 Y3.233
G1 X1.2253 Y3.2335
G1 X1.2184 Y3.2345
G1 X1.2116 Y3.2358
G1 X1.2049 Y3.2375
G1 X1.1984 Y3.2395
G1 X1.1918 Y3.2419
G1 X1.1854 Y3.2447
G1 X1.1793 Y3.2478
G1 X1.1732 Y3.2512
G1 X1.1674 Y3.2549
G1 X1.1618 Y3.2591
G1 X1.1565 Y3.2635
G1 X1.1513 Y3.2682
G1 X1.1465 Y3.2731
G1 X1.1419 Y3.2784
G1 X1.1376 Y3.2837
G1 X1.1337 Y3.2894
G1 X1.13 Y3.2954
G1 X1.1267 Y3.3015
G1 X1.1238 Y3.3077
G1 X1.1211 Y3.3141
G1 X1.1188 Y3.3206
G1 X1.1169 Y3.3274
G1 X1.1155 Y3.334
G1 X1.1143 Y3.341
G1 X1.1136 Y3.3478
G0 Z0.125
G0 X1.8452 Y3.4596
G1 Z-0.05 F10
G1 X1.8452 Y3.4561 F30
G1 X1.8453 Y3.4525
G1 X1.8459 Y3.4489
G1 X1.847 Y3.4455
G1 X1.8483 Y3.4422
G1 X1.8498 Y3.439
G1 X1.8518 Y3.436
G1 X1.8542 Y3.4332
G1 X1.8567 Y3.4306
G1 X1.8594 Y3.4284
G1 X1.8624 Y3.4264
G1 X1.8656 Y3.4246
G1 X1.8689 Y3.4233
G1 X1.8723 Y3.4224
G1 X1.8759 Y3.4218
G1 X1.8796 Y3.4214
G1 X1.8831 Y3.4215
G1 X1.8867 Y3.422
G1 X1.8901 Y3.4229
G1 X1.8936 Y3.424
G1 X1.8969 Y3.4257
G1 X1.8998 Y3.4275
G1 X1.9027 Y3.4296
G1 X1.957 Y3.4965
G1 X1.959 Y3.4983
G1 X1.9613 Y3.4997
G1 X1.9638 Y3.5008
G1 X1.9664 Y3.5016
G1 X1.969 Y3.502
G1 X1.9716 Y3.502
G1 X1.9743 Y3.5016
G1 X1.9769 Y3.5008
G1 X1.9793 Y3.4997
G1 X1.9817 Y3.4983
G1 X1.9836 Y3.4965
G1 X2.0388 Y3.4287
G1 X2.0411 Y3.4264
G1 X2.0436 Y3.4244
G1 X2.0464 Y3.4226
G1 X2.0493 Y3.4214
G1 X2.0525 Y3.4202
G1 X2.0557 Y3.4197
G1 X2.0589 Y3.4193
G1 X2.0621 Y3.4194
G1 X2.0653 Y3.4198
G1 X2.0684 Y3.4205
G1 X2.0716 Y3.4215
G1 X2.0744 Y3.4231
G1 X2.0771 Y3.4248
G1 X2.0796 Y3.4269
G1 X2.0819 Y3.4291
G1 X2.0839 Y3.4316
G1 X2.0857 Y3.4345
G1 X2.0869 Y3.4373
G1 X2.0881 Y3.4405
G1 X2.0887 Y3.4437
G1 X2.089 Y3.4469
G1 X2.089 Y3.813
G0 Z0.125
G0 X2.0891 Y3.813
G1 Z-0.05 F10
G1 X2.0894 Y3.8174 F30
G1 X2.0898 Y3.8218
G1 X2.0908 Y3.8261
G1 X2.092 Y3.8302
G1 X2.0935 Y3.8343
G1 X2.0955 Y3.8382
G1 X2.0978 Y3.842
G1 X2.1003 Y3.8455
G1 X2.1031 Y3.8489
G1 X2.1061 Y3.8518
G1 X2.1095 Y3.8548
G1 X2.1131 Y3.8573
G1 X2.1169 Y3.8595
G1 X2.1207 Y3.8614
G1 X2.1248 Y3.863
G1 X2.129 Y3.8643
G1 X2.1332 Y3.8652
G1 X2.1375 Y3.8657
G1 X2.1419 Y3.8659
G1 X2.2362 Y3.8659
G1 X2.2408 Y3.8655
G1 X2.2454 Y3.8646
G1 X2.2499 Y3.8633
G1 X2.2542 Y3.8619
G1 X2.2585 Y3.8599
G1 X2.2625 Y3.8576
G1 X2.2663 Y3.855
G1 X2.27 Y3.8522
G1 X2.2733 Y3.849
G1 X2.2764 Y3.8455
G1 X2.2791 Y3.8419
G1 X2.2816 Y3.8379
G1 X2.2839 Y3.8339
G1 X2.2856 Y3.8295
G1 X2.2871 Y3.8251
G1 X2.2881 Y3.8206
G1 X2.2888 Y3.8161
G1 X2.2891 Y3.8115
G1 X2.2891 Y3.8069
G1 X2.2891 Y3.0933
G0 Z0.125
G0 X1.9784 Y3.1704
G1 Z-0.05 F10
G1 X2.0748 Y3.0553 F30
G1 X2.0785 Y3.0505
G1 X2.0825 Y3.046
G1 X2.0869 Y3.0418
G1 X2.0914 Y3.0378
G1 X2.0961 Y3.0341
G1 X2.1011 Y3.0307
G1 X2.1063 Y3.0276
G1 X2.1117 Y3.0247
G1 X2.1172 Y3.0222
G1 X2.1228 Y3.0202
G1 X2.1286 Y3.0183
G1 X2.1345 Y3.017
G1 X2.1405 Y3.016
G1 X2.2242 Y3.016
G1 X2.2293 Y3.0165
G1 X2.2343 Y3.0176
G1 X2.2393 Y3.0189
G1 X2.244 Y3.0206
G1 X2.2488 Y3.0226
G1 X2.2533 Y3.025
G1 X2.2575 Y3.0277
G1 X2.2617 Y3.0305
G1 X2.2656 Y3.0339
G1 X2.2693 Y3.0374
G1 X2.2726 Y3.0412
G1 X2.2758 Y3.0451
G1 X2.2786 Y3.0494
G1 X2.2811 Y3.0539
G1 X2.2834 Y3.0584
G1 X2.2853 Y3.0632
G1 X2.2867 Y3.068
G1 X2.2879 Y3.073
G1 X2.2887 Y3.078
G1 X2.2892 Y3.0831
G1 X2.2893 Y3.0882
G1 X2.2891 Y3.0932
G0 Z0.125
G0 X1.9785 Y3.1705
G1 Z-0.05 F10
G1 X1.9774 Y3.1712 F30
G1 X1.9763 Y3.1718
G1 X1.9752 Y3.1721
G1 X1.974 Y3.1723
G0 Z0.125
G0 X1.7944 Y3.0158
G1 Z-0.05 F10
G1 X1.8007 Y3.0169 F30
G1 X1.807 Y3.0183
G1 X1.813 Y3.02
G1 X1.8191 Y3.022
G1 X1.825 Y3.0244
G1 X1.8308 Y3.0271
G1 X1.8364 Y3.0301
G1 X1.8419 Y3.0334
G1 X1.8471 Y3.0369
G1 X1.8522 Y3.041
G1 X1.8569 Y3.0451
G1 X1.8615 Y3.0495
G1 X1.8658 Y3.0543
G1 X1.8698 Y3.0592
G1 X1.9614 Y3.1695
G1 X1.9633 Y3.1707
G1 X1.9653 Y3.1715
G1 X1.9674 Y3.1721
G1 X1.9696 Y3.1725
G1 X1.9718 Y3.1725
G1 X1.974 Y3.1721
G0 Z0.125
G0 X1.7944 Y3.016
G1 Z-0.05 F10
G1 X1.7191 Y3.016 F30
G1 X1.7136 Y3.0164
G1 X1.7082 Y3.0171
G1 X1.7029 Y3.0183
G1 X1.6975 Y3.02
G1 X1.6924 Y3.0219
G1 X1.6874 Y3.0241
G1 X1.6826 Y3.0269
G1 X1.6781 Y3.0298
G1 X1.6737 Y3.0331
G1 X1.6695 Y3.0368
G1 X1.6656 Y3.0406
G1 X1.6621 Y3.0449
G1 X1.6587 Y3.0493
G1 X1.6558 Y3.0539
G1 X1.6533 Y3.0588
G1 X1.6509 Y3.0637
G1 X1.649 Y3.0688
G1 X1.6475 Y3.0742
G1 X1.6464 Y3.0795
G1 X1.6456 Y3.085
G1 X1.6452 Y3.0904
G1 X1.6453 Y3.096
G1 X1.6453 Y3.8117
G1 X1.6456 Y3.8162
G1 X1.6461 Y3.8206
G1 X1.647 Y3.8251
G1 X1.6482 Y3.8294
G1 X1.65 Y3.8334
G1 X1.6519 Y3.8375
G1 X1.6541 Y3.8414
G1 X1.6567 Y3.8449
G1 X1.6596 Y3.8484
G1 X1.6628 Y3.8516
G1 X1.6662 Y3.8544
G1 X1.6698 Y3.857
G1 X1.6737 Y3.8594
G1 X1.6777 Y3.8613
G1 X1.6819 Y3.863
G1 X1.6861 Y3.8641
G1 X1.6905 Y3.8652
G1 X1.6949 Y3.8657
G1 X1.6994 Y3.8659
G1 X1.7933 Y3.8659
G1 X1.798 Y3.8656
G1 X1.8025 Y3.8646
G1 X1.8069 Y3.8636
G1 X1.8111 Y3.862
G1 X1.8153 Y3.8601
G1 X1.8192 Y3.8579
G1 X1.823 Y3.8553
G1 X1.8266 Y3.8525
G1 X1.8299 Y3.8493
G1 X1.833 Y3.8459
G1 X1.8357 Y3.8423
G1 X1.8381 Y3.8384
G1 X1.8402 Y3.8344
G1 X1.842 Y3.8302
G1 X1.8433 Y3.8257
G1 X1.8445 Y3.8213
G1 X1.8452 Y3.8168
G1 X1.8454 Y3.8123
G1 X1.8453 Y3.8078
G1 X1.8453 Y3.4596
G0 Z0.125
G0 X2.9608 Y3.0158
G1 Z-0.05 F10
G1 X2.964 Y3.0161 F30
G1 X2.9672 Y3.0165
G1 X2.9703 Y3.0175
G1 X2.9734 Y3.0188
G1 X2.9761 Y3.0202
G1 X2.9788 Y3.0221
G1 X2.9812 Y3.0243
G1 X2.9833 Y3.0266
G1 X2.9852 Y3.0294
G1 X2.9868 Y3.0322
G1 X2.9881 Y3.0352
G1 X2.9889 Y3.0382
G1 X2.9894 Y3.0415
G1 X2.9896 Y3.0447
G1 X2.9896 Y3.1685
G0 Z0.125
G0 X2.9895 Y3.1683
G1 Z-0.05 F10
G1 X2.989 Y3.1717 F30
G1 X2.9882 Y3.175
G1 X2.987 Y3.1781
G1 X2.9855 Y3.181
G1 X2.9837 Y3.1839
G1 X2.9817 Y3.1865
G1 X2.9793 Y3.1889
G1 X2.9767 Y3.1911
G1 X2.974 Y3.1929
G1 X2.9709 Y3.1943
G1 X2.9678 Y3.1956
G1 X2.9646 Y3.1966
G1 X2.9613 Y3.197
G1 X2.958 Y3.1973
G1 X2.9546 Y3.197
G0 Z0.125
G0 X2.9546 Y3.1972
G1 Z-0.05 F10
G1 X2.6208 Y3.1972 F30
G1 X2.6171 Y3.197
G1 X2.6133 Y3.1973
G1 X2.6096 Y3.1979
G1 X2.6061 Y3.1988
G1 X2.6024 Y3.2001
G1 X2.5991 Y3.2017
G1 X2.5958 Y3.2035
G1 X2.5927 Y3.2057
G1 X2.5898 Y3.2082
G1 X2.5872 Y3.2109
G1 X2.5849 Y3.2138
G1 X2.5828 Y3.2169
G1 X2.5811 Y3.2202
G1 X2.5795 Y3.2237
G1 X2.5785 Y3.2273
G1 X2.5776 Y3.2308
G1 X2.5771 Y3.2346
G1 X2.5771 Y3.3472
G1 X2.5776 Y3.3504
G1 X2.5786 Y3.3534
G1 X2.5798 Y3.3563
G1 X2.5812 Y3.359
G1 X2.5831 Y3.3617
G1 X2.5852 Y3.364
G1 X2.5876 Y3.3662
G1 X2.5901 Y3.3679
G1 X2.5929 Y3.3696
G1 X2.5959 Y3.3708
G1 X2.599 Y3.3716
G1 X2.6021 Y3.3722
G1 X2.6053 Y3.3723
G1 X2.6083 Y3.3722
G1 X2.7547 Y3.3722
G1 X2.7578 Y3.3721
G1 X2.7609 Y3.3722
G1 X2.7639 Y3.3728
G1 X2.7668 Y3.3738
G1 X2.7697 Y3.3749
G1 X2.7724 Y3.3767
G1 X2.7748 Y3.3786
G1 X2.777 Y3.3808
G1 X2.7789 Y3.3831
G1 X2.7805 Y3.3859
G1 X2.7818 Y3.3887
G1 X2.7827 Y3.3917
G1 X2.7834 Y3.3947
G0 Z0.125
G0 X2.7834 Y3.3946
G1 Z-0.05 F10
G1 X2.7834 Y3.4746 F30
G0 Z0.125
G0 X2.7833 Y3.4746
G1 Z-0.05 F10
G1 X2.7834 Y3.4779 F30
G1 X2.7833 Y3.4813
G1 X2.7827 Y3.4845
G1 X2.7818 Y3.4877
G1 X2.7805 Y3.4909
G1 X2.779 Y3.494
G1 X2.7771 Y3.4967
G1 X2.7751 Y3.4993
G1 X2.7726 Y3.5017
G1 X2.77 Y3.5037
G1 X2.7671 Y3.5055
G1 X2.7642 Y3.5071
G1 X2.761 Y3.5082
G1 X2.7578 Y3.5091
G1 X2.7544 Y3.5095
G0 Z0.125
G0 X2.7546 Y3.5097
G1 Z-0.05 F10
G1 X2.601 Y3.5097 F30
G0 Z0.125
G0 X2.601 Y3.5098
G1 Z-0.05 F10
G1 X2.598 Y3.5103 F30
G1 X2.5951 Y3.5112
G1 X2.5922 Y3.5123
G1 X2.5896 Y3.5138
G1 X2.5871 Y3.5156
G1 X2.5849 Y3.5176
G1 X2.5828 Y3.5199
G1 X2.5811 Y3.5224
G1 X2.5796 Y3.5251
G1 X2.5785 Y3.5279
G1 X2.5776 Y3.5308
G1 X2.5771 Y3.5337
G1 X2.5769 Y3.5368
G1 X2.5771 Y3.5399
G1 X2.5771 Y3.6446
G1 X2.5774 Y3.6485
G1 X2.578 Y3.6525
G1 X2.5788 Y3.6563
G1 X2.5801 Y3.6599
G1 X2.5818 Y3.6636
G1 X2.5838 Y3.6669
G1 X2.5863 Y3.6701
G1 X2.5888 Y3.673
G1 X2.5917 Y3.6756
G1 X2.5949 Y3.678
G1 X2.5983 Y3.68
G1 X2.6018 Y3.6816
G1 X2.6055 Y3.6829
G1 X2.6093 Y3.6839
G1 X2.6132 Y3.6845
G1 X2.6171 Y3.6847
G1 X2.9169 Y3.6847
G1 X2.9224 Y3.6854
G1 X2.9276 Y3.6867
G1 X2.9328 Y3.6884
G1 X2.9379 Y3.6904
G1 X2.9428 Y3.6927
G1 X2.9475 Y3.6954
G1 X2.9521 Y3.6984
G1 X2.9564 Y3.7018
G1 X2.9604 Y3.7053
G1 X2.9642 Y3.7093
G1 X2.9677 Y3.7134
G1 X2.9709 Y3.7179
G1 X2.9739 Y3.7225
G1 X2.9765 Y3.7274
G1 X2.9785 Y3.7324
G1 X2.9804 Y3.7375
G1 X2.9818 Y3.7428
G1 X2.983 Y3.748
G1 X2.9836 Y3.7535
G1 X2.9839 Y3.759
G1 X2.9838 Y3.7644
G1 X2.9833 Y3.7699
G1 X2.9833 Y3.7859
G1 X2.9836 Y3.7911
G1 X2.9836 Y3.7964
G1 X2.983 Y3.8016
G1 X2.9822 Y3.8069
G1 X2.981 Y3.812
G1 X2.9793 Y3.8171
G1 X2.9773 Y3.8219
G1 X2.975 Y3.8268
G1 X2.9724 Y3.8313
G1 X2.9695 Y3.8357
G1 X2.9661 Y3.8398
G1 X2.9626 Y3.8438
G1 X2.9588 Y3.8474
G1 X2.9548 Y3.8507
G1 X2.9505 Y3.8538
G1 X2.946 Y3.8567
G1 X2.9412 Y3.859
G1 X2.9364 Y3.8612
G1 X2.9313 Y3.8628
G1 X2.9262 Y3.8643
G1 X2.9211 Y3.8652
G1 X2.9157 Y3.8659
G1 X2.4271 Y3.8659
G1 X2.4219 Y3.8652
G1 X2.4169 Y3.8641
G1 X2.4119 Y3.8627
G1 X2.4071 Y3.8609
G1 X2.4025 Y3.8589
G1 X2.3979 Y3.8563
G1 X2.3936 Y3.8536
G1 X2.3894 Y3.8505
G1 X2.3856 Y3.847
G1 X2.3821 Y3.8433
G1 X2.3787 Y3.8394
G1 X2.3758 Y3.8352
G1 X2.373 Y3.8307
G1 X2.3707 Y3.8261
G1 X2.3688 Y3.8213
G1 X2.3671 Y3.8165
G1 X2.3658 Y3.8115
G1 X2.365 Y3.8064
G1 X2.3644 Y3.8013
G1 X2.3644 Y3.7961
G1 X2.3646 Y3.791
G1 X2.3646 Y3.091
G1 X2.3649 Y3.0856
G1 X2.3655 Y3.0802
G1 X2.3663 Y3.0751
G1 X2.3676 Y3.0699
G1 X2.3694 Y3.0648
G1 X2.3714 Y3.0597
G1 X2.3739 Y3.0551
G1 X2.3765 Y3.0505
G1 X2.3797 Y3.0461
G1 X2.3829 Y3.0419
G1 X2.3867 Y3.038
G1 X2.3905 Y3.0342
G1 X2.3947 Y3.031
G1 X2.3991 Y3.0279
G1 X2.4038 Y3.0252
G1 X2.4084 Y3.0228
G1 X2.4135 Y3.0207
G1 X2.4186 Y3.0189
G1 X2.4237 Y3.0177
G1 X2.4289 Y3.0168
G1 X2.4342 Y3.0162
G1 X2.4396 Y3.016
G1 X2.9608 Y3.016
G0 Z0.125
G0 X3.0927 Y3.0158
G1 Z-0.05 F10
G1 X3.2253 Y3.0158 F30
G1 X3.2292 Y3.0164
G1 X3.233 Y3.0171
G1 X3.2368 Y3.0183
G1 X3.2405 Y3.0199
G1 X3.2439 Y3.0218
G1 X3.2472 Y3.024
G1 X3.2503 Y3.0264
G1 X3.2533 Y3.0291
G1 X3.2559 Y3.0322
G1 X3.258 Y3.0354
G1 X3.26 Y3.0387
G1 X3.2617 Y3.0424
G1 X3.263 Y3.0461
G1 X3.2641 Y3.0499
G1 X3.2646 Y3.0538
G1 X3.2649 Y3.0578
G1 X3.2649 Y3.0617
G1 X3.2649 Y3.1788
G1 X3.265 Y3.1834
G1 X3.2656 Y3.1879
G1 X3.2665 Y3.1924
G1 X3.2678 Y3.1969
G1 X3.2695 Y3.2013
G1 X3.2715 Y3.2053
G1 X3.2739 Y3.2094
G1 X3.2766 Y3.2131
G1 X3.2796 Y3.2166
G1 X3.2828 Y3.2198
G1 X3.2865 Y3.2229
G1 X3.2901 Y3.2256
G1 X3.2942 Y3.228
G1 X3.2982 Y3.23
G1 X3.3025 Y3.2317
G1 X3.307 Y3.233
G1 X3.3115 Y3.2339
G1 X3.3161 Y3.2345
G1 X3.3207 Y3.2346
G1 X3.3497 Y3.2346
G1 X3.3543 Y3.2345
G1 X3.3589 Y3.2339
G1 X3.3634 Y3.233
G1 X3.3679 Y3.2316
G1 X3.3723 Y3.2299
G1 X3.3765 Y3.2278
G1 X3.3804 Y3.2254
G1 X3.3842 Y3.2227
G1 X3.3878 Y3.2197
G1 X3.3911 Y3.2163
G1 X3.394 Y3.2128
G0 Z0.125
G0 X3.394 Y3.2127
G1 Z-0.05 F10
G1 X3.5244 Y3.0424 F30
G1 X3.527 Y3.0386
G1 X3.5297 Y3.0349
G1 X3.5328 Y3.0316
G1 X3.5362 Y3.0285
G1 X3.5398 Y3.0257
G1 X3.5437 Y3.0232
G1 X3.5477 Y3.0211
G1 X3.5519 Y3.0192
G1 X3.5563 Y3.0177
G1 X3.5608 Y3.0167
G1 X3.5653 Y3.016
G0 Z0.125
G0 X3.5653 Y3.0158
G1 Z-0.05 F10
G1 X3.6669 Y3.0158 F30
G1 X3.6706 Y3.0161
G1 X3.6743 Y3.0167
G1 X3.6778 Y3.0176
G1 X3.6813 Y3.0189
G1 X3.6846 Y3.0206
G1 X3.6877 Y3.0227
G1 X3.6906 Y3.025
G1 X3.6933 Y3.0276
G1 X3.6955 Y3.0304
G1 X3.6976 Y3.0336
G1 X3.6992 Y3.0368
G1 X3.7006 Y3.0404
G1 X3.7016 Y3.0438
G1 X3.7021 Y3.0476
G1 X3.7024 Y3.0513
G1 X3.7024 Y3.1189
G1 X3.7023 Y3.126
G1 X3.7018 Y3.1331
G1 X3.7011 Y3.1401
G1 X3.6999 Y3.1472
G1 X3.6985 Y3.1541
G1 X3.6966 Y3.1611
G1 X3.6943 Y3.1679
G1 X3.6918 Y3.1745
G1 X3.6889 Y3.181
G1 X3.6857 Y3.1873
G1 X3.682 Y3.1936
G1 X3.6781 Y3.1995
G1 X3.6739 Y3.2052
G1 X3.6694 Y3.2109
G1 X3.6647 Y3.216
G0 Z0.125
G0 X3.6642 Y3.2166
G1 Z-0.05 F10
G1 X3.6599 Y3.2211 F30
G1 X3.6558 Y3.226
G1 X3.6521 Y3.2311
G1 X3.6488 Y3.2364
G1 X3.6456 Y3.2419
G1 X3.6428 Y3.2476
G1 X3.6405 Y3.2534
G1 X3.6383 Y3.2593
G1 X3.6367 Y3.2654
G1 X3.6354 Y3.2715
G1 X3.6344 Y3.2778
G1 X3.6338 Y3.2841
G1 X3.6336 Y3.2904
G0 Z0.125
G0 X3.2386 Y3.8722
G1 Z-0.05 F10
G1 X3.2304 Y3.8721 F30
G1 X3.2223 Y3.8716
G1 X3.2142 Y3.8709
G1 X3.2062 Y3.8697
G1 X3.1982 Y3.8681
G1 X3.1903 Y3.866
G1 X3.1826 Y3.8638
G1 X3.1749 Y3.8611
G1 X3.1673 Y3.858
G1 X3.16 Y3.8545
G1 X3.1528 Y3.8509
G1 X3.1458 Y3.8467
G1 X3.1389 Y3.8423
G1 X3.1324 Y3.8376
G1 X3.126 Y3.8325
G1 X3.12 Y3.8271
G1 X3.114 Y3.8215
G1 X3.1086 Y3.8155
G1 X3.1032 Y3.8095
G1 X3.0983 Y3.803
G1 X3.0935 Y3.7964
G1 X3.0892 Y3.7894
G1 X3.0851 Y3.7824
G1 X3.0815 Y3.7752
G1 X3.0781 Y3.7677
G1 X3.0751 Y3.7603
G1 X3.0725 Y3.7526
G1 X3.0704 Y3.7447
G1 X3.0684 Y3.7369
G1 X3.0669 Y3.7288
G1 X3.0659 Y3.7208
G1 X3.0652 Y3.7127
G1 X3.0647 Y3.7045
G0 Z0.125
G0 X3.0648 Y3.7045
G1 Z-0.05 F10
G1 X3.0648 Y3.0501 F30
G1 X3.0646 Y3.0469
G1 X3.0648 Y3.0436
G1 X3.0653 Y3.0404
G1 X3.0662 Y3.0372
G1 X3.0674 Y3.0342
G1 X3.069 Y3.0313
G1 X3.0706 Y3.0285
G1 X3.0728 Y3.0259
G1 X3.075 Y3.0237
G1 X3.0776 Y3.0216
G1 X3.0803 Y3.0199
G1 X3.0832 Y3.0183
G1 X3.0863 Y3.0173
G1 X3.0895 Y3.0164
G1 X3.0927 Y3.016
G0 Z0.125
G0 X3.6335 Y3.2904
G1 Z-0.05 F10
G1 X3.6337 Y3.2969 F30
G1 X3.6343 Y3.3034
G1 X3.6353 Y3.3098
G1 X3.6366 Y3.3164
G1 X3.6381 Y3.3226
G1 X3.64 Y3.3289
G1 X3.6424 Y3.3351
G1 X3.6449 Y3.341
G1 X3.6477 Y3.347
G1 X3.6509 Y3.3526
G1 X3.6545 Y3.3582
G1 X3.6581 Y3.3636
G1 X3.6622 Y3.3688
G1 X3.6666 Y3.3736
G1 X3.6711 Y3.3784
G1 X3.6756 Y3.3831
G1 X3.6796 Y3.3881
G1 X3.6834 Y3.3933
G1 X3.687 Y3.3987
G1 X3.6902 Y3.4042
G1 X3.6929 Y3.41
G1 X3.6954 Y3.4161
G1 X3.6975 Y3.4221
G1 X3.6992 Y3.4284
G1 X3.7006 Y3.4347
G1 X3.7016 Y3.441
G1 X3.7021 Y3.4475
G1 X3.7024 Y3.4539
G1 X3.7024 Y3.6597
G0 Z0.125
G0 X3.7023 Y3.6597
G1 Z-0.05 F10
G1 X3.702 Y3.6661 F30
G1 X3.7014 Y3.6724
G1 X3.7005 Y3.6787
G1 X3.6992 Y3.685
G1 X3.6974 Y3.6911
G1 X3.6954 Y3.697
G1 X3.6929 Y3.703
G1 X3.6902 Y3.7088
G1 X3.6871 Y3.7142
G1 X3.6835 Y3.7197
G1 X3.6797 Y3.7248
G1 X3.6756 Y3.7297
G1 X3.6713 Y3.7344
G1 X3.5779 Y3.8279
G1 X3.5724 Y3.833
G1 X3.5668 Y3.8378
G1 X3.561 Y3.8423
G1 X3.555 Y3.8467
G1 X3.5487 Y3.8506
G1 X3.5423 Y3.8543
G1 X3.5355 Y3.8576
G1 X3.5289 Y3.8607
G1 X3.5219 Y3.8633
G1 X3.5149 Y3.8657
G1 X3.5077 Y3.8677
G1 X3.5004 Y3.8692
G1 X3.4932 Y3.8706
G1 X3.4857 Y3.8715
G1 X3.4784 Y3.872
G1 X3.4709 Y3.8722
G1 X3.2387 Y3.8722
G0 Z0.125
G0 X3.27 Y3.5403
G1 Z-0.05 F10
G1 X3.2699 Y3.5471 F30
G1 X3.27 Y3.554
G1 X3.2706 Y3.561
G1 X3.2716 Y3.5678
G1 X3.2731 Y3.5745
G1 X3.2747 Y3.5813
G1 X3.277 Y3.5878
G1 X3.2795 Y3.5942
G1 X3.2823 Y3.6006
G1 X3.2856 Y3.6067
G1 X3.2892 Y3.6126
G1 X3.2931 Y3.6183
G1 X3.2974 Y3.6236
G1 X3.3019 Y3.6289
G1 X3.3069 Y3.6338
G1 X3.312 Y3.6385
G1 X3.3173 Y3.6427
G1 X3.323 Y3.6469
G1 X3.3288 Y3.6504
G1 X3.335 Y3.6539
G1 X3.3411 Y3.6568
G1 X3.3475 Y3.6595
G1 X3.3541 Y3.6617
G1 X3.3607 Y3.6636
G1 X3.3675 Y3.665
G1 X3.3743 Y3.6662
G1 X3.3812 Y3.6669
G1 X3.3881 Y3.6672
G1 X3.395 Y3.667
G1 X3.402 Y3.6666
G1 X3.4087 Y3.6656
G1 X3.4155 Y3.6643
G1 X3.4223 Y3.6627
G1 X3.4289 Y3.6606
G1 X3.4353 Y3.6581
G1 X3.4416 Y3.6554
G1 X3.4479 Y3.6522
G1 X3.4537 Y3.6487
G1 X3.4595 Y3.6449
G1 X3.4651 Y3.6407
G1 X3.4703 Y3.6362
G1 X3.4753 Y3.6313
G1 X3.48 Y3.6264
G1 X3.4844 Y3.621
G1 X3.4886 Y3.6155
G1 X3.4924 Y3.6096
G1 X3.4957 Y3.6037
G1 X3.4989 Y3.5974
G1 X3.5015 Y3.591
G1 X3.5039 Y3.5846
G1 X3.5059 Y3.578
G1 X3.5074 Y3.5712
G1 X3.5086 Y3.5643
G1 X3.5094 Y3.5576
G1 X3.5098 Y3.5507
G1 X3.5098 Y3.5437
G1 X3.5094 Y3.5368
G1 X3.5086 Y3.5299
G1 X3.5074 Y3.5232
G1 X3.5059 Y3.5164
G1 X3.5039 Y3.5098
G1 X3.5015 Y3.5033
G1 X3.4989 Y3.4969
G1 X3.4957 Y3.4907
G1 X3.4924 Y3.4846
G1 X3.4886 Y3.4788
G1 X3.4844 Y3.4734
G1 X3.48 Y3.4679
G1 X3.4753 Y3.4629
G1 X3.4703 Y3.4582
G1 X3.4651 Y3.4537
G1 X3.4595 Y3.4494
G1 X3.4537 Y3.4456
G1 X3.4479 Y3.4421
G1 X3.4416 Y3.439
G1 X3.4353 Y3.4361
G1 X3.4289 Y3.4336
G1 X3.4223 Y3.4316
G1 X3.4155 Y3.43
G1 X3.4087 Y3.4287
G1 X3.402 Y3.4277
G1 X3.395 Y3.4272
G1 X3.3881 Y3.4271
G1 X3.3812 Y3.4275
G1 X3.3743 Y3.4282
G1 X3.3675 Y3.4293
G1 X3.3607 Y3.4308
G1 X3.3541 Y3.4327
G1 X3.3475 Y3.4348
G1 X3.3411 Y3.4374
G1 X3.335 Y3.4405
G1 X3.3288 Y3.4438
G1 X3.323 Y3.4475
G1 X3.3173 Y3.4516
G1 X3.312 Y3.4558
G1 X3.3069 Y3.4604
G1 X3.3019 Y3.4654
G1 X3.2974 Y3.4706
G1 X3.2931 Y3.4761
G1 X3.2892 Y3.4818
G1 X3.2856 Y3.4877
G1 X3.2823 Y3.4938
G1 X3.2795 Y3.5001
G1 X3.277 Y3.5065
G1 X3.2747 Y3.5131
G1 X3.2731 Y3.5197
G1 X3.2716 Y3.5266
G1 X3.2706 Y3.5334
G1 X3.27 Y3.5403
G0 Z0.125
M5
M30
